; G-Code originally generated by Simplify3D(R) Version 4.1.2
;M80 ; power supply on
G90
M82
M106 S0
M140 S50 ; custom bed temp
M190 S50 ; custom bed temp
M104 S200 T0 ; custom hot end temp - first layer
M109 S200 T0 ; custom hot end temp - first layer
G28 ; home all axes
G29 ; probe ABL
;M420 S1 ; restore ABL mesh 
;customstart
; process Color1-6-1
; layer 1, Z = 0.200
T0
G92 E0.0000
G1 E-12 F1200 ; custom retraction
; feature skirt
; tool H0.200 W0.576
G1 Z0.400 F1200
G1 X74.305 Y87.945 F6000
G1 Z0.200 F1200
G1 E-0.4 F1200 ; custom un-retraction/prime
G92 E0.0000
G1 X74.958 Y87.521 E0.0335 F1800
G1 X75.178 Y87.394 E0.0445
G1 X75.872 Y87.041 E0.0781
G1 X76.104 Y86.937 E0.0890
G1 X76.831 Y86.658 E0.1226
G1 X77.07300000000001 Y86.57900000000001 E0.1336
G1 X77.824 Y86.378 E0.1671
G1 X78.074 Y86.325 E0.1781
G1 X78.842 Y86.203 E0.2116
G1 X79.096 Y86.17699999999999 E0.2226
G1 X79.809 Y86.13900000000001 E0.2534
G1 X79.936 Y86.136 E0.2589
G1 X120.064 Y86.136 E1.9886
G1 X120.191 Y86.13900000000001 E1.9941
G1 X120.905 Y86.17699999999999 E2.0249
G1 X121.158 Y86.203 E2.0359
G1 X121.927 Y86.325 E2.0694
G1 X122.177 Y86.378 E2.0804
G1 X122.928 Y86.58 E2.1139
G1 X123.168 Y86.658 E2.1248
G1 X123.895 Y86.937 E2.1584
G1 X124.129 Y87.041 E2.1694
G1 X124.822 Y87.394 E2.2030
G1 X125.042 Y87.521 E2.2139
G1 X125.694 Y87.945 E2.2474
G1 X125.9 Y88.094 E2.2584
G1 X126.505 Y88.584 E2.2919
G1 X126.695 Y88.755 E2.3030
G1 X127.246 Y89.306 E2.3366
G1 X127.417 Y89.49600000000001 E2.3476
G1 X127.906 Y90.101 E2.3811
G1 X128.055 Y90.306 E2.3920
G1 X128.478 Y90.957 E2.4255
G1 X128.60500000000002 Y91.176 E2.4364
G1 X128.959 Y91.87 E2.4700
G1 X129.064 Y92.107 E2.4812
G1 X129.34199999999998 Y92.833 E2.5147
G1 X129.42000000000002 Y93.071 E2.5255
G1 X129.62099999999998 Y93.821 E2.5589
G1 X129.675 Y94.072 E2.5700
G1 X129.797 Y94.842 E2.6036
G1 X129.824 Y95.098 E2.6147
G1 X129.861 Y95.812 E2.6455
G1 X129.864 Y95.937 E2.6509
G1 X129.864 Y104.063 E3.0012
G1 X129.861 Y104.188 E3.0066
G1 X129.824 Y104.902 E3.0374
G1 X129.797 Y105.158 E3.0485
G1 X129.675 Y105.928 E3.0821
G1 X129.62099999999998 Y106.179 E3.0932
G1 X129.42000000000002 Y106.929 E3.1267
G1 X129.34199999999998 Y107.167 E3.1374
G1 X129.064 Y107.893 E3.1709
G1 X128.959 Y108.13 E3.1821
G1 X128.60500000000002 Y108.824 E3.2157
G1 X128.478 Y109.043 E3.2266
G1 X128.055 Y109.694 E3.2601
G1 X127.906 Y109.899 E3.2710
G1 X127.417 Y110.50399999999999 E3.3045
G1 X127.246 Y110.694 E3.3156
G1 X126.695 Y111.245 E3.3491
G1 X126.505 Y111.416 E3.3602
G1 X125.9 Y111.906 E3.3937
G1 X125.694 Y112.055 E3.4047
G1 X125.042 Y112.479 E3.4382
G1 X124.822 Y112.606 E3.4491
G1 X124.129 Y112.959 E3.4827
G1 X123.895 Y113.063 E3.4937
G1 X123.169 Y113.342 E3.5273
G1 X122.928 Y113.42 E3.5382
G1 X122.177 Y113.622 E3.5717
G1 X121.927 Y113.675 E3.5827
G1 X121.158 Y113.797 E3.6163
G1 X120.905 Y113.82300000000001 E3.6273
G1 X120.191 Y113.86099999999999 E3.6581
G1 X120.064 Y113.864 E3.6635
G1 X79.936 Y113.864 E5.3932
G1 X79.809 Y113.86099999999999 E5.3987
G1 X79.096 Y113.82300000000001 E5.4295
G1 X78.842 Y113.797 E5.4405
G1 X78.074 Y113.675 E5.4740
G1 X77.824 Y113.622 E5.4850
G1 X77.07300000000001 Y113.42099999999999 E5.5186
G1 X76.831 Y113.342 E5.5295
G1 X76.104 Y113.063 E5.5631
G1 X75.872 Y112.959 E5.5741
G1 X75.178 Y112.606 E5.6076
G1 X74.958 Y112.479 E5.6186
G1 X74.305 Y112.055 E5.6521
G1 X74.099 Y111.905 E5.6631
G1 X73.494 Y111.416 E5.6966
G1 X73.305 Y111.245 E5.7076
G1 X72.755 Y110.695 E5.7412
G1 X72.584 Y110.506 E5.7521
G1 X72.095 Y109.90100000000001 E5.7857
G1 X71.945 Y109.695 E5.7967
G1 X71.521 Y109.042 E5.8302
G1 X71.394 Y108.822 E5.8412
G1 X71.041 Y108.128 E5.8747
G1 X70.937 Y107.896 E5.8857
G1 X70.658 Y107.169 E5.9192
G1 X70.57900000000001 Y106.92699999999999 E5.9302
G1 X70.378 Y106.175 E5.9638
G1 X70.325 Y105.926 E5.9747
G1 X70.203 Y105.158 E6.0083
G1 X70.17699999999999 Y104.904 E6.0193
G1 X70.139 Y104.191 E6.0501
G1 X70.136 Y104.064 E6.0556
G1 X70.136 Y95.936 E6.4059
G1 X70.139 Y95.809 E6.4114
G1 X70.17699999999999 Y95.096 E6.4422
G1 X70.203 Y94.842 E6.4532
G1 X70.325 Y94.074 E6.4867
G1 X70.378 Y93.825 E6.4977
G1 X70.57900000000001 Y93.07300000000001 E6.5312
G1 X70.658 Y92.831 E6.5422
G1 X70.937 Y92.104 E6.5757
G1 X71.041 Y91.872 E6.5867
G1 X71.394 Y91.178 E6.6202
G1 X71.521 Y90.958 E6.6312
G1 X71.945 Y90.305 E6.6648
G1 X72.095 Y90.09899999999999 E6.6758
G1 X72.584 Y89.494 E6.7093
G1 X72.755 Y89.305 E6.7203
G1 X73.305 Y88.755 E6.7538
G1 X73.494 Y88.584 E6.7648
G1 X74.099 Y88.095 E6.7983
G1 X74.305 Y87.945 E6.8093
G92 E0.0000
G1 E-12 F1200 ; custom retraction
G1 Z0.600 F1200
G1 X74.632 Y88.42 F6000
G1 Z0.200 F1200
G1 E-0.4 F1200 ; custom un-retraction/prime
G92 E0.0000
G1 X75.259 Y88.013 E0.0322 F1800
G1 X75.453 Y87.9 E0.0419
G1 X76.12 Y87.561 E0.0742
G1 X76.325 Y87.469 E0.0838
G1 X77.023 Y87.201 E0.1161
G1 X77.237 Y87.132 E0.1258
G1 X77.959 Y86.938 E0.1580
G1 X78.179 Y86.892 E0.1677
G1 X78.918 Y86.775 E0.1999
G1 X79.14099999999999 Y86.751 E0.2096
G1 X79.832 Y86.715 E0.2394
G1 X79.944 Y86.712 E0.2443
G1 X120.056 Y86.712 E1.9733
G1 X120.168 Y86.715 E1.9781
G1 X120.859 Y86.751 E2.0080
G1 X121.083 Y86.775 E2.0176
G1 X121.822 Y86.892 E2.0499
G1 X122.042 Y86.938 E2.0596
G1 X122.764 Y87.132 E2.0918
G1 X122.976 Y87.201 E2.1014
G1 X123.675 Y87.469 E2.1337
G1 X123.881 Y87.561 E2.1434
G1 X124.547 Y87.90100000000001 E2.1757
G1 X124.741 Y88.013 E2.1853
G1 X125.368 Y88.42 E2.2175
G1 X125.549 Y88.551 E2.2272
G1 X126.131 Y89.02199999999999 E2.2594
G1 X126.299 Y89.173 E2.2692
G1 X126.828 Y89.702 E2.3014
G1 X126.979 Y89.87 E2.3112
G1 X127.449 Y90.451 E2.3434
G1 X127.58 Y90.632 E2.3530
G1 X127.987 Y91.25800000000001 E2.3852
G1 X128.099 Y91.451 E2.3948
G1 X128.439 Y92.119 E2.4271
G1 X128.53199999999998 Y92.327 E2.4370
G1 X128.799 Y93.025 E2.4692
G1 X128.86700000000002 Y93.235 E2.4787
G1 X129.061 Y93.956 E2.5108
G1 X129.108 Y94.17699999999999 E2.5206
G1 X129.226 Y94.917 E2.5529
G1 X129.249 Y95.143 E2.5627
G1 X129.285 Y95.834 E2.5925
G1 X129.288 Y95.945 E2.5973
G1 X129.288 Y104.055 E2.9469
G1 X129.285 Y104.166 E2.9517
G1 X129.249 Y104.857 E2.9815
G1 X129.226 Y105.083 E2.9913
G1 X129.108 Y105.82300000000001 E3.0236
G1 X129.061 Y106.044 E3.0333
G1 X128.86700000000002 Y106.765 E3.0655
G1 X128.799 Y106.975 E3.0750
G1 X128.53199999999998 Y107.673 E3.1072
G1 X128.439 Y107.881 E3.1171
G1 X128.099 Y108.549 E3.1494
G1 X127.987 Y108.74199999999999 E3.1590
G1 X127.58 Y109.368 E3.1912
G1 X127.449 Y109.549 E3.2008
G1 X126.979 Y110.13 E3.2330
G1 X126.828 Y110.298 E3.2428
G1 X126.299 Y110.827 E3.2750
G1 X126.131 Y110.97800000000001 E3.2848
G1 X125.549 Y111.449 E3.3170
G1 X125.368 Y111.58 E3.3267
G1 X124.741 Y111.987 E3.3589
G1 X124.547 Y112.09899999999999 E3.3685
G1 X123.881 Y112.439 E3.4008
G1 X123.675 Y112.531 E3.4105
G1 X122.976 Y112.799 E3.4427
G1 X122.764 Y112.868 E3.4524
G1 X122.042 Y113.062 E3.4846
G1 X121.822 Y113.108 E3.4943
G1 X121.083 Y113.225 E3.5265
G1 X120.859 Y113.249 E3.5362
G1 X120.168 Y113.285 E3.5661
G1 X120.056 Y113.288 E3.5709
G1 X79.944 Y113.288 E5.2999
G1 X79.832 Y113.285 E5.3048
G1 X79.14099999999999 Y113.249 E5.3346
G1 X78.918 Y113.225 E5.3443
G1 X78.179 Y113.108 E5.3765
G1 X77.959 Y113.062 E5.3862
G1 X77.237 Y112.868 E5.4184
G1 X77.023 Y112.799 E5.4281
G1 X76.325 Y112.531 E5.4604
G1 X76.12 Y112.439 E5.4700
G1 X75.453 Y112.1 E5.5023
G1 X75.259 Y111.987 E5.5120
G1 X74.632 Y111.58 E5.5442
G1 X74.45 Y111.44800000000001 E5.5539
G1 X73.869 Y110.97800000000001 E5.5861
G1 X73.701 Y110.827 E5.5958
G1 X73.173 Y110.298 E5.6281
G1 X73.023 Y110.131 E5.6377
G1 X72.55199999999999 Y109.55 E5.6700
G1 X72.42 Y109.368 E5.6796
G1 X72.012 Y108.741 E5.7119
G1 X71.9 Y108.547 E5.7216
G1 X71.561 Y107.88 E5.7538
G1 X71.469 Y107.675 E5.7635
G1 X71.201 Y106.977 E5.7957
G1 X71.132 Y106.763 E5.8054
G1 X70.938 Y106.041 E5.8376
G1 X70.892 Y105.821 E5.8473
G1 X70.775 Y105.083 E5.8796
G1 X70.751 Y104.85900000000001 E5.8892
G1 X70.715 Y104.168 E5.9191
G1 X70.712 Y104.056 E5.9239
G1 X70.712 Y95.944 E6.2736
G1 X70.715 Y95.832 E6.2784
G1 X70.751 Y95.14099999999999 E6.3082
G1 X70.775 Y94.917 E6.3179
G1 X70.892 Y94.179 E6.3502
G1 X70.938 Y93.959 E6.3598
G1 X71.132 Y93.237 E6.3921
G1 X71.201 Y93.023 E6.4018
G1 X71.469 Y92.325 E6.4340
G1 X71.561 Y92.12 E6.4437
G1 X71.9 Y91.453 E6.4759
G1 X72.012 Y91.259 E6.4856
G1 X72.42 Y90.632 E6.5178
G1 X72.55199999999999 Y90.45 E6.5275
G1 X73.023 Y89.868 E6.5598
G1 X73.173 Y89.702 E6.5694
G1 X73.701 Y89.173 E6.6017
G1 X73.869 Y89.02199999999999 E6.6114
G1 X74.45 Y88.55199999999999 E6.6436
G1 X74.632 Y88.42 E6.6533
G92 E0.0000
G1 E-12 F1200 ; custom retraction
; feature inner perimeter
G1 Z0.600 F1200
G1 X77.231 Y92.188 F6000
G1 X77.25 Y92.176
G1 X77.90899999999999 Y93.122
G1 Z0.200 F1200
G1 E-0.4 F1200 ; custom un-retraction/prime
G92 E0.0000
G1 X78.221 Y92.919 E0.0161 F1350
G1 X78.553 Y92.75 E0.0321
G1 X78.901 Y92.616 E0.0482
G1 X79.26 Y92.52000000000001 E0.0642
G1 X79.628 Y92.461 E0.0803
G1 X80.038 Y92.44 E0.0979
G1 X119.962 Y92.44 E1.8189
G1 X120.372 Y92.461 E1.8366
G1 X120.74 Y92.52000000000001 E1.8527
G1 X121.099 Y92.616 E1.8687
G1 X121.448 Y92.75 E1.8848
G1 X121.779 Y92.919 E1.9008
G1 X122.092 Y93.122 E1.9169
G1 X122.381 Y93.356 E1.9329
G1 X122.644 Y93.619 E1.9490
G1 X122.878 Y93.908 E1.9650
G1 X123.081 Y94.221 E1.9811
G1 X123.251 Y94.553 E1.9971
G1 X123.384 Y94.90100000000001 E2.0132
G1 X123.481 Y95.261 E2.0293
G1 X123.539 Y95.628 E2.0453
G1 X123.56 Y96.037 E2.0629
G1 X123.56 Y103.963 E2.4046
G1 X123.539 Y104.372 E2.4223
G1 X123.481 Y104.739 E2.4383
G1 X123.384 Y105.09899999999999 E2.4544
G1 X123.251 Y105.447 E2.4704
G1 X123.081 Y105.779 E2.4864
G1 X122.878 Y106.092 E2.5025
G1 X122.644 Y106.381 E2.5186
G1 X122.381 Y106.644 E2.5346
G1 X122.092 Y106.878 E2.5507
G1 X121.779 Y107.081 E2.5667
G1 X121.448 Y107.25 E2.5828
G1 X121.099 Y107.384 E2.5988
G1 X120.74 Y107.47999999999999 E2.6149
G1 X120.372 Y107.539 E2.6309
G1 X119.962 Y107.56 E2.6486
G1 X80.038 Y107.56 E4.3696
G1 X79.628 Y107.539 E4.3873
G1 X79.26 Y107.47999999999999 E4.4033
G1 X78.901 Y107.384 E4.4194
G1 X78.553 Y107.25 E4.4354
G1 X78.221 Y107.081 E4.4515
G1 X77.90899999999999 Y106.878 E4.4675
G1 X77.619 Y106.644 E4.4836
G1 X77.356 Y106.381 E4.4996
G1 X77.121 Y106.09100000000001 E4.5157
G1 X76.919 Y105.779 E4.5317
G1 X76.75 Y105.447 E4.5478
G1 X76.616 Y105.1 E4.5638
G1 X76.52 Y104.74000000000001 E4.5799
G1 X76.461 Y104.372 E4.5959
G1 X76.44 Y103.962 E4.6136
G1 X76.44 Y96.038 E4.9552
G1 X76.461 Y95.628 E4.9729
G1 X76.52 Y95.25999999999999 E4.9890
G1 X76.616 Y94.9 E5.0050
G1 X76.75 Y94.553 E5.0211
G1 X76.919 Y94.221 E5.0371
G1 X77.121 Y93.90899999999999 E5.0532
G1 X77.356 Y93.619 E5.0692
G1 X77.619 Y93.356 E5.0853
G1 X77.90899999999999 Y93.122 E5.1013
G1 X77.57 Y92.655 F6000
G92 E0.0000
G1 X77.93299999999999 Y92.419 E0.0187 F1350
G1 X78.318 Y92.223 E0.0373
G1 X78.72200000000001 Y92.068 E0.0560
G1 X79.14 Y91.956 E0.0746
G1 X79.568 Y91.888 E0.0933
G1 X80.023 Y91.864 E0.1129
G1 X119.977 Y91.864 E1.8352
G1 X120.433 Y91.888 E1.8548
G1 X120.86 Y91.956 E1.8735
G1 X121.278 Y92.068 E1.8921
G1 X121.682 Y92.223 E1.9108
G1 X122.067 Y92.419 E1.9294
G1 X122.431 Y92.655 E1.9481
G1 X122.767 Y92.92699999999999 E1.9667
G1 X123.073 Y93.233 E1.9854
G1 X123.345 Y93.569 E2.0040
G1 X123.581 Y93.93299999999999 E2.0227
G1 X123.778 Y94.318 E2.0414
G1 X123.932 Y94.72200000000001 E2.0600
G1 X124.045 Y95.14099999999999 E2.0787
G1 X124.112 Y95.568 E2.0973
G1 X124.136 Y96.02199999999999 E2.1169
G1 X124.136 Y103.97800000000001 E2.4599
G1 X124.112 Y104.432 E2.4795
G1 X124.045 Y104.85900000000001 E2.4981
G1 X123.932 Y105.27799999999999 E2.5168
G1 X123.778 Y105.682 E2.5355
G1 X123.581 Y106.06700000000001 E2.5541
G1 X123.345 Y106.431 E2.5728
G1 X123.073 Y106.767 E2.5914
G1 X122.767 Y107.07300000000001 E2.6101
G1 X122.431 Y107.345 E2.6287
G1 X122.067 Y107.581 E2.6474
G1 X121.682 Y107.777 E2.6660
G1 X121.278 Y107.932 E2.6847
G1 X120.86 Y108.044 E2.7033
G1 X120.433 Y108.112 E2.7220
G1 X119.977 Y108.136 E2.7416
G1 X80.023 Y108.136 E4.4639
G1 X79.568 Y108.112 E4.4835
G1 X79.14 Y108.044 E4.5022
G1 X78.72200000000001 Y107.932 E4.5208
G1 X78.318 Y107.777 E4.5395
G1 X77.93299999999999 Y107.581 E4.5582
G1 X77.57 Y107.345 E4.5768
G1 X77.233 Y107.07300000000001 E4.5955
G1 X76.92699999999999 Y106.767 E4.6141
G1 X76.655 Y106.43 E4.6328
G1 X76.419 Y106.06700000000001 E4.6514
G1 X76.223 Y105.682 E4.6701
G1 X76.068 Y105.27799999999999 E4.6887
G1 X75.956 Y104.86 E4.7074
G1 X75.888 Y104.432 E4.7261
G1 X75.864 Y103.977 E4.7457
G1 X75.864 Y96.023 E5.0886
G1 X75.888 Y95.568 E5.1082
G1 X75.956 Y95.14 E5.1269
G1 X76.068 Y94.72200000000001 E5.1455
G1 X76.223 Y94.318 E5.1642
G1 X76.419 Y93.93299999999999 E5.1828
G1 X76.655 Y93.57 E5.2015
G1 X76.92699999999999 Y93.233 E5.2202
G1 X77.233 Y92.92699999999999 E5.2388
G1 X77.57 Y92.655 E5.2575
; feature outer perimeter
G1 X77.231 Y92.188 F6000
G92 E0.0000
G1 X77.644 Y91.92 E0.0213 F900
G1 X78.084 Y91.696 E0.0425
G1 X78.544 Y91.519 E0.0638
G1 X79.02 Y91.39099999999999 E0.0850
G1 X79.507 Y91.314 E0.1063
G1 X80.008 Y91.288 E0.1279
G1 X119.992 Y91.288 E1.8514
G1 X120.493 Y91.314 E1.8730
G1 X120.98 Y91.39099999999999 E1.8943
G1 X121.456 Y91.519 E1.9155
G1 X121.917 Y91.696 E1.9368
G1 X122.356 Y91.92 E1.9580
G1 X122.77 Y92.188 E1.9793
G1 X123.153 Y92.499 E2.0006
G1 X123.502 Y92.84700000000001 E2.0218
G1 X123.812 Y93.22999999999999 E2.0431
G1 X124.08 Y93.644 E2.0643
G1 X124.305 Y94.084 E2.0856
G1 X124.481 Y94.544 E2.1069
G1 X124.609 Y95.021 E2.1281
G1 X124.686 Y95.507 E2.1494
G1 X124.712 Y96.00800000000001 E2.1710
G1 X124.712 Y103.99199999999999 E2.5152
G1 X124.686 Y104.493 E2.5367
G1 X124.609 Y104.979 E2.5580
G1 X124.481 Y105.456 E2.5793
G1 X124.304 Y105.916 E2.6005
G1 X124.08 Y106.356 E2.6218
G1 X123.812 Y106.769 E2.6430
G1 X123.502 Y107.15299999999999 E2.6643
G1 X123.153 Y107.501 E2.6855
G1 X122.77 Y107.812 E2.7068
G1 X122.356 Y108.08 E2.7281
G1 X121.917 Y108.304 E2.7493
G1 X121.456 Y108.481 E2.7706
G1 X120.98 Y108.60900000000001 E2.7918
G1 X120.493 Y108.686 E2.8131
G1 X119.992 Y108.712 E2.8347
G1 X80.008 Y108.712 E4.5582
G1 X79.508 Y108.686 E4.5798
G1 X79.02 Y108.60900000000001 E4.6011
G1 X78.544 Y108.481 E4.6223
G1 X78.084 Y108.304 E4.6436
G1 X77.644 Y108.08 E4.6649
G1 X77.231 Y107.812 E4.6861
G1 X76.84700000000001 Y107.501 E4.7074
G1 X76.499 Y107.15299999999999 E4.7286
G1 X76.188 Y106.769 E4.7499
G1 X75.92 Y106.356 E4.7711
G1 X75.696 Y105.916 E4.7924
G1 X75.519 Y105.456 E4.8137
G1 X75.39099999999999 Y104.97999999999999 E4.8349
G1 X75.314 Y104.493 E4.8562
G1 X75.288 Y103.99199999999999 E4.8778
G1 X75.288 Y96.00800000000001 E5.2219
G1 X75.314 Y95.507 E5.2435
G1 X75.39099999999999 Y95.02000000000001 E5.2648
G1 X75.519 Y94.544 E5.2861
G1 X75.696 Y94.084 E5.3073
G1 X75.92 Y93.644 E5.3286
G1 X76.188 Y93.231 E5.3498
G1 X76.499 Y92.84700000000001 E5.3711
G1 X76.84700000000001 Y92.499 E5.3923
G1 X77.231 Y92.188 E5.4136
; feature solid layer
G1 X77.985 Y106.49600000000001 F6000
G92 E0.0000
G1 X77.504 Y106.015 E0.0294 F1440
G1 X77.402 Y105.888 E0.0364
G1 X77.218 Y105.606 E0.0509
G1 X77.066 Y105.306 E0.0654
G1 X76.945 Y104.99199999999999 E0.0799
G1 X76.858 Y104.668 E0.0943
G1 X76.837 Y104.533 E0.1002
G1 X79.467 Y107.163 E0.2606
G1 X79.664 Y107.194 E0.2692
G1 X80.047 Y107.214 E0.2857
G1 X80.333 Y107.214 E0.2980
G1 X76.786 Y103.667 E0.5143
G1 X76.786 Y102.852 E0.5494
G1 X81.148 Y107.214 E0.8153
G1 X81.962 Y107.214 E0.8504
G1 X76.786 Y102.038 E1.1660
G1 X76.786 Y101.223 E1.2011
G1 X82.777 Y107.214 E1.5663
G1 X83.59100000000001 Y107.214 E1.6014
G1 X76.786 Y100.40899999999999 E2.0163
G1 X76.786 Y99.594 E2.0514
G1 X84.406 Y107.214 E2.5160
G1 X85.221 Y107.214 E2.5511
G1 X76.786 Y98.779 E3.0653
G1 X76.786 Y97.965 E3.1004
G1 X86.035 Y107.214 E3.6642
G1 X86.85 Y107.214 E3.6993
G1 X76.786 Y97.15 E4.3128
G1 X76.786 Y96.336 E4.3480
G1 X87.664 Y107.214 E5.0111
G1 X88.479 Y107.214 E5.0462
G1 X76.822 Y95.55799999999999 E5.7568
G1 X76.858 Y95.332 E5.7667
G1 X76.945 Y95.007 E5.7812
G1 X76.98400000000001 Y94.905 E5.7859
G1 X89.293 Y107.214 E6.5362
G1 X90.108 Y107.214 E6.5713
G1 X77.246 Y94.352 E7.3554
G1 X77.401 Y94.112 E7.3678
G1 X77.589 Y93.881 E7.3806
G1 X90.923 Y107.214 E8.1934
G1 X91.737 Y107.214 E8.2285
G1 X78.008 Y93.485 E9.0654
G1 X78.112 Y93.402 E9.0712
G1 X78.394 Y93.218 E9.0857
G1 X78.501 Y93.164 E9.0909
G1 X92.55199999999999 Y107.214 E9.9474
G1 X93.366 Y107.214 E9.9825
G1 X79.078 Y92.926 E10.8535
G1 X79.332 Y92.858 E10.8648
G1 X79.664 Y92.806 E10.8793
G1 X79.767 Y92.8 E10.8838
G1 X94.181 Y107.214 E11.7625
G1 X94.99600000000001 Y107.214 E11.7976
G1 X80.56700000000001 Y92.786 E12.6771
G1 X81.381 Y92.786 E12.7123
G1 X95.81 Y107.214 E13.5918
G1 X96.625 Y107.214 E13.6269
G1 X82.196 Y92.786 E14.5065
G1 X83.011 Y92.786 E14.5416
G1 X97.439 Y107.214 E15.4212
G1 X98.25399999999999 Y107.214 E15.4563
G1 X83.825 Y92.786 E16.3359
G1 X84.64 Y92.786 E16.3710
G1 X99.069 Y107.214 E17.2506
G1 X99.88300000000001 Y107.214 E17.2857
G1 X85.45400000000001 Y92.786 E18.1653
G1 X86.269 Y92.786 E18.2004
G1 X100.69800000000001 Y107.214 E19.0800
G1 X101.512 Y107.214 E19.1151
G1 X87.084 Y92.786 E19.9947
G1 X87.898 Y92.786 E20.0298
G1 X102.327 Y107.214 E20.9094
G1 X103.14099999999999 Y107.214 E20.9445
G1 X88.713 Y92.786 E21.8240
G1 X89.527 Y92.786 E21.8592
G1 X103.956 Y107.214 E22.7387
G1 X104.771 Y107.214 E22.7738
G1 X90.342 Y92.786 E23.6534
G1 X91.156 Y92.786 E23.6885
G1 X105.58500000000001 Y107.214 E24.5681
G1 X106.4 Y107.214 E24.6032
G1 X91.971 Y92.786 E25.4828
G1 X92.786 Y92.786 E25.5179
G1 X107.214 Y107.214 E26.3975
G1 X108.029 Y107.214 E26.4326
G1 X93.6 Y92.786 E27.3122
G1 X94.41499999999999 Y92.786 E27.3473
G1 X108.844 Y107.214 E28.2269
G1 X109.658 Y107.214 E28.2620
G1 X95.229 Y92.786 E29.1416
G1 X96.044 Y92.786 E29.1767
G1 X110.473 Y107.214 E30.0563
G1 X111.287 Y107.214 E30.0914
G1 X96.85900000000001 Y92.786 E30.9709
G1 X97.673 Y92.786 E31.0061
G1 X112.102 Y107.214 E31.8856
G1 X112.917 Y107.214 E31.9207
G1 X98.488 Y92.786 E32.8003
G1 X99.30199999999999 Y92.786 E32.8354
G1 X113.731 Y107.214 E33.7150
G1 X114.546 Y107.214 E33.7501
G1 X100.11699999999999 Y92.786 E34.6297
G1 X100.931 Y92.786 E34.6648
G1 X115.36 Y107.214 E35.5444
G1 X116.175 Y107.214 E35.5795
G1 X101.74600000000001 Y92.786 E36.4591
G1 X102.561 Y92.786 E36.4942
G1 X116.989 Y107.214 E37.3738
G1 X117.804 Y107.214 E37.4089
G1 X103.375 Y92.786 E38.2885
G1 X104.19 Y92.786 E38.3236
G1 X118.619 Y107.214 E39.2032
G1 X119.433 Y107.214 E39.2383
G1 X105.00399999999999 Y92.786 E40.1178
G1 X105.819 Y92.786 E40.1530
G1 X120.233 Y107.2 E41.0316
G1 X120.336 Y107.194 E41.0361
G1 X120.668 Y107.142 E41.0506
G1 X120.922 Y107.074 E41.0619
G1 X106.634 Y92.786 E41.9329
G1 X107.44800000000001 Y92.786 E41.9680
G1 X121.499 Y106.836 E42.8245
G1 X121.606 Y106.782 E42.8297
G1 X121.888 Y106.598 E42.8442
G1 X121.992 Y106.515 E42.8500
G1 X108.263 Y92.786 E43.6869
G1 X109.077 Y92.786 E43.7220
G1 X122.411 Y106.119 E44.5348
G1 X122.598 Y105.888 E44.5476
G1 X122.754 Y105.648 E44.5600
G1 X109.892 Y92.786 E45.3441
G1 X110.707 Y92.786 E45.3792
G1 X123.016 Y105.095 E46.1296
G1 X123.055 Y104.993 E46.1343
G1 X123.142 Y104.667 E46.1488
G1 X123.178 Y104.44200000000001 E46.1586
G1 X111.521 Y92.786 E46.8692
G1 X112.336 Y92.786 E46.9043
G1 X123.214 Y103.664 E47.5675
G1 X123.214 Y102.85 E47.6026
G1 X113.15 Y92.786 E48.2161
G1 X113.965 Y92.786 E48.2512
G1 X123.214 Y102.035 E48.8151
G1 X123.214 Y101.221 E48.8502
G1 X114.779 Y92.786 E49.3644
G1 X115.594 Y92.786 E49.3995
G1 X123.214 Y100.406 E49.8640
G1 X123.214 Y99.59100000000001 E49.8991
G1 X116.409 Y92.786 E50.3140
G1 X117.223 Y92.786 E50.3491
G1 X123.214 Y98.777 E50.7143
G1 X123.214 Y97.962 E50.7494
G1 X118.038 Y92.786 E51.0650
G1 X118.852 Y92.786 E51.1001
G1 X123.214 Y97.148 E51.3660
G1 X123.214 Y96.333 E51.4011
G1 X119.667 Y92.786 E51.6174
G1 X119.953 Y92.786 E51.6297
G1 X120.336 Y92.806 E51.6463
G1 X120.533 Y92.837 E51.6548
G1 X123.163 Y95.468 E51.8152
G1 X123.142 Y95.333 E51.8211
G1 X123.055 Y95.007 E51.8356
G1 X122.934 Y94.693 E51.8501
G1 X122.782 Y94.39500000000001 E51.8646
G1 X122.598 Y94.112 E51.8791
G1 X122.496 Y93.98599999999999 E51.8861
G1 X122.014 Y93.503 E51.9155
G92 E0.0000
G1 E-12 F1200 ; custom retraction
; layer 2, Z = 0.400
M104 S185 T0 ; custom hot end temp - A
M106 S255 ; custom fan 100% from layer 2
; feature inner perimeter
; tool H0.200 W0.480
G1 Z0.600 F1200
G1 X122.233 Y92.92699999999999 F6000
G1 Z0.400 F1200
G1 E-0.4 F1200 ; custom un-retraction/prime
G92 E0.0000
G1 X122.542 Y93.17699999999999 E0.0143 F2700
G1 X122.823 Y93.458 E0.0285
G1 X123.073 Y93.767 E0.0428
G1 X123.29 Y94.101 E0.0571
G1 X123.47 Y94.455 E0.0714
G1 X123.612 Y94.826 E0.0857
G1 X123.716 Y95.211 E0.1000
G1 X123.778 Y95.60300000000001 E0.1142
G1 X123.8 Y96.031 E0.1296
G1 X123.8 Y103.969 E0.4148
G1 X123.778 Y104.39699999999999 E0.4302
G1 X123.716 Y104.789 E0.4444
G1 X123.612 Y105.174 E0.4587
G1 X123.47 Y105.545 E0.4730
G1 X123.29 Y105.899 E0.4873
G1 X123.073 Y106.233 E0.5016
G1 X122.823 Y106.542 E0.5159
G1 X122.542 Y106.82300000000001 E0.5301
G1 X122.233 Y107.07300000000001 E0.5444
G1 X121.899 Y107.28999999999999 E0.5587
G1 X121.545 Y107.47 E0.5730
G1 X121.174 Y107.612 E0.5873
G1 X120.79 Y107.715 E0.6016
G1 X120.397 Y107.77799999999999 E0.6158
G1 X119.969 Y107.8 E0.6313
G1 X80.031 Y107.8 E2.0658
G1 X79.60300000000001 Y107.77799999999999 E2.0812
G1 X79.21000000000001 Y107.715 E2.0955
G1 X78.826 Y107.612 E2.1098
G1 X78.455 Y107.47 E2.1241
G1 X78.101 Y107.289 E2.1384
G1 X77.767 Y107.07300000000001 E2.1527
G1 X77.458 Y106.82300000000001 E2.1669
G1 X77.17699999999999 Y106.542 E2.1812
G1 X76.92699999999999 Y106.233 E2.1955
G1 X76.711 Y105.899 E2.2098
G1 X76.53 Y105.545 E2.2241
G1 X76.388 Y105.174 E2.2383
G1 X76.285 Y104.78999999999999 E2.2526
G1 X76.22200000000001 Y104.39699999999999 E2.2669
G1 X76.2 Y103.969 E2.2823
G1 X76.2 Y96.031 E2.5674
G1 X76.22200000000001 Y95.60300000000001 E2.5828
G1 X76.285 Y95.21000000000001 E2.5971
G1 X76.388 Y94.826 E2.6114
G1 X76.53 Y94.455 E2.6257
G1 X76.711 Y94.101 E2.6400
G1 X76.92699999999999 Y93.767 E2.6542
G1 X77.17699999999999 Y93.458 E2.6685
G1 X77.458 Y93.17699999999999 E2.6828
G1 X77.767 Y92.92699999999999 E2.6971
G1 X78.101 Y92.711 E2.7114
G1 X78.455 Y92.53 E2.7257
G1 X78.826 Y92.388 E2.7399
G1 X79.21000000000001 Y92.285 E2.7542
G1 X79.60300000000001 Y92.22200000000001 E2.7685
G1 X80.031 Y92.2 E2.7839
G1 X119.969 Y92.2 E4.2185
G1 X120.397 Y92.22200000000001 E4.2339
G1 X120.79 Y92.285 E4.2482
G1 X121.174 Y92.388 E4.2625
G1 X121.545 Y92.53 E4.2768
G1 X121.899 Y92.71000000000001 E4.2910
G1 X122.233 Y92.92699999999999 E4.3053
G1 X122.515 Y92.538 F6000
G92 E0.0000
G1 X122.864 Y92.82 E0.0161 F2700
G1 X123.18 Y93.137 E0.0322
G1 X123.462 Y93.485 E0.0483
G1 X123.706 Y93.86099999999999 E0.0644
G1 X123.909 Y94.259 E0.0804
G1 X124.069 Y94.678 E0.0965
G1 X124.186 Y95.11099999999999 E0.1126
G1 X124.256 Y95.553 E0.1287
G1 X124.28 Y96.019 E0.1455
G1 X124.28 Y103.981 E0.4315
G1 X124.256 Y104.447 E0.4483
G1 X124.186 Y104.88900000000001 E0.4643
G1 X124.069 Y105.322 E0.4804
G1 X123.909 Y105.741 E0.4965
G1 X123.706 Y106.13900000000001 E0.5126
G1 X123.462 Y106.515 E0.5287
G1 X123.18 Y106.863 E0.5448
G1 X122.864 Y107.18 E0.5609
G1 X122.515 Y107.462 E0.5770
G1 X122.139 Y107.706 E0.5931
G1 X121.741 Y107.90899999999999 E0.6091
G1 X121.322 Y108.07 E0.6252
G1 X120.89 Y108.186 E0.6413
G1 X120.448 Y108.256 E0.6574
G1 X119.981 Y108.28 E0.6742
G1 X80.019 Y108.28 E2.1097
G1 X79.553 Y108.256 E2.1264
G1 X79.11 Y108.186 E2.1425
G1 X78.678 Y108.07 E2.1586
G1 X78.26 Y107.90899999999999 E2.1747
G1 X77.86 Y107.706 E2.1908
G1 X77.485 Y107.462 E2.2069
G1 X77.137 Y107.18 E2.2230
G1 X76.82 Y106.863 E2.2391
G1 X76.538 Y106.515 E2.2551
G1 X76.294 Y106.14 E2.2712
G1 X76.09100000000001 Y105.74000000000001 E2.2873
G1 X75.93 Y105.322 E2.3034
G1 X75.815 Y104.89 E2.3195
G1 X75.744 Y104.447 E2.3356
G1 X75.72 Y103.981 E2.3524
G1 X75.72 Y96.019 E2.6384
G1 X75.744 Y95.553 E2.6551
G1 X75.815 Y95.11 E2.6712
G1 X75.93 Y94.678 E2.6873
G1 X76.09100000000001 Y94.25999999999999 E2.7034
G1 X76.294 Y93.86 E2.7195
G1 X76.538 Y93.485 E2.7356
G1 X76.82 Y93.137 E2.7517
G1 X77.137 Y92.82 E2.7677
G1 X77.485 Y92.538 E2.7838
G1 X77.86 Y92.294 E2.7999
G1 X78.26 Y92.09100000000001 E2.8160
G1 X78.678 Y91.93 E2.8321
G1 X79.11 Y91.815 E2.8482
G1 X79.553 Y91.744 E2.8643
G1 X80.019 Y91.72 E2.8811
G1 X119.981 Y91.72 E4.3165
G1 X120.448 Y91.744 E4.3333
G1 X120.89 Y91.814 E4.3494
G1 X121.322 Y91.93 E4.3655
G1 X121.741 Y92.09100000000001 E4.3816
G1 X122.139 Y92.294 E4.3976
G1 X122.515 Y92.538 E4.4137
; feature outer perimeter
G1 X122.798 Y92.149 F6000
G92 E0.0000
G1 X123.185 Y92.463 E0.0179 F1800
G1 X123.537 Y92.815 E0.0358
G1 X123.85 Y93.202 E0.0537
G1 X124.122 Y93.62 E0.0716
G1 X124.348 Y94.064 E0.0895
G1 X124.526 Y94.529 E0.1074
G1 X124.656 Y95.011 E0.1253
G1 X124.734 Y95.50200000000001 E0.1432
G1 X124.76 Y96.006 E0.1613
G1 X124.76 Y103.994 E0.4482
G1 X124.734 Y104.49799999999999 E0.4663
G1 X124.656 Y104.989 E0.4842
G1 X124.526 Y105.471 E0.5021
G1 X124.348 Y105.936 E0.5200
G1 X124.122 Y106.38 E0.5379
G1 X123.851 Y106.798 E0.5558
G1 X123.537 Y107.185 E0.5737
G1 X123.185 Y107.537 E0.5916
G1 X122.798 Y107.851 E0.6095
G1 X122.38 Y108.122 E0.6274
G1 X121.936 Y108.348 E0.6453
G1 X121.471 Y108.527 E0.6632
G1 X120.99 Y108.656 E0.6811
G1 X120.498 Y108.73400000000001 E0.6990
G1 X119.994 Y108.75999999999999 E0.7171
G1 X80.006 Y108.75999999999999 E2.1535
G1 X79.503 Y108.73400000000001 E2.1716
G1 X79.01 Y108.656 E2.1895
G1 X78.529 Y108.527 E2.2074
G1 X78.064 Y108.348 E2.2253
G1 X77.62 Y108.122 E2.2432
G1 X77.202 Y107.851 E2.2611
G1 X76.815 Y107.537 E2.2790
G1 X76.463 Y107.185 E2.2969
G1 X76.149 Y106.798 E2.3148
G1 X75.878 Y106.38 E2.3327
G1 X75.652 Y105.936 E2.3506
G1 X75.473 Y105.471 E2.3685
G1 X75.344 Y104.99000000000001 E2.3864
G1 X75.26599999999999 Y104.49799999999999 E2.4043
G1 X75.24 Y103.994 E2.4224
G1 X75.24 Y96.006 E2.7093
G1 X75.26599999999999 Y95.50200000000001 E2.7274
G1 X75.344 Y95.00999999999999 E2.7453
G1 X75.473 Y94.529 E2.7632
G1 X75.652 Y94.064 E2.7811
G1 X75.878 Y93.62 E2.7990
G1 X76.149 Y93.202 E2.8169
G1 X76.463 Y92.815 E2.8348
G1 X76.815 Y92.463 E2.8527
G1 X77.202 Y92.149 E2.8706
G1 X77.62 Y91.878 E2.8885
G1 X78.064 Y91.652 E2.9064
G1 X78.529 Y91.473 E2.9243
G1 X79.01 Y91.344 E2.9422
G1 X79.503 Y91.26599999999999 E2.9601
G1 X80.006 Y91.24000000000001 E2.9782
G1 X119.994 Y91.24000000000001 E4.4146
G1 X120.498 Y91.26599999999999 E4.4327
G1 X120.99 Y91.344 E4.4506
G1 X121.471 Y91.473 E4.4685
G1 X121.936 Y91.652 E4.4864
G1 X122.38 Y91.878 E4.5043
G1 X122.798 Y92.149 E4.5222
; feature solid layer
G1 X123.283 Y105.227 F6000
G92 E0.0000
G1 X121.227 Y107.28399999999999 E0.1045 F2880
G1 X121.085 Y107.338 E0.1099
G1 X120.73 Y107.43299999999999 E0.1231
G1 X120.367 Y107.491 E0.1363
G1 X120.34 Y107.49199999999999 E0.1373
G1 X123.492 Y104.339 E0.2975
G1 X123.512 Y103.962 E0.3111
G1 X123.512 Y103.64099999999999 E0.3226
G1 X119.641 Y107.512 E0.5192
G1 X118.962 Y107.512 E0.5436
G1 X123.512 Y102.962 E0.7748
G1 X123.512 Y102.283 E0.7991
G1 X118.283 Y107.512 E1.0648
G1 X117.604 Y107.512 E1.0891
G1 X123.512 Y101.604 E1.3892
G1 X123.512 Y100.926 E1.4136
G1 X116.926 Y107.512 E1.7482
G1 X116.247 Y107.512 E1.7726
G1 X123.512 Y100.247 E2.1417
G1 X123.512 Y99.568 E2.1661
G1 X115.568 Y107.512 E2.5696
G1 X114.889 Y107.512 E2.5940
G1 X123.512 Y98.88900000000001 E3.0320
G1 X123.512 Y98.21000000000001 E3.0564
G1 X114.21 Y107.512 E3.5289
G1 X113.532 Y107.512 E3.5533
G1 X123.512 Y97.532 E4.0603
G1 X123.512 Y96.85300000000001 E4.0847
G1 X112.85300000000001 Y107.512 E4.6262
G1 X112.174 Y107.512 E4.6506
G1 X123.512 Y96.174 E5.2266
G1 X123.512 Y96.038 E5.2314
G1 X123.491 Y95.63300000000001 E5.2460
G1 X123.475 Y95.532 E5.2497
G1 X111.495 Y107.512 E5.8583
G1 X110.816 Y107.512 E5.8826
G1 X123.354 Y94.97399999999999 E6.5195
G1 X123.338 Y94.91499999999999 E6.5217
G1 X123.207 Y94.572 E6.5349
G1 X123.163 Y94.487 E6.5384
G1 X110.137 Y107.512 E7.2001
G1 X109.459 Y107.512 E7.2245
G1 X122.916 Y94.055 E7.9081
G1 X122.839 Y93.936 E7.9132
G1 X122.623 Y93.669 E7.9255
G1 X108.78 Y107.512 E8.6288
G1 X108.101 Y107.512 E8.6531
G1 X122.278 Y93.33500000000001 E9.3734
G1 X122.063 Y93.161 E9.3833
G1 X121.888 Y93.04599999999999 E9.3908
G1 X107.422 Y107.512 E10.1257
G1 X106.743 Y107.512 E10.1500
G1 X121.45 Y92.805 E10.8972
G1 X121.428 Y92.794 E10.8981
G1 X121.085 Y92.662 E10.9113
G1 X120.951 Y92.626 E10.9163
G1 X106.064 Y107.512 E11.6725
G1 X105.386 Y107.512 E11.6969
G1 X120.386 Y92.512 E12.4588
G1 X120.367 Y92.509 E12.4595
G1 X119.961 Y92.488 E12.4741
G1 X119.731 Y92.488 E12.4824
G1 X104.707 Y107.512 E13.2456
G1 X104.02799999999999 Y107.512 E13.2700
G1 X119.052 Y92.488 E14.0332
G1 X118.373 Y92.488 E14.0576
G1 X103.34899999999999 Y107.512 E14.8208
G1 X102.67 Y107.512 E14.8452
G1 X117.694 Y92.488 E15.6084
G1 X117.016 Y92.488 E15.6328
G1 X101.99199999999999 Y107.512 E16.3960
G1 X101.313 Y107.512 E16.4204
G1 X116.337 Y92.488 E17.1836
G1 X115.658 Y92.488 E17.2080
G1 X100.634 Y107.512 E17.9712
G1 X99.955 Y107.512 E17.9956
G1 X114.979 Y92.488 E18.7588
G1 X114.3 Y92.488 E18.7832
G1 X99.27600000000001 Y107.512 E19.5464
G1 X98.59700000000001 Y107.512 E19.5708
G1 X113.62100000000001 Y92.488 E20.3340
G1 X112.943 Y92.488 E20.3584
G1 X97.919 Y107.512 E21.1216
G1 X97.24000000000001 Y107.512 E21.1460
G1 X112.26400000000001 Y92.488 E21.9092
G1 X111.58500000000001 Y92.488 E21.9336
G1 X96.561 Y107.512 E22.6968
G1 X95.882 Y107.512 E22.7212
G1 X110.906 Y92.488 E23.4844
G1 X110.227 Y92.488 E23.5088
G1 X95.203 Y107.512 E24.2720
G1 X94.525 Y107.512 E24.2964
G1 X109.549 Y92.488 E25.0596
G1 X108.87 Y92.488 E25.0840
G1 X93.846 Y107.512 E25.8472
G1 X93.167 Y107.512 E25.8716
G1 X108.191 Y92.488 E26.6348
G1 X107.512 Y92.488 E26.6592
G1 X92.488 Y107.512 E27.4224
G1 X91.809 Y107.512 E27.4468
G1 X106.833 Y92.488 E28.2100
G1 X106.154 Y92.488 E28.2344
G1 X91.13 Y107.512 E28.9976
G1 X90.452 Y107.512 E29.0220
G1 X105.476 Y92.488 E29.7852
G1 X104.797 Y92.488 E29.8096
G1 X89.773 Y107.512 E30.5728
G1 X89.094 Y107.512 E30.5972
G1 X104.118 Y92.488 E31.3604
G1 X103.439 Y92.488 E31.3848
G1 X88.41499999999999 Y107.512 E32.1480
G1 X87.73599999999999 Y107.512 E32.1724
G1 X102.75999999999999 Y92.488 E32.9356
G1 X102.081 Y92.488 E32.9600
G1 X87.057 Y107.512 E33.7232
G1 X86.37899999999999 Y107.512 E33.7476
G1 X101.40299999999999 Y92.488 E34.5108
G1 X100.72399999999999 Y92.488 E34.5352
G1 X85.7 Y107.512 E35.2984
G1 X85.021 Y107.512 E35.3228
G1 X100.045 Y92.488 E36.0860
G1 X99.366 Y92.488 E36.1104
G1 X84.342 Y107.512 E36.8736
G1 X83.663 Y107.512 E36.8980
G1 X98.687 Y92.488 E37.6612
G1 X98.009 Y92.488 E37.6856
G1 X82.985 Y107.512 E38.4488
G1 X82.306 Y107.512 E38.4732
G1 X97.33 Y92.488 E39.2364
G1 X96.65100000000001 Y92.488 E39.2608
G1 X81.627 Y107.512 E40.0240
G1 X80.94800000000001 Y107.512 E40.0484
G1 X95.97200000000001 Y92.488 E40.8116
G1 X95.293 Y92.488 E40.8360
G1 X80.269 Y107.512 E41.5992
G1 X80.039 Y107.512 E41.6075
G1 X79.633 Y107.491 E41.6221
G1 X79.615 Y107.488 E41.6228
G1 X94.614 Y92.488 E42.3848
G1 X93.936 Y92.488 E42.4092
G1 X79.049 Y107.374 E43.1654
G1 X78.91499999999999 Y107.338 E43.1704
G1 X78.572 Y107.207 E43.1836
G1 X78.55 Y107.195 E43.1845
G1 X93.257 Y92.488 E43.9316
G1 X92.578 Y92.488 E43.9560
G1 X78.112 Y106.95400000000001 E44.6908
G1 X77.937 Y106.84 E44.6983
G1 X77.72200000000001 Y106.66499999999999 E44.7083
G1 X91.899 Y92.488 E45.4285
G1 X91.22 Y92.488 E45.4529
G1 X77.377 Y106.331 E46.1561
G1 X77.16 Y106.063 E46.1685
G1 X77.084 Y105.945 E46.1735
G1 X90.541 Y92.488 E46.8571
G1 X89.863 Y92.488 E46.8815
G1 X76.837 Y105.513 E47.5432
G1 X76.793 Y105.428 E47.5467
G1 X76.662 Y105.08500000000001 E47.5599
G1 X76.646 Y105.02600000000001 E47.5621
G1 X89.184 Y92.488 E48.1990
G1 X88.505 Y92.488 E48.2234
G1 X76.525 Y104.468 E48.8319
G1 X76.509 Y104.36699999999999 E48.8356
G1 X76.488 Y103.961 E48.8502
G1 X76.488 Y103.826 E48.8550
G1 X87.826 Y92.488 E49.4310
G1 X87.14699999999999 Y92.488 E49.4554
G1 X76.488 Y103.14699999999999 E49.9969
G1 X76.488 Y102.469 E50.0213
G1 X86.469 Y92.488 E50.5283
G1 X85.78999999999999 Y92.488 E50.5527
G1 X76.488 Y101.78999999999999 E51.0252
G1 X76.488 Y101.11099999999999 E51.0496
G1 X85.11099999999999 Y92.488 E51.4876
G1 X84.432 Y92.488 E51.5120
G1 X76.488 Y100.432 E51.9156
G1 X76.488 Y99.753 E51.9400
G1 X83.753 Y92.488 E52.3090
G1 X83.074 Y92.488 E52.3334
G1 X76.488 Y99.074 E52.6680
G1 X76.488 Y98.396 E52.6924
G1 X82.396 Y92.488 E52.9925
G1 X81.717 Y92.488 E53.0169
G1 X76.488 Y97.717 E53.2825
G1 X76.488 Y97.038 E53.3069
G1 X81.038 Y92.488 E53.5380
G1 X80.35900000000001 Y92.488 E53.5624
G1 X76.488 Y96.35900000000001 E53.7591
G1 X76.488 Y96.039 E53.7706
G1 X76.508 Y95.66 E53.7842
G1 X79.66 Y92.50800000000001 E53.9443
G1 X79.633 Y92.509 E53.9453
G1 X79.27 Y92.56700000000001 E53.9585
G1 X78.91499999999999 Y92.662 E53.9717
G1 X78.773 Y92.71600000000001 E53.9772
G1 X76.71600000000001 Y94.773 E54.0817
G92 E0.0000
G1 E-12 F1200 ; custom retraction
; layer 3, Z = 0.600
;fan3
; feature inner perimeter
G1 Z0.800 F1200
G1 X76.388 Y94.826 F6000
G1 Z0.600 F1200
G1 E-0.4 F1200 ; custom un-retraction/prime
G92 E0.0000
G1 X76.53 Y94.455 E0.0143 F2700
G1 X76.711 Y94.101 E0.0286
G1 X76.92699999999999 Y93.767 E0.0428
G1 X77.17699999999999 Y93.458 E0.0571
G1 X77.458 Y93.17699999999999 E0.0714
G1 X77.767 Y92.92699999999999 E0.0857
G1 X78.101 Y92.711 E0.1000
G1 X78.455 Y92.53 E0.1143
G1 X78.826 Y92.388 E0.1285
G1 X79.21000000000001 Y92.285 E0.1428
G1 X79.60300000000001 Y92.22200000000001 E0.1571
G1 X80.031 Y92.2 E0.1725
G1 X119.969 Y92.2 E1.6071
G1 X120.397 Y92.22200000000001 E1.6225
G1 X120.79 Y92.285 E1.6368
G1 X121.174 Y92.388 E1.6511
G1 X121.545 Y92.53 E1.6654
G1 X121.899 Y92.71000000000001 E1.6796
G1 X122.233 Y92.92699999999999 E1.6939
G1 X122.542 Y93.17699999999999 E1.7082
G1 X122.823 Y93.458 E1.7225
G1 X123.073 Y93.767 E1.7367
G1 X123.29 Y94.101 E1.7511
G1 X123.47 Y94.455 E1.7653
G1 X123.612 Y94.826 E1.7796
G1 X123.716 Y95.211 E1.7939
G1 X123.778 Y95.60300000000001 E1.8082
G1 X123.8 Y96.031 E1.8236
G1 X123.8 Y103.969 E2.1087
G1 X123.778 Y104.39699999999999 E2.1241
G1 X123.716 Y104.789 E2.1384
G1 X123.612 Y105.174 E2.1527
G1 X123.47 Y105.545 E2.1669
G1 X123.29 Y105.899 E2.1812
G1 X123.073 Y106.233 E2.1955
G1 X122.823 Y106.542 E2.2098
G1 X122.542 Y106.82300000000001 E2.2241
G1 X122.233 Y107.07300000000001 E2.2383
G1 X121.899 Y107.28999999999999 E2.2526
G1 X121.545 Y107.47 E2.2669
G1 X121.174 Y107.612 E2.2812
G1 X120.79 Y107.715 E2.2955
G1 X120.397 Y107.77799999999999 E2.3097
G1 X119.969 Y107.8 E2.3252
G1 X80.031 Y107.8 E3.7598
G1 X79.60300000000001 Y107.77799999999999 E3.7752
G1 X79.21000000000001 Y107.715 E3.7895
G1 X78.826 Y107.612 E3.8037
G1 X78.455 Y107.47 E3.8180
G1 X78.101 Y107.289 E3.8323
G1 X77.767 Y107.07300000000001 E3.8466
G1 X77.458 Y106.82300000000001 E3.8609
G1 X77.17699999999999 Y106.542 E3.8751
G1 X76.92699999999999 Y106.233 E3.8894
G1 X76.711 Y105.899 E3.9037
G1 X76.53 Y105.545 E3.9180
G1 X76.388 Y105.174 E3.9323
G1 X76.285 Y104.78999999999999 E3.9465
G1 X76.22200000000001 Y104.39699999999999 E3.9608
G1 X76.2 Y103.969 E3.9762
G1 X76.2 Y96.031 E4.2613
G1 X76.22200000000001 Y95.60300000000001 E4.2768
G1 X76.285 Y95.21000000000001 E4.2910
G1 X76.388 Y94.826 E4.3053
G1 X75.93 Y94.678 F6000
G92 E0.0000
G1 X76.09100000000001 Y94.25999999999999 E0.0161 F2700
G1 X76.294 Y93.86 E0.0322
G1 X76.538 Y93.485 E0.0483
G1 X76.82 Y93.137 E0.0644
G1 X77.137 Y92.82 E0.0804
G1 X77.485 Y92.538 E0.0965
G1 X77.86 Y92.294 E0.1126
G1 X78.26 Y92.09100000000001 E0.1287
G1 X78.678 Y91.93 E0.1448
G1 X79.11 Y91.815 E0.1609
G1 X79.553 Y91.744 E0.1770
G1 X80.019 Y91.72 E0.1937
G1 X119.981 Y91.72 E1.6292
G1 X120.448 Y91.744 E1.6460
G1 X120.89 Y91.814 E1.6621
G1 X121.322 Y91.93 E1.6782
G1 X121.741 Y92.09100000000001 E1.6943
G1 X122.139 Y92.294 E1.7103
G1 X122.515 Y92.538 E1.7264
G1 X122.864 Y92.82 E1.7425
G1 X123.18 Y93.137 E1.7586
G1 X123.462 Y93.485 E1.7747
G1 X123.706 Y93.86099999999999 E1.7908
G1 X123.909 Y94.259 E1.8069
G1 X124.069 Y94.678 E1.8230
G1 X124.186 Y95.11099999999999 E1.8391
G1 X124.256 Y95.553 E1.8551
G1 X124.28 Y96.019 E1.8719
G1 X124.28 Y103.981 E2.1579
G1 X124.256 Y104.447 E2.1747
G1 X124.186 Y104.88900000000001 E2.1908
G1 X124.069 Y105.322 E2.2069
G1 X123.909 Y105.741 E2.2230
G1 X123.706 Y106.13900000000001 E2.2390
G1 X123.462 Y106.515 E2.2552
G1 X123.18 Y106.863 E2.2712
G1 X122.864 Y107.18 E2.2873
G1 X122.515 Y107.462 E2.3034
G1 X122.139 Y107.706 E2.3195
G1 X121.741 Y107.90899999999999 E2.3356
G1 X121.322 Y108.07 E2.3517
G1 X120.89 Y108.186 E2.3678
G1 X120.448 Y108.256 E2.3838
G1 X119.981 Y108.28 E2.4006
G1 X80.019 Y108.28 E3.8361
G1 X79.553 Y108.256 E3.8529
G1 X79.11 Y108.186 E3.8690
G1 X78.678 Y108.07 E3.8851
G1 X78.26 Y107.90899999999999 E3.9011
G1 X77.86 Y107.706 E3.9172
G1 X77.485 Y107.462 E3.9333
G1 X77.137 Y107.18 E3.9494
G1 X76.82 Y106.863 E3.9655
G1 X76.538 Y106.515 E3.9816
G1 X76.294 Y106.14 E3.9977
G1 X76.09100000000001 Y105.74000000000001 E4.0138
G1 X75.93 Y105.322 E4.0298
G1 X75.815 Y104.89 E4.0459
G1 X75.744 Y104.447 E4.0620
G1 X75.72 Y103.981 E4.0788
G1 X75.72 Y96.019 E4.3648
G1 X75.744 Y95.553 E4.3816
G1 X75.815 Y95.11 E4.3977
G1 X75.93 Y94.678 E4.4137
; feature outer perimeter
G1 X75.473 Y94.529 F6000
G92 E0.0000
G1 X75.652 Y94.064 E0.0179 F1800
G1 X75.878 Y93.62 E0.0358
G1 X76.149 Y93.202 E0.0537
G1 X76.463 Y92.815 E0.0716
G1 X76.815 Y92.463 E0.0895
G1 X77.202 Y92.149 E0.1074
G1 X77.62 Y91.878 E0.1253
G1 X78.064 Y91.652 E0.1432
G1 X78.529 Y91.473 E0.1611
G1 X79.01 Y91.344 E0.1790
G1 X79.503 Y91.26599999999999 E0.1969
G1 X80.006 Y91.24000000000001 E0.2150
G1 X119.994 Y91.24000000000001 E1.6514
G1 X120.498 Y91.26599999999999 E1.6695
G1 X120.99 Y91.344 E1.6874
G1 X121.471 Y91.473 E1.7053
G1 X121.936 Y91.652 E1.7232
G1 X122.38 Y91.878 E1.7411
G1 X122.798 Y92.149 E1.7590
G1 X123.185 Y92.463 E1.7769
G1 X123.537 Y92.815 E1.7948
G1 X123.85 Y93.202 E1.8126
G1 X124.122 Y93.62 E1.8306
G1 X124.348 Y94.064 E1.8484
G1 X124.526 Y94.529 E1.8663
G1 X124.656 Y95.011 E1.8842
G1 X124.734 Y95.50200000000001 E1.9021
G1 X124.76 Y96.006 E1.9203
G1 X124.76 Y103.994 E2.2072
G1 X124.734 Y104.49799999999999 E2.2253
G1 X124.656 Y104.989 E2.2432
G1 X124.526 Y105.471 E2.2611
G1 X124.348 Y105.936 E2.2790
G1 X124.122 Y106.38 E2.2969
G1 X123.851 Y106.798 E2.3148
G1 X123.537 Y107.185 E2.3327
G1 X123.185 Y107.537 E2.3506
G1 X122.798 Y107.851 E2.3685
G1 X122.38 Y108.122 E2.3864
G1 X121.936 Y108.348 E2.4043
G1 X121.471 Y108.527 E2.4222
G1 X120.99 Y108.656 E2.4400
G1 X120.498 Y108.73400000000001 E2.4579
G1 X119.994 Y108.75999999999999 E2.4761
G1 X80.006 Y108.75999999999999 E3.9125
G1 X79.503 Y108.73400000000001 E3.9306
G1 X79.01 Y108.656 E3.9485
G1 X78.529 Y108.527 E3.9664
G1 X78.064 Y108.348 E3.9843
G1 X77.62 Y108.122 E4.0022
G1 X77.202 Y107.851 E4.0201
G1 X76.815 Y107.537 E4.0380
G1 X76.463 Y107.185 E4.0558
G1 X76.149 Y106.798 E4.0737
G1 X75.878 Y106.38 E4.0916
G1 X75.652 Y105.936 E4.1095
G1 X75.473 Y105.471 E4.1274
G1 X75.344 Y104.99000000000001 E4.1453
G1 X75.26599999999999 Y104.49799999999999 E4.1632
G1 X75.24 Y103.994 E4.1813
G1 X75.24 Y96.006 E4.4683
G1 X75.26599999999999 Y95.50200000000001 E4.4864
G1 X75.344 Y95.00999999999999 E4.5043
G1 X75.473 Y94.529 E4.5222
; feature solid layer
G1 X78.773 Y107.28399999999999 F6000
G92 E0.0000
G1 X76.71600000000001 Y105.227 E0.1045 F2880
G1 X76.662 Y105.08500000000001 E0.1099
G1 X76.56700000000001 Y104.72999999999999 E0.1231
G1 X76.509 Y104.36699999999999 E0.1363
G1 X76.508 Y104.34 E0.1373
G1 X79.66 Y107.49199999999999 E0.2975
G1 X80.039 Y107.512 E0.3111
G1 X80.35900000000001 Y107.512 E0.3226
G1 X76.488 Y103.64099999999999 E0.5192
G1 X76.488 Y102.962 E0.5436
G1 X81.038 Y107.512 E0.7748
G1 X81.717 Y107.512 E0.7991
G1 X76.488 Y102.283 E1.0648
G1 X76.488 Y101.604 E1.0892
G1 X82.396 Y107.512 E1.3893
G1 X83.074 Y107.512 E1.4136
G1 X76.488 Y100.926 E1.7482
G1 X76.488 Y100.247 E1.7726
G1 X83.753 Y107.512 E2.1417
G1 X84.432 Y107.512 E2.1661
G1 X76.488 Y99.568 E2.5696
G1 X76.488 Y98.88900000000001 E2.5940
G1 X85.11099999999999 Y107.512 E3.0320
G1 X85.78999999999999 Y107.512 E3.0564
G1 X76.488 Y98.21000000000001 E3.5290
G1 X76.488 Y97.531 E3.5533
G1 X86.469 Y107.512 E4.0604
G1 X87.14699999999999 Y107.512 E4.0847
G1 X76.488 Y96.85300000000001 E4.6262
G1 X76.488 Y96.174 E4.6506
G1 X87.826 Y107.512 E5.2266
G1 X88.505 Y107.512 E5.2510
G1 X76.525 Y95.532 E5.8595
G1 X76.56700000000001 Y95.27000000000001 E5.8691
G1 X76.646 Y94.97399999999999 E5.8801
G1 X89.184 Y107.512 E6.5170
G1 X89.863 Y107.512 E6.5414
G1 X76.837 Y94.487 E7.2031
G1 X76.96000000000001 Y94.245 E7.2128
G1 X77.084 Y94.055 E7.2210
G1 X90.541 Y107.512 E7.9046
G1 X91.22 Y107.512 E7.9290
G1 X77.377 Y93.669 E8.6322
G1 X77.392 Y93.65100000000001 E8.6330
G1 X77.651 Y93.392 E8.6462
G1 X77.72200000000001 Y93.33500000000001 E8.6495
G1 X91.899 Y107.512 E9.3697
G1 X92.578 Y107.512 E9.3941
G1 X78.112 Y93.04599999999999 E10.1289
G1 X78.245 Y92.96000000000001 E10.1346
G1 X78.55 Y92.805 E10.1469
G1 X93.257 Y107.512 E10.8940
G1 X93.936 Y107.512 E10.9184
G1 X79.049 Y92.626 E11.6746
G1 X79.27 Y92.56700000000001 E11.6828
G1 X79.615 Y92.512 E11.6953
G1 X94.614 Y107.512 E12.4573
G1 X95.293 Y107.512 E12.4817
G1 X80.269 Y92.488 E13.2449
G1 X80.94800000000001 Y92.488 E13.2693
G1 X95.97200000000001 Y107.512 E14.0325
G1 X96.65100000000001 Y107.512 E14.0569
G1 X81.627 Y92.488 E14.8201
G1 X82.306 Y92.488 E14.8445
G1 X97.33 Y107.512 E15.6077
G1 X98.00800000000001 Y107.512 E15.6321
G1 X82.98400000000001 Y92.488 E16.3953
G1 X83.663 Y92.488 E16.4197
G1 X98.687 Y107.512 E17.1829
G1 X99.366 Y107.512 E17.2073
G1 X84.342 Y92.488 E17.9705
G1 X85.021 Y92.488 E17.9949
G1 X100.045 Y107.512 E18.7581
G1 X100.72399999999999 Y107.512 E18.7825
G1 X85.7 Y92.488 E19.5457
G1 X86.37899999999999 Y92.488 E19.5701
G1 X101.40299999999999 Y107.512 E20.3333
G1 X102.081 Y107.512 E20.3577
G1 X87.057 Y92.488 E21.1209
G1 X87.73599999999999 Y92.488 E21.1453
G1 X102.75999999999999 Y107.512 E21.9085
G1 X103.439 Y107.512 E21.9329
G1 X88.41499999999999 Y92.488 E22.6961
G1 X89.094 Y92.488 E22.7205
G1 X104.118 Y107.512 E23.4837
G1 X104.797 Y107.512 E23.5081
G1 X89.773 Y92.488 E24.2713
G1 X90.452 Y92.488 E24.2957
G1 X105.476 Y107.512 E25.0589
G1 X106.154 Y107.512 E25.0833
G1 X91.13 Y92.488 E25.8465
G1 X91.809 Y92.488 E25.8709
G1 X106.833 Y107.512 E26.6341
G1 X107.512 Y107.512 E26.6585
G1 X92.488 Y92.488 E27.4217
G1 X93.167 Y92.488 E27.4461
G1 X108.191 Y107.512 E28.2093
G1 X108.87 Y107.512 E28.2337
G1 X93.846 Y92.488 E28.9969
G1 X94.524 Y92.488 E29.0213
G1 X109.548 Y107.512 E29.7845
G1 X110.227 Y107.512 E29.8089
G1 X95.203 Y92.488 E30.5721
G1 X95.882 Y92.488 E30.5965
G1 X110.906 Y107.512 E31.3597
G1 X111.58500000000001 Y107.512 E31.3841
G1 X96.561 Y92.488 E32.1473
G1 X97.24000000000001 Y92.488 E32.1717
G1 X112.26400000000001 Y107.512 E32.9349
G1 X112.943 Y107.512 E32.9593
G1 X97.919 Y92.488 E33.7225
G1 X98.59700000000001 Y92.488 E33.7469
G1 X113.62100000000001 Y107.512 E34.5101
G1 X114.3 Y107.512 E34.5345
G1 X99.27600000000001 Y92.488 E35.2977
G1 X99.955 Y92.488 E35.3221
G1 X114.979 Y107.512 E36.0853
G1 X115.658 Y107.512 E36.1097
G1 X100.634 Y92.488 E36.8729
G1 X101.313 Y92.488 E36.8973
G1 X116.337 Y107.512 E37.6605
G1 X117.016 Y107.512 E37.6849
G1 X101.99199999999999 Y92.488 E38.4481
G1 X102.67 Y92.488 E38.4725
G1 X117.694 Y107.512 E39.2357
G1 X118.373 Y107.512 E39.2601
G1 X103.34899999999999 Y92.488 E40.0233
G1 X104.02799999999999 Y92.488 E40.0477
G1 X119.052 Y107.512 E40.8109
G1 X119.731 Y107.512 E40.8353
G1 X104.707 Y92.488 E41.5985
G1 X105.386 Y92.488 E41.6229
G1 X120.385 Y107.488 E42.3849
G1 X120.73 Y107.43299999999999 E42.3974
G1 X120.951 Y107.374 E42.4057
G1 X106.064 Y92.488 E43.1619
G1 X106.743 Y92.488 E43.1862
G1 X121.45 Y107.195 E43.9334
G1 X121.755 Y107.03999999999999 E43.9456
G1 X121.888 Y106.95400000000001 E43.9513
G1 X107.422 Y92.488 E44.6862
G1 X108.101 Y92.488 E44.7106
G1 X122.278 Y106.66499999999999 E45.4308
G1 X122.349 Y106.608 E45.4340
G1 X122.608 Y106.34899999999999 E45.4472
G1 X122.623 Y106.331 E45.4480
G1 X108.78 Y92.488 E46.1513
G1 X109.459 Y92.488 E46.1757
G1 X122.916 Y105.945 E46.8593
G1 X123.04 Y105.755 E46.8675
G1 X123.163 Y105.513 E46.8772
G1 X110.137 Y92.488 E47.5389
G1 X110.816 Y92.488 E47.5633
G1 X123.354 Y105.02600000000001 E48.2002
G1 X123.434 Y104.729 E48.2112
G1 X123.475 Y104.468 E48.2207
G1 X111.495 Y92.488 E48.8293
G1 X112.174 Y92.488 E48.8537
G1 X123.512 Y103.826 E49.4296
G1 X123.512 Y103.14699999999999 E49.4540
G1 X112.85300000000001 Y92.488 E49.9955
G1 X113.532 Y92.488 E50.0199
G1 X123.512 Y102.468 E50.5269
G1 X123.512 Y101.78999999999999 E50.5513
G1 X114.21 Y92.488 E51.0238
G1 X114.889 Y92.488 E51.0482
G1 X123.512 Y101.11099999999999 E51.4862
G1 X123.512 Y100.432 E51.5106
G1 X115.568 Y92.488 E51.9142
G1 X116.247 Y92.488 E51.9386
G1 X123.512 Y99.753 E52.3076
G1 X123.512 Y99.074 E52.3320
G1 X116.926 Y92.488 E52.6666
G1 X117.604 Y92.488 E52.6910
G1 X123.512 Y98.396 E52.9911
G1 X123.512 Y97.717 E53.0155
G1 X118.283 Y92.488 E53.2811
G1 X118.962 Y92.488 E53.3055
G1 X123.512 Y97.038 E53.5366
G1 X123.512 Y96.35900000000001 E53.5610
G1 X119.641 Y92.488 E53.7576
G1 X119.961 Y92.488 E53.7691
G1 X120.34 Y92.50800000000001 E53.7828
G1 X123.492 Y95.661 E53.9429
G1 X123.491 Y95.63300000000001 E53.9439
G1 X123.434 Y95.271 E53.9571
G1 X123.338 Y94.91499999999999 E53.9703
G1 X123.283 Y94.773 E53.9758
G1 X121.227 Y92.71600000000001 E54.0803
G92 E0.0000
G1 E-12 F1200 ; custom retraction
; layer 4, Z = 0.800
; feature inner perimeter
G1 Z1.000 F1200
G1 X121.174 Y92.388 F6000
G1 Z0.800 F1200
G1 E-0.4 F1200 ; custom un-retraction/prime
G92 E0.0000
G1 X121.545 Y92.53 E0.0143 F2700
G1 X121.899 Y92.71000000000001 E0.0286
G1 X122.233 Y92.92699999999999 E0.0429
G1 X122.542 Y93.17699999999999 E0.0571
G1 X122.823 Y93.458 E0.0714
G1 X123.073 Y93.767 E0.0857
G1 X123.29 Y94.101 E0.1000
G1 X123.47 Y94.455 E0.1143
G1 X123.612 Y94.826 E0.1285
G1 X123.716 Y95.211 E0.1428
G1 X123.778 Y95.60300000000001 E0.1571
G1 X123.8 Y96.031 E0.1725
G1 X123.8 Y103.969 E0.4576
G1 X123.778 Y104.39699999999999 E0.4730
G1 X123.716 Y104.789 E0.4873
G1 X123.612 Y105.174 E0.5016
G1 X123.47 Y105.545 E0.5159
G1 X123.29 Y105.899 E0.5302
G1 X123.073 Y106.233 E0.5445
G1 X122.823 Y106.542 E0.5587
G1 X122.542 Y106.82300000000001 E0.5730
G1 X122.233 Y107.07300000000001 E0.5873
G1 X121.899 Y107.28999999999999 E0.6016
G1 X121.545 Y107.47 E0.6158
G1 X121.174 Y107.612 E0.6301
G1 X120.79 Y107.715 E0.6444
G1 X120.397 Y107.77799999999999 E0.6587
G1 X119.969 Y107.8 E0.6741
G1 X80.031 Y107.8 E2.1087
G1 X79.60300000000001 Y107.77799999999999 E2.1241
G1 X79.21000000000001 Y107.715 E2.1384
G1 X78.826 Y107.612 E2.1527
G1 X78.455 Y107.47 E2.1669
G1 X78.101 Y107.289 E2.1812
G1 X77.767 Y107.07300000000001 E2.1955
G1 X77.458 Y106.82300000000001 E2.2098
G1 X77.17699999999999 Y106.542 E2.2241
G1 X76.92699999999999 Y106.233 E2.2384
G1 X76.711 Y105.899 E2.2526
G1 X76.53 Y105.545 E2.2669
G1 X76.388 Y105.174 E2.2812
G1 X76.285 Y104.78999999999999 E2.2955
G1 X76.22200000000001 Y104.39699999999999 E2.3098
G1 X76.2 Y103.969 E2.3252
G1 X76.2 Y96.031 E2.6103
G1 X76.22200000000001 Y95.60300000000001 E2.6257
G1 X76.285 Y95.21000000000001 E2.6400
G1 X76.388 Y94.826 E2.6543
G1 X76.53 Y94.455 E2.6685
G1 X76.711 Y94.101 E2.6828
G1 X76.92699999999999 Y93.767 E2.6971
G1 X77.17699999999999 Y93.458 E2.7114
G1 X77.458 Y93.17699999999999 E2.7257
G1 X77.767 Y92.92699999999999 E2.7399
G1 X78.101 Y92.711 E2.7542
G1 X78.455 Y92.53 E2.7685
G1 X78.826 Y92.388 E2.7828
G1 X79.21000000000001 Y92.285 E2.7971
G1 X79.60300000000001 Y92.22200000000001 E2.8114
G1 X80.031 Y92.2 E2.8268
G1 X119.969 Y92.2 E4.2614
G1 X120.397 Y92.22200000000001 E4.2768
G1 X120.79 Y92.285 E4.2911
G1 X121.174 Y92.388 E4.3053
G1 X121.322 Y91.93 F6000
G92 E0.0000
G1 X121.741 Y92.09100000000001 E0.0161 F2700
G1 X122.139 Y92.294 E0.0322
G1 X122.515 Y92.538 E0.0483
G1 X122.864 Y92.82 E0.0644
G1 X123.18 Y93.137 E0.0804
G1 X123.462 Y93.485 E0.0965
G1 X123.706 Y93.86099999999999 E0.1126
G1 X123.909 Y94.259 E0.1287
G1 X124.069 Y94.678 E0.1448
G1 X124.186 Y95.11099999999999 E0.1609
G1 X124.256 Y95.553 E0.1770
G1 X124.28 Y96.019 E0.1937
G1 X124.28 Y103.981 E0.4798
G1 X124.256 Y104.447 E0.4965
G1 X124.186 Y104.88900000000001 E0.5126
G1 X124.069 Y105.322 E0.5287
G1 X123.909 Y105.741 E0.5448
G1 X123.706 Y106.13900000000001 E0.5609
G1 X123.462 Y106.515 E0.5770
G1 X123.18 Y106.863 E0.5931
G1 X122.864 Y107.18 E0.6091
G1 X122.515 Y107.462 E0.6252
G1 X122.139 Y107.706 E0.6413
G1 X121.741 Y107.90899999999999 E0.6574
G1 X121.322 Y108.07 E0.6735
G1 X120.89 Y108.186 E0.6896
G1 X120.448 Y108.256 E0.7057
G1 X119.981 Y108.28 E0.7225
G1 X80.019 Y108.28 E2.1579
G1 X79.553 Y108.256 E2.1747
G1 X79.11 Y108.186 E2.1908
G1 X78.678 Y108.07 E2.2069
G1 X78.26 Y107.90899999999999 E2.2230
G1 X77.86 Y107.706 E2.2391
G1 X77.485 Y107.462 E2.2551
G1 X77.137 Y107.18 E2.2712
G1 X76.82 Y106.863 E2.2873
G1 X76.538 Y106.515 E2.3034
G1 X76.294 Y106.14 E2.3195
G1 X76.09100000000001 Y105.74000000000001 E2.3356
G1 X75.93 Y105.322 E2.3517
G1 X75.815 Y104.89 E2.3678
G1 X75.744 Y104.447 E2.3839
G1 X75.72 Y103.981 E2.4006
G1 X75.72 Y96.019 E2.6866
G1 X75.744 Y95.553 E2.7034
G1 X75.815 Y95.11 E2.7195
G1 X75.93 Y94.678 E2.7356
G1 X76.09100000000001 Y94.25999999999999 E2.7517
G1 X76.294 Y93.86 E2.7678
G1 X76.538 Y93.485 E2.7838
G1 X76.82 Y93.137 E2.7999
G1 X77.137 Y92.82 E2.8160
G1 X77.485 Y92.538 E2.8321
G1 X77.86 Y92.294 E2.8482
G1 X78.26 Y92.09100000000001 E2.8643
G1 X78.678 Y91.93 E2.8804
G1 X79.11 Y91.815 E2.8965
G1 X79.553 Y91.744 E2.9126
G1 X80.019 Y91.72 E2.9293
G1 X119.981 Y91.72 E4.3648
G1 X120.448 Y91.744 E4.3816
G1 X120.89 Y91.814 E4.3977
G1 X121.322 Y91.93 E4.4137
; feature outer perimeter
G1 X121.471 Y91.473 F6000
G92 E0.0000
G1 X121.936 Y91.652 E0.0179 F1800
G1 X122.38 Y91.878 E0.0358
G1 X122.798 Y92.149 E0.0537
G1 X123.185 Y92.463 E0.0716
G1 X123.537 Y92.815 E0.0895
G1 X123.85 Y93.202 E0.1074
G1 X124.122 Y93.62 E0.1253
G1 X124.348 Y94.064 E0.1432
G1 X124.526 Y94.529 E0.1611
G1 X124.656 Y95.011 E0.1790
G1 X124.734 Y95.50200000000001 E0.1969
G1 X124.76 Y96.006 E0.2150
G1 X124.76 Y103.994 E0.5019
G1 X124.734 Y104.49799999999999 E0.5200
G1 X124.656 Y104.989 E0.5379
G1 X124.526 Y105.471 E0.5558
G1 X124.348 Y105.936 E0.5737
G1 X124.122 Y106.38 E0.5916
G1 X123.851 Y106.798 E0.6095
G1 X123.537 Y107.185 E0.6274
G1 X123.185 Y107.537 E0.6453
G1 X122.798 Y107.851 E0.6632
G1 X122.38 Y108.122 E0.6811
G1 X121.936 Y108.348 E0.6990
G1 X121.471 Y108.527 E0.7169
G1 X120.99 Y108.656 E0.7348
G1 X120.498 Y108.73400000000001 E0.7527
G1 X119.994 Y108.75999999999999 E0.7708
G1 X80.006 Y108.75999999999999 E2.2072
G1 X79.503 Y108.73400000000001 E2.2253
G1 X79.01 Y108.656 E2.2432
G1 X78.529 Y108.527 E2.2611
G1 X78.064 Y108.348 E2.2790
G1 X77.62 Y108.122 E2.2969
G1 X77.202 Y107.851 E2.3148
G1 X76.815 Y107.537 E2.3327
G1 X76.463 Y107.185 E2.3506
G1 X76.149 Y106.798 E2.3685
G1 X75.878 Y106.38 E2.3864
G1 X75.652 Y105.936 E2.4043
G1 X75.473 Y105.471 E2.4222
G1 X75.344 Y104.99000000000001 E2.4401
G1 X75.26599999999999 Y104.49799999999999 E2.4579
G1 X75.24 Y103.994 E2.4761
G1 X75.24 Y96.006 E2.7630
G1 X75.26599999999999 Y95.50200000000001 E2.7811
G1 X75.344 Y95.00999999999999 E2.7990
G1 X75.473 Y94.529 E2.8169
G1 X75.652 Y94.064 E2.8348
G1 X75.878 Y93.62 E2.8527
G1 X76.149 Y93.202 E2.8706
G1 X76.463 Y92.815 E2.8885
G1 X76.815 Y92.463 E2.9064
G1 X77.202 Y92.149 E2.9243
G1 X77.62 Y91.878 E2.9422
G1 X78.064 Y91.652 E2.9601
G1 X78.529 Y91.473 E2.9780
G1 X79.01 Y91.344 E2.9959
G1 X79.503 Y91.26599999999999 E3.0138
G1 X80.006 Y91.24000000000001 E3.0319
G1 X119.994 Y91.24000000000001 E4.4683
G1 X120.498 Y91.26599999999999 E4.4864
G1 X120.99 Y91.344 E4.5043
G1 X121.471 Y91.473 E4.5222
; feature infill
; tool H0.200 W0.600
G1 X123.452 Y102.00399999999999 F6000
G92 E0.0000
G1 X118.004 Y107.452 E0.3460 F3600
G1 X109.519 Y107.452 E0.7270
G1 X122.873 Y94.098 E1.5749
G1 X122.791 Y93.97200000000001 E1.5817
G1 X122.564 Y93.691 E1.5979
G1 X122.309 Y93.436 E1.6141
G1 X122.028 Y93.209 E1.6303
G1 X121.725 Y93.012 E1.6465
G1 X121.403 Y92.848 E1.6627
G1 X121.066 Y92.719 E1.6789
G1 X120.717 Y92.625 E1.6952
G1 X120.361 Y92.569 E1.7114
G1 X119.96 Y92.548 E1.7294
G1 X115.937 Y92.548 E1.9100
G1 X101.033 Y107.452 E2.8564
G1 X92.548 Y107.452 E3.2374
G1 X107.452 Y92.548 E4.1838
G1 X98.967 Y92.548 E4.5648
G1 X84.063 Y107.452 E5.5112
G1 X80.041 Y107.452 E5.6918
G1 X79.639 Y107.431 E5.7099
G1 X79.283 Y107.374 E5.7261
G1 X78.934 Y107.281 E5.7423
G1 X78.59700000000001 Y107.152 E5.7585
G1 X78.275 Y106.988 E5.7747
G1 X77.97200000000001 Y106.791 E5.7909
G1 X77.691 Y106.564 E5.8071
G1 X77.436 Y106.309 E5.8233
G1 X77.209 Y106.02799999999999 E5.8396
G1 X77.127 Y105.902 E5.8463
G1 X90.481 Y92.548 E6.6943
G1 X81.996 Y92.548 E7.0753
G1 X76.548 Y97.99600000000001 E7.4212
G92 E0.0000
G1 E-12 F1200 ; custom retraction
; layer 5, Z = 1.000
;fan5
; feature inner perimeter
; tool H0.200 W0.480
G1 Z1.200 F1200
G1 X76.2 Y96.031 F6000
G1 Z1.000 F1200
G1 E-0.4 F1200 ; custom un-retraction/prime
G92 E0.0000
G1 X76.22200000000001 Y95.60300000000001 E0.0154 F2700
G1 X76.285 Y95.21000000000001 E0.0297
G1 X76.388 Y94.826 E0.0440
G1 X76.53 Y94.455 E0.0583
G1 X76.711 Y94.101 E0.0725
G1 X76.92699999999999 Y93.767 E0.0868
G1 X77.17699999999999 Y93.458 E0.1011
G1 X77.458 Y93.17699999999999 E0.1154
G1 X77.767 Y92.92699999999999 E0.1297
G1 X78.101 Y92.711 E0.1439
G1 X78.455 Y92.53 E0.1582
G1 X78.826 Y92.388 E0.1725
G1 X79.21000000000001 Y92.285 E0.1868
G1 X79.60300000000001 Y92.22200000000001 E0.2011
G1 X80.031 Y92.2 E0.2165
G1 X119.969 Y92.2 E1.6511
G1 X120.397 Y92.22200000000001 E1.6665
G1 X120.79 Y92.285 E1.6808
G1 X121.174 Y92.388 E1.6950
G1 X121.545 Y92.53 E1.7093
G1 X121.899 Y92.71000000000001 E1.7236
G1 X122.233 Y92.92699999999999 E1.7379
G1 X122.542 Y93.17699999999999 E1.7522
G1 X122.823 Y93.458 E1.7664
G1 X123.073 Y93.767 E1.7807
G1 X123.29 Y94.101 E1.7950
G1 X123.47 Y94.455 E1.8093
G1 X123.612 Y94.826 E1.8236
G1 X123.716 Y95.211 E1.8379
G1 X123.778 Y95.60300000000001 E1.8521
G1 X123.8 Y96.031 E1.8675
G1 X123.8 Y103.969 E2.1527
G1 X123.778 Y104.39699999999999 E2.1681
G1 X123.716 Y104.789 E2.1823
G1 X123.612 Y105.174 E2.1966
G1 X123.47 Y105.545 E2.2109
G1 X123.29 Y105.899 E2.2252
G1 X123.073 Y106.233 E2.2395
G1 X122.823 Y106.542 E2.2538
G1 X122.542 Y106.82300000000001 E2.2680
G1 X122.233 Y107.07300000000001 E2.2823
G1 X121.899 Y107.28999999999999 E2.2966
G1 X121.545 Y107.47 E2.3109
G1 X121.174 Y107.612 E2.3252
G1 X120.79 Y107.715 E2.3394
G1 X120.397 Y107.77799999999999 E2.3537
G1 X119.969 Y107.8 E2.3691
G1 X80.031 Y107.8 E3.8037
G1 X79.60300000000001 Y107.77799999999999 E3.8191
G1 X79.21000000000001 Y107.715 E3.8334
G1 X78.826 Y107.612 E3.8477
G1 X78.455 Y107.47 E3.8620
G1 X78.101 Y107.289 E3.8763
G1 X77.767 Y107.07300000000001 E3.8905
G1 X77.458 Y106.82300000000001 E3.9048
G1 X77.17699999999999 Y106.542 E3.9191
G1 X76.92699999999999 Y106.233 E3.9334
G1 X76.711 Y105.899 E3.9477
G1 X76.53 Y105.545 E3.9620
G1 X76.388 Y105.174 E3.9762
G1 X76.285 Y104.78999999999999 E3.9905
G1 X76.22200000000001 Y104.39699999999999 E4.0048
G1 X76.2 Y103.969 E4.0202
G1 X76.2 Y96.031 E4.3053
G1 X75.72 Y96.019 F6000
G92 E0.0000
G1 X75.744 Y95.553 E0.0168 F2700
G1 X75.815 Y95.11 E0.0329
G1 X75.93 Y94.678 E0.0489
G1 X76.09100000000001 Y94.25999999999999 E0.0650
G1 X76.294 Y93.86 E0.0811
G1 X76.538 Y93.485 E0.0972
G1 X76.82 Y93.137 E0.1133
G1 X77.137 Y92.82 E0.1294
G1 X77.485 Y92.538 E0.1455
G1 X77.86 Y92.294 E0.1616
G1 X78.26 Y92.09100000000001 E0.1777
G1 X78.678 Y91.93 E0.1937
G1 X79.11 Y91.815 E0.2098
G1 X79.553 Y91.744 E0.2259
G1 X80.019 Y91.72 E0.2427
G1 X119.981 Y91.72 E1.6782
G1 X120.448 Y91.744 E1.6950
G1 X120.89 Y91.814 E1.7110
G1 X121.322 Y91.93 E1.7271
G1 X121.741 Y92.09100000000001 E1.7432
G1 X122.139 Y92.294 E1.7593
G1 X122.515 Y92.538 E1.7754
G1 X122.864 Y92.82 E1.7915
G1 X123.18 Y93.137 E1.8076
G1 X123.462 Y93.485 E1.8236
G1 X123.706 Y93.86099999999999 E1.8397
G1 X123.909 Y94.259 E1.8558
G1 X124.069 Y94.678 E1.8719
G1 X124.186 Y95.11099999999999 E1.8880
G1 X124.256 Y95.553 E1.9041
G1 X124.28 Y96.019 E1.9209
G1 X124.28 Y103.981 E2.2069
G1 X124.256 Y104.447 E2.2236
G1 X124.186 Y104.88900000000001 E2.2397
G1 X124.069 Y105.322 E2.2558
G1 X123.909 Y105.741 E2.2719
G1 X123.706 Y106.13900000000001 E2.2880
G1 X123.462 Y106.515 E2.3041
G1 X123.18 Y106.863 E2.3202
G1 X122.864 Y107.18 E2.3363
G1 X122.515 Y107.462 E2.3523
G1 X122.139 Y107.706 E2.3685
G1 X121.741 Y107.90899999999999 E2.3845
G1 X121.322 Y108.07 E2.4006
G1 X120.89 Y108.186 E2.4167
G1 X120.448 Y108.256 E2.4328
G1 X119.981 Y108.28 E2.4496
G1 X80.019 Y108.28 E3.8850
G1 X79.553 Y108.256 E3.9018
G1 X79.11 Y108.186 E3.9179
G1 X78.678 Y108.07 E3.9340
G1 X78.26 Y107.90899999999999 E3.9501
G1 X77.86 Y107.706 E3.9662
G1 X77.485 Y107.462 E3.9823
G1 X77.137 Y107.18 E3.9983
G1 X76.82 Y106.863 E4.0144
G1 X76.538 Y106.515 E4.0305
G1 X76.294 Y106.14 E4.0466
G1 X76.09100000000001 Y105.74000000000001 E4.0627
G1 X75.93 Y105.322 E4.0788
G1 X75.815 Y104.89 E4.0949
G1 X75.744 Y104.447 E4.1110
G1 X75.72 Y103.981 E4.1277
G1 X75.72 Y96.019 E4.4137
; feature outer perimeter
G1 X75.24 Y96.006 F6000
G92 E0.0000
G1 X75.26599999999999 Y95.50200000000001 E0.0181 F1800
G1 X75.344 Y95.00999999999999 E0.0360
G1 X75.473 Y94.529 E0.0539
G1 X75.652 Y94.064 E0.0718
G1 X75.878 Y93.62 E0.0897
G1 X76.149 Y93.202 E0.1076
G1 X76.463 Y92.815 E0.1255
G1 X76.815 Y92.463 E0.1434
G1 X77.202 Y92.149 E0.1613
G1 X77.62 Y91.878 E0.1792
G1 X78.064 Y91.652 E0.1971
G1 X78.529 Y91.473 E0.2150
G1 X79.01 Y91.344 E0.2329
G1 X79.503 Y91.26599999999999 E0.2508
G1 X80.006 Y91.24000000000001 E0.2689
G1 X119.994 Y91.24000000000001 E1.7053
G1 X120.498 Y91.26599999999999 E1.7234
G1 X120.99 Y91.344 E1.7413
G1 X121.471 Y91.473 E1.7592
G1 X121.936 Y91.652 E1.7771
G1 X122.38 Y91.878 E1.7950
G1 X122.798 Y92.149 E1.8129
G1 X123.185 Y92.463 E1.8308
G1 X123.537 Y92.815 E1.8487
G1 X123.85 Y93.202 E1.8666
G1 X124.122 Y93.62 E1.8845
G1 X124.348 Y94.064 E1.9024
G1 X124.526 Y94.529 E1.9203
G1 X124.656 Y95.011 E1.9382
G1 X124.734 Y95.50200000000001 E1.9561
G1 X124.76 Y96.006 E1.9742
G1 X124.76 Y103.994 E2.2611
G1 X124.734 Y104.49799999999999 E2.2792
G1 X124.656 Y104.989 E2.2971
G1 X124.526 Y105.471 E2.3150
G1 X124.348 Y105.936 E2.3329
G1 X124.122 Y106.38 E2.3508
G1 X123.851 Y106.798 E2.3687
G1 X123.537 Y107.185 E2.3866
G1 X123.185 Y107.537 E2.4045
G1 X122.798 Y107.851 E2.4224
G1 X122.38 Y108.122 E2.4403
G1 X121.936 Y108.348 E2.4582
G1 X121.471 Y108.527 E2.4761
G1 X120.99 Y108.656 E2.4940
G1 X120.498 Y108.73400000000001 E2.5119
G1 X119.994 Y108.75999999999999 E2.5300
G1 X80.006 Y108.75999999999999 E3.9664
G1 X79.503 Y108.73400000000001 E3.9845
G1 X79.01 Y108.656 E4.0024
G1 X78.529 Y108.527 E4.0203
G1 X78.064 Y108.348 E4.0382
G1 X77.62 Y108.122 E4.0561
G1 X77.202 Y107.851 E4.0740
G1 X76.815 Y107.537 E4.0919
G1 X76.463 Y107.185 E4.1098
G1 X76.149 Y106.798 E4.1277
G1 X75.878 Y106.38 E4.1456
G1 X75.652 Y105.936 E4.1635
G1 X75.473 Y105.471 E4.1813
G1 X75.344 Y104.99000000000001 E4.1992
G1 X75.26599999999999 Y104.49799999999999 E4.2171
G1 X75.24 Y103.994 E4.2353
G1 X75.24 Y96.006 E4.5222
; feature infill
; tool H0.200 W0.600
G1 X81.996 Y107.452 F6000
G92 E0.0000
G1 X76.548 Y102.00399999999999 E0.3460 F3600
G1 X76.548 Y96.041 E0.6137
G1 X76.569 Y95.63900000000001 E0.6318
G1 X76.626 Y95.283 E0.6480
G1 X76.719 Y94.934 E0.6642
G1 X76.848 Y94.59700000000001 E0.6804
G1 X77.012 Y94.275 E0.6966
G1 X77.127 Y94.098 E0.7061
G1 X90.481 Y107.452 E1.5541
G1 X98.967 Y107.452 E1.9351
G1 X84.063 Y92.548 E2.8815
G1 X92.548 Y92.548 E3.2625
G1 X107.452 Y107.452 E4.2089
G1 X115.937 Y107.452 E4.5899
G1 X101.033 Y92.548 E5.5363
G1 X109.519 Y92.548 E5.9173
G1 X122.873 Y105.902 E6.7653
G1 X122.988 Y105.725 E6.7748
G1 X123.152 Y105.40299999999999 E6.7909
G1 X123.281 Y105.066 E6.8072
G1 X123.375 Y104.71600000000001 E6.8234
G1 X123.431 Y104.36099999999999 E6.8396
G1 X123.452 Y103.96000000000001 E6.8576
G1 X123.452 Y97.99600000000001 E7.1254
G1 X118.004 Y92.548 E7.4713
G92 E0.0000
G1 E-12 F1200 ; custom retraction
; layer 6, Z = 1.200
; feature inner perimeter
; tool H0.200 W0.480
G1 Z1.400 F1200
G1 X119.969 Y92.2 F6000
G1 Z1.200 F1200
G1 E-0.4 F1200 ; custom un-retraction/prime
G92 E0.0000
G1 X120.397 Y92.22200000000001 E0.0154 F2700
G1 X120.79 Y92.285 E0.0297
G1 X121.174 Y92.388 E0.0440
G1 X121.545 Y92.53 E0.0583
G1 X121.899 Y92.71000000000001 E0.0725
G1 X122.233 Y92.92699999999999 E0.0868
G1 X122.542 Y93.17699999999999 E0.1011
G1 X122.823 Y93.458 E0.1154
G1 X123.073 Y93.767 E0.1296
G1 X123.29 Y94.101 E0.1440
G1 X123.47 Y94.455 E0.1582
G1 X123.612 Y94.826 E0.1725
G1 X123.716 Y95.211 E0.1868
G1 X123.778 Y95.60300000000001 E0.2011
G1 X123.8 Y96.031 E0.2165
G1 X123.8 Y103.969 E0.5016
G1 X123.778 Y104.39699999999999 E0.5170
G1 X123.716 Y104.789 E0.5313
G1 X123.612 Y105.174 E0.5456
G1 X123.47 Y105.545 E0.5599
G1 X123.29 Y105.899 E0.5741
G1 X123.073 Y106.233 E0.5884
G1 X122.823 Y106.542 E0.6027
G1 X122.542 Y106.82300000000001 E0.6170
G1 X122.233 Y107.07300000000001 E0.6312
G1 X121.899 Y107.28999999999999 E0.6455
G1 X121.545 Y107.47 E0.6598
G1 X121.174 Y107.612 E0.6741
G1 X120.79 Y107.715 E0.6884
G1 X120.397 Y107.77799999999999 E0.7027
G1 X119.969 Y107.8 E0.7181
G1 X80.031 Y107.8 E2.1527
G1 X79.60300000000001 Y107.77799999999999 E2.1681
G1 X79.21000000000001 Y107.715 E2.1824
G1 X78.826 Y107.612 E2.1966
G1 X78.455 Y107.47 E2.2109
G1 X78.101 Y107.289 E2.2252
G1 X77.767 Y107.07300000000001 E2.2395
G1 X77.458 Y106.82300000000001 E2.2538
G1 X77.17699999999999 Y106.542 E2.2680
G1 X76.92699999999999 Y106.233 E2.2823
G1 X76.711 Y105.899 E2.2966
G1 X76.53 Y105.545 E2.3109
G1 X76.388 Y105.174 E2.3252
G1 X76.285 Y104.78999999999999 E2.3394
G1 X76.22200000000001 Y104.39699999999999 E2.3537
G1 X76.2 Y103.969 E2.3691
G1 X76.2 Y96.031 E2.6543
G1 X76.22200000000001 Y95.60300000000001 E2.6697
G1 X76.285 Y95.21000000000001 E2.6840
G1 X76.388 Y94.826 E2.6982
G1 X76.53 Y94.455 E2.7125
G1 X76.711 Y94.101 E2.7268
G1 X76.92699999999999 Y93.767 E2.7411
G1 X77.17699999999999 Y93.458 E2.7554
G1 X77.458 Y93.17699999999999 E2.7696
G1 X77.767 Y92.92699999999999 E2.7839
G1 X78.101 Y92.711 E2.7982
G1 X78.455 Y92.53 E2.8125
G1 X78.826 Y92.388 E2.8268
G1 X79.21000000000001 Y92.285 E2.8410
G1 X79.60300000000001 Y92.22200000000001 E2.8553
G1 X80.031 Y92.2 E2.8707
G1 X119.969 Y92.2 E4.3053
G1 X119.981 Y91.72 F6000
G92 E0.0000
G1 X120.448 Y91.744 E0.0168 F2700
G1 X120.89 Y91.814 E0.0329
G1 X121.322 Y91.93 E0.0489
G1 X121.741 Y92.09100000000001 E0.0650
G1 X122.139 Y92.294 E0.0811
G1 X122.515 Y92.538 E0.0972
G1 X122.864 Y92.82 E0.1133
G1 X123.18 Y93.137 E0.1294
G1 X123.462 Y93.485 E0.1455
G1 X123.706 Y93.86099999999999 E0.1616
G1 X123.909 Y94.259 E0.1777
G1 X124.069 Y94.678 E0.1937
G1 X124.186 Y95.11099999999999 E0.2098
G1 X124.256 Y95.553 E0.2259
G1 X124.28 Y96.019 E0.2427
G1 X124.28 Y103.981 E0.5287
G1 X124.256 Y104.447 E0.5455
G1 X124.186 Y104.88900000000001 E0.5615
G1 X124.069 Y105.322 E0.5777
G1 X123.909 Y105.741 E0.5937
G1 X123.706 Y106.13900000000001 E0.6098
G1 X123.462 Y106.515 E0.6259
G1 X123.18 Y106.863 E0.6420
G1 X122.864 Y107.18 E0.6581
G1 X122.515 Y107.462 E0.6742
G1 X122.139 Y107.706 E0.6903
G1 X121.741 Y107.90899999999999 E0.7063
G1 X121.322 Y108.07 E0.7225
G1 X120.89 Y108.186 E0.7385
G1 X120.448 Y108.256 E0.7546
G1 X119.981 Y108.28 E0.7714
G1 X80.019 Y108.28 E2.2069
G1 X79.553 Y108.256 E2.2236
G1 X79.11 Y108.186 E2.2397
G1 X78.678 Y108.07 E2.2558
G1 X78.26 Y107.90899999999999 E2.2719
G1 X77.86 Y107.706 E2.2880
G1 X77.485 Y107.462 E2.3041
G1 X77.137 Y107.18 E2.3202
G1 X76.82 Y106.863 E2.3363
G1 X76.538 Y106.515 E2.3524
G1 X76.294 Y106.14 E2.3684
G1 X76.09100000000001 Y105.74000000000001 E2.3845
G1 X75.93 Y105.322 E2.4006
G1 X75.815 Y104.89 E2.4167
G1 X75.744 Y104.447 E2.4328
G1 X75.72 Y103.981 E2.4496
G1 X75.72 Y96.019 E2.7356
G1 X75.744 Y95.553 E2.7523
G1 X75.815 Y95.11 E2.7684
G1 X75.93 Y94.678 E2.7845
G1 X76.09100000000001 Y94.25999999999999 E2.8006
G1 X76.294 Y93.86 E2.8167
G1 X76.538 Y93.485 E2.8328
G1 X76.82 Y93.137 E2.8489
G1 X77.137 Y92.82 E2.8650
G1 X77.485 Y92.538 E2.8811
G1 X77.86 Y92.294 E2.8971
G1 X78.26 Y92.09100000000001 E2.9132
G1 X78.678 Y91.93 E2.9293
G1 X79.11 Y91.815 E2.9454
G1 X79.553 Y91.744 E2.9615
G1 X80.019 Y91.72 E2.9783
G1 X119.981 Y91.72 E4.4137
; feature outer perimeter
G1 X119.994 Y91.24000000000001 F6000
G92 E0.0000
G1 X120.498 Y91.26599999999999 E0.0181 F1800
G1 X120.99 Y91.344 E0.0360
G1 X121.471 Y91.473 E0.0539
G1 X121.936 Y91.652 E0.0718
G1 X122.38 Y91.878 E0.0897
G1 X122.798 Y92.149 E0.1076
G1 X123.185 Y92.463 E0.1255
G1 X123.537 Y92.815 E0.1434
G1 X123.85 Y93.202 E0.1613
G1 X124.122 Y93.62 E0.1792
G1 X124.348 Y94.064 E0.1971
G1 X124.526 Y94.529 E0.2150
G1 X124.656 Y95.011 E0.2329
G1 X124.734 Y95.50200000000001 E0.2508
G1 X124.76 Y96.006 E0.2689
G1 X124.76 Y103.994 E0.5558
G1 X124.734 Y104.49799999999999 E0.5739
G1 X124.656 Y104.989 E0.5918
G1 X124.526 Y105.471 E0.6097
G1 X124.348 Y105.936 E0.6276
G1 X124.122 Y106.38 E0.6455
G1 X123.851 Y106.798 E0.6634
G1 X123.537 Y107.185 E0.6813
G1 X123.185 Y107.537 E0.6992
G1 X122.798 Y107.851 E0.7171
G1 X122.38 Y108.122 E0.7350
G1 X121.936 Y108.348 E0.7529
G1 X121.471 Y108.527 E0.7708
G1 X120.99 Y108.656 E0.7887
G1 X120.498 Y108.73400000000001 E0.8066
G1 X119.994 Y108.75999999999999 E0.8247
G1 X80.006 Y108.75999999999999 E2.2611
G1 X79.503 Y108.73400000000001 E2.2792
G1 X79.01 Y108.656 E2.2971
G1 X78.529 Y108.527 E2.3150
G1 X78.064 Y108.348 E2.3329
G1 X77.62 Y108.122 E2.3508
G1 X77.202 Y107.851 E2.3687
G1 X76.815 Y107.537 E2.3866
G1 X76.463 Y107.185 E2.4045
G1 X76.149 Y106.798 E2.4224
G1 X75.878 Y106.38 E2.4403
G1 X75.652 Y105.936 E2.4582
G1 X75.473 Y105.471 E2.4761
G1 X75.344 Y104.99000000000001 E2.4940
G1 X75.26599999999999 Y104.49799999999999 E2.5119
G1 X75.24 Y103.994 E2.5300
G1 X75.24 Y96.006 E2.8169
G1 X75.26599999999999 Y95.50200000000001 E2.8350
G1 X75.344 Y95.00999999999999 E2.8529
G1 X75.473 Y94.529 E2.8708
G1 X75.652 Y94.064 E2.8887
G1 X75.878 Y93.62 E2.9066
G1 X76.149 Y93.202 E2.9245
G1 X76.463 Y92.815 E2.9424
G1 X76.815 Y92.463 E2.9603
G1 X77.202 Y92.149 E2.9782
G1 X77.62 Y91.878 E2.9961
G1 X78.064 Y91.652 E3.0140
G1 X78.529 Y91.473 E3.0319
G1 X79.01 Y91.344 E3.0498
G1 X79.503 Y91.26599999999999 E3.0677
G1 X80.006 Y91.24000000000001 E3.0858
G1 X119.994 Y91.24000000000001 E4.5222
; feature infill
; tool H0.200 W0.600
G1 X123.452 Y102.00399999999999 F6000
G92 E0.0000
G1 X118.004 Y107.452 E0.3460 F3600
G1 X109.519 Y107.452 E0.7270
G1 X122.873 Y94.098 E1.5749
G1 X122.791 Y93.97200000000001 E1.5817
G1 X122.564 Y93.691 E1.5979
G1 X122.309 Y93.436 E1.6141
G1 X122.028 Y93.209 E1.6303
G1 X121.725 Y93.012 E1.6465
G1 X121.403 Y92.848 E1.6627
G1 X121.066 Y92.719 E1.6789
G1 X120.717 Y92.625 E1.6952
G1 X120.361 Y92.569 E1.7114
G1 X119.96 Y92.548 E1.7294
G1 X115.937 Y92.548 E1.9100
G1 X101.033 Y107.452 E2.8564
G1 X92.548 Y107.452 E3.2374
G1 X107.452 Y92.548 E4.1838
G1 X98.967 Y92.548 E4.5648
G1 X84.063 Y107.452 E5.5112
G1 X80.041 Y107.452 E5.6918
G1 X79.639 Y107.431 E5.7099
G1 X79.283 Y107.374 E5.7261
G1 X78.934 Y107.281 E5.7423
G1 X78.59700000000001 Y107.152 E5.7585
G1 X78.275 Y106.988 E5.7747
G1 X77.97200000000001 Y106.791 E5.7909
G1 X77.691 Y106.564 E5.8071
G1 X77.436 Y106.309 E5.8233
G1 X77.209 Y106.02799999999999 E5.8396
G1 X77.127 Y105.902 E5.8463
G1 X90.481 Y92.548 E6.6943
G1 X81.996 Y92.548 E7.0753
G1 X76.548 Y97.99600000000001 E7.4212
G92 E0.0000
G1 E-12 F1200 ; custom retraction
; layer 7, Z = 1.400
; feature inner perimeter
; tool H0.200 W0.480
G1 Z1.600 F1200
G1 X76.2 Y96.031 F6000
G1 Z1.400 F1200
G1 E-0.4 F1200 ; custom un-retraction/prime
G92 E0.0000
G1 X76.22200000000001 Y95.60300000000001 E0.0154 F2700
G1 X76.285 Y95.21000000000001 E0.0297
G1 X76.388 Y94.826 E0.0440
G1 X76.53 Y94.455 E0.0583
G1 X76.711 Y94.101 E0.0725
G1 X76.92699999999999 Y93.767 E0.0868
G1 X77.17699999999999 Y93.458 E0.1011
G1 X77.458 Y93.17699999999999 E0.1154
G1 X77.767 Y92.92699999999999 E0.1297
G1 X78.101 Y92.711 E0.1439
G1 X78.455 Y92.53 E0.1582
G1 X78.826 Y92.388 E0.1725
G1 X79.21000000000001 Y92.285 E0.1868
G1 X79.60300000000001 Y92.22200000000001 E0.2011
G1 X80.031 Y92.2 E0.2165
G1 X119.969 Y92.2 E1.6511
G1 X120.397 Y92.22200000000001 E1.6665
G1 X120.79 Y92.285 E1.6808
G1 X121.174 Y92.388 E1.6950
G1 X121.545 Y92.53 E1.7093
G1 X121.899 Y92.71000000000001 E1.7236
G1 X122.233 Y92.92699999999999 E1.7379
G1 X122.542 Y93.17699999999999 E1.7522
G1 X122.823 Y93.458 E1.7664
G1 X123.073 Y93.767 E1.7807
G1 X123.29 Y94.101 E1.7950
G1 X123.47 Y94.455 E1.8093
G1 X123.612 Y94.826 E1.8236
G1 X123.716 Y95.211 E1.8379
G1 X123.778 Y95.60300000000001 E1.8521
G1 X123.8 Y96.031 E1.8675
G1 X123.8 Y103.969 E2.1527
G1 X123.778 Y104.39699999999999 E2.1681
G1 X123.716 Y104.789 E2.1823
G1 X123.612 Y105.174 E2.1966
G1 X123.47 Y105.545 E2.2109
G1 X123.29 Y105.899 E2.2252
G1 X123.073 Y106.233 E2.2395
G1 X122.823 Y106.542 E2.2538
G1 X122.542 Y106.82300000000001 E2.2680
G1 X122.233 Y107.07300000000001 E2.2823
G1 X121.899 Y107.28999999999999 E2.2966
G1 X121.545 Y107.47 E2.3109
G1 X121.174 Y107.612 E2.3252
G1 X120.79 Y107.715 E2.3394
G1 X120.397 Y107.77799999999999 E2.3537
G1 X119.969 Y107.8 E2.3691
G1 X79.849 Y107.78999999999999 E3.8103
G1 X79.60300000000001 Y107.77799999999999 E3.8191
G1 X79.21000000000001 Y107.715 E3.8334
G1 X78.826 Y107.612 E3.8477
G1 X78.455 Y107.47 E3.8620
G1 X78.101 Y107.289 E3.8763
G1 X77.767 Y107.07300000000001 E3.8905
G1 X77.458 Y106.82300000000001 E3.9048
G1 X77.17699999999999 Y106.542 E3.9191
G1 X76.92699999999999 Y106.233 E3.9334
G1 X76.711 Y105.899 E3.9477
G1 X76.53 Y105.545 E3.9620
G1 X76.388 Y105.174 E3.9762
G1 X76.285 Y104.78999999999999 E3.9905
G1 X76.22200000000001 Y104.39699999999999 E4.0048
G1 X76.2 Y103.969 E4.0202
G1 X76.2 Y96.031 E4.3053
G1 X75.72 Y96.019 F6000
G92 E0.0000
G1 X75.744 Y95.553 E0.0168 F2700
G1 X75.815 Y95.11 E0.0329
G1 X75.93 Y94.678 E0.0489
G1 X76.09100000000001 Y94.25999999999999 E0.0650
G1 X76.294 Y93.86 E0.0811
G1 X76.538 Y93.485 E0.0972
G1 X76.82 Y93.137 E0.1133
G1 X77.137 Y92.82 E0.1294
G1 X77.485 Y92.538 E0.1455
G1 X77.86 Y92.294 E0.1616
G1 X78.26 Y92.09100000000001 E0.1777
G1 X78.678 Y91.93 E0.1937
G1 X79.11 Y91.815 E0.2098
G1 X79.553 Y91.744 E0.2259
G1 X80.019 Y91.72 E0.2427
G1 X119.981 Y91.72 E1.6782
G1 X120.448 Y91.744 E1.6950
G1 X120.89 Y91.814 E1.7110
G1 X121.322 Y91.93 E1.7271
G1 X121.741 Y92.09100000000001 E1.7432
G1 X122.139 Y92.294 E1.7593
G1 X122.515 Y92.538 E1.7754
G1 X122.864 Y92.82 E1.7915
G1 X123.18 Y93.137 E1.8076
G1 X123.462 Y93.485 E1.8236
G1 X123.706 Y93.86099999999999 E1.8397
G1 X123.909 Y94.259 E1.8558
G1 X124.069 Y94.678 E1.8719
G1 X124.186 Y95.11099999999999 E1.8880
G1 X124.256 Y95.553 E1.9041
G1 X124.28 Y96.019 E1.9209
G1 X124.28 Y103.981 E2.2069
G1 X124.256 Y104.447 E2.2236
G1 X124.186 Y104.88900000000001 E2.2397
G1 X124.069 Y105.322 E2.2558
G1 X123.909 Y105.741 E2.2719
G1 X123.706 Y106.13900000000001 E2.2880
G1 X123.462 Y106.515 E2.3041
G1 X123.18 Y106.863 E2.3202
G1 X122.864 Y107.18 E2.3363
G1 X122.515 Y107.462 E2.3523
G1 X122.139 Y107.706 E2.3685
G1 X121.741 Y107.90899999999999 E2.3845
G1 X121.322 Y108.07 E2.4006
G1 X120.89 Y108.186 E2.4167
G1 X120.448 Y108.256 E2.4328
G1 X119.981 Y108.28 E2.4496
G1 X79.836 Y108.27000000000001 E3.8916
G1 X79.553 Y108.256 E3.9018
G1 X79.11 Y108.186 E3.9179
G1 X78.678 Y108.07 E3.9340
G1 X78.26 Y107.90899999999999 E3.9501
G1 X77.86 Y107.706 E3.9662
G1 X77.485 Y107.462 E3.9823
G1 X77.137 Y107.18 E3.9983
G1 X76.82 Y106.863 E4.0144
G1 X76.538 Y106.515 E4.0305
G1 X76.294 Y106.14 E4.0466
G1 X76.09100000000001 Y105.74000000000001 E4.0627
G1 X75.93 Y105.322 E4.0788
G1 X75.815 Y104.89 E4.0949
G1 X75.744 Y104.447 E4.1110
G1 X75.72 Y103.981 E4.1277
G1 X75.72 Y96.019 E4.4137
; feature outer perimeter
G1 X75.24 Y96.006 F6000
G92 E0.0000
G1 X75.26599999999999 Y95.50200000000001 E0.0181 F1800
G1 X75.344 Y95.00999999999999 E0.0360
G1 X75.473 Y94.529 E0.0539
G1 X75.652 Y94.064 E0.0718
G1 X75.878 Y93.62 E0.0897
G1 X76.149 Y93.202 E0.1076
G1 X76.463 Y92.815 E0.1255
G1 X76.815 Y92.463 E0.1434
G1 X77.202 Y92.149 E0.1613
G1 X77.62 Y91.878 E0.1792
G1 X78.064 Y91.652 E0.1971
G1 X78.529 Y91.473 E0.2150
G1 X79.01 Y91.344 E0.2329
G1 X79.503 Y91.26599999999999 E0.2508
G1 X80.006 Y91.24000000000001 E0.2689
G1 X119.994 Y91.24000000000001 E1.7053
G1 X120.498 Y91.26599999999999 E1.7234
G1 X120.99 Y91.344 E1.7413
G1 X121.471 Y91.473 E1.7592
G1 X121.936 Y91.652 E1.7771
G1 X122.38 Y91.878 E1.7950
G1 X122.798 Y92.149 E1.8129
G1 X123.185 Y92.463 E1.8308
G1 X123.537 Y92.815 E1.8487
G1 X123.85 Y93.202 E1.8666
G1 X124.122 Y93.62 E1.8845
G1 X124.348 Y94.064 E1.9024
G1 X124.526 Y94.529 E1.9203
G1 X124.656 Y95.011 E1.9382
G1 X124.734 Y95.50200000000001 E1.9561
G1 X124.76 Y96.006 E1.9742
G1 X124.76 Y103.994 E2.2611
G1 X124.734 Y104.49799999999999 E2.2792
G1 X124.656 Y104.989 E2.2971
G1 X124.526 Y105.471 E2.3150
G1 X124.348 Y105.936 E2.3329
G1 X124.122 Y106.38 E2.3508
G1 X123.851 Y106.798 E2.3687
G1 X123.537 Y107.185 E2.3866
G1 X123.185 Y107.537 E2.4045
G1 X122.798 Y107.851 E2.4224
G1 X122.38 Y108.122 E2.4403
G1 X121.936 Y108.348 E2.4582
G1 X121.471 Y108.527 E2.4761
G1 X120.99 Y108.656 E2.4940
G1 X120.498 Y108.73400000000001 E2.5119
G1 X119.994 Y108.75999999999999 E2.5300
G1 X79.82300000000001 Y108.75 E3.9729
G1 X79.503 Y108.73400000000001 E3.9845
G1 X79.01 Y108.656 E4.0024
G1 X78.529 Y108.527 E4.0203
G1 X78.064 Y108.348 E4.0382
G1 X77.62 Y108.122 E4.0561
G1 X77.202 Y107.851 E4.0740
G1 X76.815 Y107.537 E4.0919
G1 X76.463 Y107.185 E4.1098
G1 X76.149 Y106.798 E4.1277
G1 X75.878 Y106.38 E4.1455
G1 X75.652 Y105.936 E4.1634
G1 X75.473 Y105.471 E4.1813
G1 X75.344 Y104.99000000000001 E4.1992
G1 X75.26599999999999 Y104.49799999999999 E4.2171
G1 X75.24 Y103.994 E4.2353
G1 X75.24 Y96.006 E4.5222
; feature solid layer
G1 X82.3 Y101.98599999999999 F6000
G92 E0.0000
G1 X87.818 Y107.50399999999999 E0.2803 F2880
G1 X88.497 Y107.50399999999999 E0.3047
G1 X82.979 Y101.98599999999999 E0.5850
G1 X83.658 Y101.98599999999999 E0.6094
G1 X89.176 Y107.505 E0.8898
G1 X89.85499999999999 Y107.505 E0.9141
G1 X84.337 Y101.98599999999999 E1.1945
G1 X85.01599999999999 Y101.98599999999999 E1.2189
G1 X90.53399999999999 Y107.505 E1.4992
G1 X91.213 Y107.505 E1.5236
G1 X85.694 Y101.98599999999999 E1.8040
G1 X86.37299999999999 Y101.98599999999999 E1.8284
G1 X91.892 Y107.505 E2.1087
G1 X92.571 Y107.505 E2.1331
G1 X87.05199999999999 Y101.98599999999999 E2.4135
G1 X87.363 Y101.98599999999999 E2.4247
G1 X87.363 Y101.618 E2.4379
G1 X93.25 Y107.506 E2.7370
G1 X93.929 Y107.506 E2.7613
G1 X87.363 Y100.94 E3.0949
G1 X87.363 Y100.261 E3.1193
G1 X94.608 Y107.506 E3.4874
G1 X95.287 Y107.506 E3.5117
G1 X87.363 Y99.582 E3.9143
G1 X87.363 Y98.90299999999999 E3.9387
G1 X95.96600000000001 Y107.506 E4.3757
G1 X96.64500000000001 Y107.506 E4.4001
G1 X87.363 Y98.22399999999999 E4.8716
G1 X87.363 Y97.545 E4.8960
G1 X97.324 Y107.507 E5.4020
G1 X98.003 Y107.507 E5.4264
G1 X87.363 Y96.86699999999999 E5.9670
G1 X78.773 Y107.28399999999999 F6000
G92 E0.0000
G1 X76.71600000000001 Y105.227 E0.1045 F2880
G1 X76.662 Y105.08500000000001 E0.1099
G1 X76.56700000000001 Y104.72999999999999 E0.1231
G1 X76.509 Y104.36699999999999 E0.1363
G1 X76.508 Y104.34 E0.1373
G1 X79.66 Y107.49199999999999 E0.2975
G1 X79.76599999999999 Y107.49799999999999 E0.3013
G1 X79.856 Y107.50200000000001 E0.3045
G1 X80.35 Y107.503 E0.3222
G1 X76.488 Y103.64099999999999 E0.5184
G1 X76.488 Y102.962 E0.5428
G1 X81.029 Y107.503 E0.7735
G1 X81.708 Y107.503 E0.7979
G1 X76.488 Y102.283 E1.0630
G1 X76.488 Y101.604 E1.0874
G1 X82.387 Y107.503 E1.3870
G1 X83.066 Y107.503 E1.4114
G1 X76.488 Y100.926 E1.7456
G1 X76.488 Y100.247 E1.7700
G1 X83.745 Y107.503 E2.1386
G1 X84.424 Y107.50399999999999 E2.1630
G1 X76.488 Y99.568 E2.5661
G1 X76.488 Y98.88900000000001 E2.5905
G1 X85.10300000000001 Y107.50399999999999 E3.0281
G1 X85.782 Y107.50399999999999 E3.0525
G1 X76.488 Y98.21000000000001 E3.5246
G1 X76.488 Y97.531 E3.5490
G1 X86.461 Y107.50399999999999 E4.0556
G1 X87.13900000000001 Y107.50399999999999 E4.0800
G1 X81.622 Y101.98599999999999 E4.3603
G1 X81.008 Y101.98599999999999 E4.3823
G1 X81.008 Y101.37299999999999 E4.4044
G1 X76.488 Y96.85300000000001 E4.6340
G1 X76.488 Y96.174 E4.6584
G1 X81.008 Y100.694 E4.8880
G1 X81.008 Y100.015 E4.9124
G1 X76.525 Y95.532 E5.1401
G1 X76.56700000000001 Y95.27000000000001 E5.1496
G1 X76.646 Y94.97399999999999 E5.1606
G1 X81.008 Y99.336 E5.3822
G1 X81.008 Y98.657 E5.4066
G1 X76.837 Y94.487 E5.6185
G1 X76.96000000000001 Y94.245 E5.6282
G1 X77.084 Y94.055 E5.6364
G1 X81.008 Y97.979 E5.8357
G1 X81.008 Y97.3 E5.8601
G1 X77.377 Y93.669 E6.0445
G1 X77.392 Y93.65100000000001 E6.0454
G1 X77.651 Y93.392 E6.0585
G1 X77.72200000000001 Y93.33500000000001 E6.0618
G1 X81.008 Y96.62100000000001 E6.2287
G1 X81.008 Y96.00200000000001 E6.2510
G1 X81.068 Y96.00200000000001 E6.2531
G1 X78.112 Y93.04599999999999 E6.4033
G1 X78.245 Y92.96000000000001 E6.4090
G1 X78.55 Y92.805 E6.4212
G1 X81.747 Y96.00200000000001 E6.5837
G1 X82.426 Y96.00200000000001 E6.6080
G1 X79.049 Y92.626 E6.7796
G1 X79.27 Y92.56700000000001 E6.7878
G1 X79.615 Y92.512 E6.8003
G1 X83.10499999999999 Y96.00200000000001 E6.9776
G1 X83.783 Y96.00200000000001 E7.0020
G1 X80.269 Y92.488 E7.1805
G1 X80.94800000000001 Y92.488 E7.2049
G1 X84.462 Y96.00200000000001 E7.3834
G1 X85.14099999999999 Y96.00200000000001 E7.4078
G1 X81.627 Y92.488 E7.5863
G1 X82.306 Y92.488 E7.6107
G1 X85.82 Y96.00200000000001 E7.7892
G1 X86.499 Y96.00200000000001 E7.8136
G1 X82.98400000000001 Y92.488 E7.9921
G1 X83.663 Y92.488 E8.0165
G1 X87.178 Y96.00200000000001 E8.1950
G1 X87.363 Y96.00200000000001 E8.2017
G1 X87.363 Y96.188 E8.2083
G1 X98.682 Y107.507 E8.7834
G1 X99.36099999999999 Y107.507 E8.8077
G1 X84.342 Y92.488 E9.5707
G1 X85.021 Y92.488 E9.5951
G1 X100.03999999999999 Y107.507 E10.3581
G1 X100.719 Y107.507 E10.3825
G1 X85.7 Y92.488 E11.1454
G1 X86.37899999999999 Y92.488 E11.1698
G1 X101.398 Y107.50800000000001 E11.9328
G1 X102.077 Y107.50800000000001 E11.9572
G1 X87.057 Y92.488 E12.7202
G1 X87.73599999999999 Y92.488 E12.7446
G1 X102.756 Y107.50800000000001 E13.5076
G1 X103.435 Y107.50800000000001 E13.5320
G1 X88.41499999999999 Y92.488 E14.2950
G1 X89.094 Y92.488 E14.3194
G1 X104.114 Y107.50800000000001 E15.0824
G1 X104.793 Y107.50800000000001 E15.1068
G1 X89.773 Y92.488 E15.8698
G1 X90.452 Y92.488 E15.8942
G1 X105.47200000000001 Y107.509 E16.6573
G1 X106.15100000000001 Y107.509 E16.6817
G1 X91.13 Y92.488 E17.4447
G1 X91.809 Y92.488 E17.4691
G1 X106.83 Y107.509 E18.2321
G1 X107.509 Y107.509 E18.2565
G1 X92.488 Y92.488 E19.0196
G1 X93.167 Y92.488 E19.0440
G1 X108.188 Y107.509 E19.8071
G1 X108.86699999999999 Y107.509 E19.8314
G1 X93.846 Y92.488 E20.5945
G1 X94.524 Y92.488 E20.6189
G1 X109.54599999999999 Y107.509 E21.3820
G1 X110.225 Y107.50999999999999 E21.4064
G1 X95.203 Y92.488 E22.1695
G1 X95.882 Y92.488 E22.1939
G1 X110.904 Y107.50999999999999 E22.9570
G1 X111.583 Y107.50999999999999 E22.9814
G1 X96.561 Y92.488 E23.7445
G1 X97.24000000000001 Y92.488 E23.7689
G1 X112.262 Y107.50999999999999 E24.5320
G1 X112.941 Y107.50999999999999 E24.5564
G1 X97.919 Y92.488 E25.3195
G1 X98.59700000000001 Y92.488 E25.3439
G1 X113.62 Y107.50999999999999 E26.1070
G1 X114.299 Y107.511 E26.1314
G1 X99.27600000000001 Y92.488 E26.8946
G1 X99.955 Y92.488 E26.9190
G1 X114.978 Y107.511 E27.6821
G1 X115.657 Y107.511 E27.7065
G1 X100.634 Y92.488 E28.4697
G1 X101.313 Y92.488 E28.4941
G1 X116.336 Y107.511 E29.2572
G1 X117.015 Y107.511 E29.2816
G1 X101.99199999999999 Y92.488 E30.0448
G1 X102.67 Y92.488 E30.0692
G1 X117.694 Y107.511 E30.8324
G1 X118.373 Y107.512 E30.8568
G1 X112.84700000000001 Y101.98599999999999 E31.1375
G1 X112.637 Y101.98599999999999 E31.1450
G1 X112.637 Y101.77600000000001 E31.1526
G1 X103.34899999999999 Y92.488 E31.6244
G1 X104.02799999999999 Y92.488 E31.6488
G1 X112.637 Y101.09700000000001 E32.0861
G1 X112.637 Y100.418 E32.1105
G1 X104.707 Y92.488 E32.5133
G1 X105.386 Y92.488 E32.5377
G1 X112.637 Y99.739 E32.9061
G1 X112.637 Y99.061 E32.9305
G1 X106.064 Y92.488 E33.2644
G1 X106.743 Y92.488 E33.2888
G1 X112.637 Y98.382 E33.5882
G1 X112.637 Y97.703 E33.6125
G1 X107.422 Y92.488 E33.8775
G1 X108.101 Y92.488 E33.9019
G1 X112.637 Y97.024 E34.1323
G1 X112.637 Y96.345 E34.1567
G1 X108.78 Y92.488 E34.3526
G1 X109.459 Y92.488 E34.3770
G1 X112.973 Y96.00200000000001 E34.5555
G1 X113.652 Y96.00200000000001 E34.5799
G1 X110.137 Y92.488 E34.7584
G1 X110.816 Y92.488 E34.7828
G1 X114.33 Y96.00200000000001 E34.9613
G1 X115.009 Y96.00200000000001 E34.9857
G1 X111.495 Y92.488 E35.1642
G1 X112.174 Y92.488 E35.1886
G1 X115.688 Y96.00200000000001 E35.3671
G1 X116.367 Y96.00200000000001 E35.3915
G1 X112.85300000000001 Y92.488 E35.5701
G1 X113.532 Y92.488 E35.5944
G1 X117.046 Y96.00200000000001 E35.7730
G1 X117.725 Y96.00200000000001 E35.7973
G1 X114.21 Y92.488 E35.9759
G1 X114.889 Y92.488 E36.0002
G1 X118.403 Y96.00200000000001 E36.1788
G1 X118.992 Y96.00200000000001 E36.1999
G1 X118.992 Y96.59100000000001 E36.2211
G1 X123.512 Y101.11099999999999 E36.4507
G1 X123.512 Y100.432 E36.4751
G1 X115.568 Y92.488 E36.8786
G1 X116.247 Y92.488 E36.9030
G1 X123.512 Y99.753 E37.2721
G1 X123.512 Y99.074 E37.2964
G1 X116.926 Y92.488 E37.6310
G1 X117.604 Y92.488 E37.6554
G1 X123.512 Y98.396 E37.9555
G1 X123.512 Y97.717 E37.9799
G1 X118.283 Y92.488 E38.2455
G1 X118.962 Y92.488 E38.2699
G1 X123.512 Y97.038 E38.5010
G1 X123.512 Y96.35900000000001 E38.5254
G1 X119.641 Y92.488 E38.7221
G1 X119.961 Y92.488 E38.7336
G1 X120.097 Y92.495 E38.7385
G1 X120.34 Y92.50800000000001 E38.7472
G1 X123.492 Y95.661 E38.9074
G1 X123.491 Y95.63300000000001 E38.9084
G1 X123.468 Y95.48599999999999 E38.9137
G1 X123.434 Y95.271 E38.9215
G1 X123.338 Y94.91499999999999 E38.9348
G1 X123.283 Y94.773 E38.9402
G1 X121.227 Y92.71600000000001 E39.0447
G1 X118.992 Y97.27000000000001 F6000
G92 E0.0000
G1 X123.512 Y101.78999999999999 E0.2296 F2880
G1 X123.512 Y102.468 E0.2540
G1 X118.992 Y97.94800000000001 E0.4836
G1 X118.992 Y98.62700000000001 E0.5080
G1 X123.512 Y103.14699999999999 E0.7376
G1 X123.512 Y103.826 E0.7620
G1 X118.992 Y99.306 E0.9916
G1 X118.992 Y99.985 E1.0160
G1 X123.475 Y104.468 E1.2437
G1 X123.434 Y104.729 E1.2532
G1 X123.354 Y105.02600000000001 E1.2643
G1 X118.992 Y100.664 E1.4858
G1 X118.992 Y101.343 E1.5102
G1 X123.163 Y105.51400000000001 E1.7221
G1 X123.04 Y105.755 E1.7318
G1 X122.916 Y105.945 E1.7400
G1 X118.957 Y101.98599999999999 E1.9411
G1 X118.278 Y101.98599999999999 E1.9655
G1 X122.623 Y106.331 E2.1862
G1 X122.608 Y106.34899999999999 E2.1871
G1 X122.349 Y106.608 E2.2002
G1 X122.278 Y106.66499999999999 E2.2035
G1 X117.599 Y101.98599999999999 E2.4412
G1 X116.92 Y101.98599999999999 E2.4656
G1 X121.888 Y106.95400000000001 E2.7179
G1 X121.755 Y107.03999999999999 E2.7236
G1 X121.45 Y107.195 E2.7359
G1 X116.241 Y101.98599999999999 E3.0005
G1 X115.563 Y101.98599999999999 E3.0249
G1 X120.951 Y107.374 E3.2986
G1 X120.73 Y107.43299999999999 E3.3068
G1 X120.385 Y107.488 E3.3193
G1 X114.884 Y101.98599999999999 E3.5988
G1 X114.205 Y101.98599999999999 E3.6232
G1 X119.731 Y107.512 E3.9039
G1 X119.052 Y107.512 E3.9283
G1 X113.52600000000001 Y101.98599999999999 E4.2090
; feature infill
; tool H0.200 W0.600
G1 X118.417 Y101.446 F6000
G92 E0.0000
G1 X113.513 Y96.542 E0.3114 F3600
G92 E0.0000
G1 E-12 F1200 ; custom retraction
; layer 8, Z = 1.600
; feature inner perimeter
; tool H0.200 W0.480
G1 Z1.800 F1200
G1 X119.969 Y92.2 F6000
G1 Z1.600 F1200
G1 E-0.4 F1200 ; custom un-retraction/prime
G92 E0.0000
G1 X120.397 Y92.22200000000001 E0.0154 F2700
G1 X120.79 Y92.285 E0.0297
G1 X121.174 Y92.388 E0.0440
G1 X121.545 Y92.53 E0.0583
G1 X121.899 Y92.71000000000001 E0.0725
G1 X122.233 Y92.92699999999999 E0.0868
G1 X122.542 Y93.17699999999999 E0.1011
G1 X122.823 Y93.458 E0.1154
G1 X123.073 Y93.767 E0.1296
G1 X123.29 Y94.101 E0.1440
G1 X123.47 Y94.455 E0.1582
G1 X123.612 Y94.826 E0.1725
G1 X123.716 Y95.211 E0.1868
G1 X123.778 Y95.60300000000001 E0.2011
G1 X123.8 Y96.031 E0.2165
G1 X123.8 Y103.969 E0.5016
G1 X123.778 Y104.39699999999999 E0.5170
G1 X123.716 Y104.789 E0.5313
G1 X123.612 Y105.174 E0.5456
G1 X123.47 Y105.545 E0.5599
G1 X123.29 Y105.899 E0.5741
G1 X123.073 Y106.233 E0.5884
G1 X122.823 Y106.542 E0.6027
G1 X122.542 Y106.82300000000001 E0.6170
G1 X122.233 Y107.07300000000001 E0.6312
G1 X121.899 Y107.28999999999999 E0.6455
G1 X121.545 Y107.47 E0.6598
G1 X121.174 Y107.612 E0.6741
G1 X120.79 Y107.715 E0.6884
G1 X120.397 Y107.77799999999999 E0.7027
G1 X119.969 Y107.8 E0.7181
G1 X79.901 Y107.793 E2.1574
G1 X79.60300000000001 Y107.77799999999999 E2.1681
G1 X79.21000000000001 Y107.715 E2.1823
G1 X78.826 Y107.612 E2.1966
G1 X78.455 Y107.47 E2.2109
G1 X78.101 Y107.289 E2.2252
G1 X77.767 Y107.07300000000001 E2.2395
G1 X77.458 Y106.82300000000001 E2.2538
G1 X77.17699999999999 Y106.542 E2.2680
G1 X76.92699999999999 Y106.233 E2.2823
G1 X76.711 Y105.899 E2.2966
G1 X76.53 Y105.545 E2.3109
G1 X76.388 Y105.174 E2.3252
G1 X76.285 Y104.78999999999999 E2.3394
G1 X76.22200000000001 Y104.39699999999999 E2.3537
G1 X76.2 Y103.969 E2.3691
G1 X76.2 Y96.031 E2.6542
G1 X76.22200000000001 Y95.60300000000001 E2.6697
G1 X76.285 Y95.21000000000001 E2.6839
G1 X76.388 Y94.826 E2.6982
G1 X76.53 Y94.455 E2.7125
G1 X76.711 Y94.101 E2.7268
G1 X76.92699999999999 Y93.767 E2.7411
G1 X77.17699999999999 Y93.458 E2.7554
G1 X77.458 Y93.17699999999999 E2.7696
G1 X77.767 Y92.92699999999999 E2.7839
G1 X78.101 Y92.711 E2.7982
G1 X78.455 Y92.53 E2.8125
G1 X78.826 Y92.388 E2.8268
G1 X79.21000000000001 Y92.285 E2.8410
G1 X79.60300000000001 Y92.22200000000001 E2.8553
G1 X80.031 Y92.2 E2.8707
G1 X119.969 Y92.2 E4.3053
G1 X119.981 Y91.72 F6000
G92 E0.0000
G1 X120.448 Y91.744 E0.0168 F2700
G1 X120.89 Y91.814 E0.0329
G1 X121.322 Y91.93 E0.0489
G1 X121.741 Y92.09100000000001 E0.0650
G1 X122.139 Y92.294 E0.0811
G1 X122.515 Y92.538 E0.0972
G1 X122.864 Y92.82 E0.1133
G1 X123.18 Y93.137 E0.1294
G1 X123.462 Y93.485 E0.1455
G1 X123.706 Y93.86099999999999 E0.1616
G1 X123.909 Y94.259 E0.1777
G1 X124.069 Y94.678 E0.1937
G1 X124.186 Y95.11099999999999 E0.2098
G1 X124.256 Y95.553 E0.2259
G1 X124.28 Y96.019 E0.2427
G1 X124.28 Y103.981 E0.5287
G1 X124.256 Y104.447 E0.5455
G1 X124.186 Y104.88900000000001 E0.5615
G1 X124.069 Y105.322 E0.5777
G1 X123.909 Y105.741 E0.5937
G1 X123.706 Y106.13900000000001 E0.6098
G1 X123.462 Y106.515 E0.6259
G1 X123.18 Y106.863 E0.6420
G1 X122.864 Y107.18 E0.6581
G1 X122.515 Y107.462 E0.6742
G1 X122.139 Y107.706 E0.6903
G1 X121.741 Y107.90899999999999 E0.7063
G1 X121.322 Y108.07 E0.7225
G1 X120.89 Y108.186 E0.7385
G1 X120.448 Y108.256 E0.7546
G1 X119.981 Y108.28 E0.7714
G1 X79.888 Y108.273 E2.2116
G1 X79.553 Y108.256 E2.2236
G1 X79.11 Y108.186 E2.2397
G1 X78.678 Y108.07 E2.2558
G1 X78.26 Y107.90899999999999 E2.2719
G1 X77.86 Y107.706 E2.2880
G1 X77.485 Y107.462 E2.3041
G1 X77.137 Y107.18 E2.3202
G1 X76.82 Y106.863 E2.3363
G1 X76.538 Y106.515 E2.3523
G1 X76.294 Y106.14 E2.3684
G1 X76.09100000000001 Y105.74000000000001 E2.3845
G1 X75.93 Y105.322 E2.4006
G1 X75.815 Y104.89 E2.4167
G1 X75.744 Y104.447 E2.4328
G1 X75.72 Y103.981 E2.4496
G1 X75.72 Y96.019 E2.7356
G1 X75.744 Y95.553 E2.7523
G1 X75.815 Y95.11 E2.7684
G1 X75.93 Y94.678 E2.7845
G1 X76.09100000000001 Y94.25999999999999 E2.8006
G1 X76.294 Y93.86 E2.8167
G1 X76.538 Y93.485 E2.8328
G1 X76.82 Y93.137 E2.8489
G1 X77.137 Y92.82 E2.8650
G1 X77.485 Y92.538 E2.8810
G1 X77.86 Y92.294 E2.8971
G1 X78.26 Y92.09100000000001 E2.9132
G1 X78.678 Y91.93 E2.9293
G1 X79.11 Y91.815 E2.9454
G1 X79.553 Y91.744 E2.9615
G1 X80.019 Y91.72 E2.9783
G1 X119.981 Y91.72 E4.4137
; feature outer perimeter
G1 X119.994 Y91.24000000000001 F6000
G92 E0.0000
G1 X120.498 Y91.26599999999999 E0.0181 F1800
G1 X120.99 Y91.344 E0.0360
G1 X121.471 Y91.473 E0.0539
G1 X121.936 Y91.652 E0.0718
G1 X122.38 Y91.878 E0.0897
G1 X122.798 Y92.149 E0.1076
G1 X123.185 Y92.463 E0.1255
G1 X123.537 Y92.815 E0.1434
G1 X123.85 Y93.202 E0.1613
G1 X124.122 Y93.62 E0.1792
G1 X124.348 Y94.064 E0.1971
G1 X124.526 Y94.529 E0.2150
G1 X124.656 Y95.011 E0.2329
G1 X124.734 Y95.50200000000001 E0.2508
G1 X124.76 Y96.006 E0.2689
G1 X124.76 Y103.994 E0.5558
G1 X124.734 Y104.49799999999999 E0.5739
G1 X124.656 Y104.989 E0.5918
G1 X124.526 Y105.471 E0.6097
G1 X124.348 Y105.936 E0.6276
G1 X124.122 Y106.38 E0.6455
G1 X123.851 Y106.798 E0.6634
G1 X123.537 Y107.185 E0.6813
G1 X123.185 Y107.537 E0.6992
G1 X122.798 Y107.851 E0.7171
G1 X122.38 Y108.122 E0.7350
G1 X121.936 Y108.348 E0.7529
G1 X121.471 Y108.527 E0.7708
G1 X120.99 Y108.656 E0.7887
G1 X120.498 Y108.73400000000001 E0.8066
G1 X119.994 Y108.75999999999999 E0.8247
G1 X79.876 Y108.753 E2.2658
G1 X79.503 Y108.73400000000001 E2.2792
G1 X79.01 Y108.656 E2.2971
G1 X78.529 Y108.527 E2.3150
G1 X78.064 Y108.348 E2.3329
G1 X77.62 Y108.122 E2.3508
G1 X77.202 Y107.851 E2.3687
G1 X76.815 Y107.537 E2.3866
G1 X76.463 Y107.185 E2.4045
G1 X76.149 Y106.798 E2.4224
G1 X75.878 Y106.38 E2.4403
G1 X75.652 Y105.936 E2.4582
G1 X75.473 Y105.471 E2.4761
G1 X75.344 Y104.99000000000001 E2.4940
G1 X75.26599999999999 Y104.49799999999999 E2.5119
G1 X75.24 Y103.994 E2.5300
G1 X75.24 Y96.006 E2.8169
G1 X75.26599999999999 Y95.50200000000001 E2.8350
G1 X75.344 Y95.00999999999999 E2.8529
G1 X75.473 Y94.529 E2.8708
G1 X75.652 Y94.064 E2.8887
G1 X75.878 Y93.62 E2.9066
G1 X76.149 Y93.202 E2.9245
G1 X76.463 Y92.815 E2.9424
G1 X76.815 Y92.463 E2.9603
G1 X77.202 Y92.149 E2.9782
G1 X77.62 Y91.878 E2.9961
G1 X78.064 Y91.652 E3.0140
G1 X78.529 Y91.473 E3.0319
G1 X79.01 Y91.344 E3.0498
G1 X79.503 Y91.26599999999999 E3.0677
G1 X80.006 Y91.24000000000001 E3.0858
G1 X119.994 Y91.24000000000001 E4.5222
; feature solid layer
G1 X113.501 Y96.00200000000001 F6000
G92 E0.0000
G1 X117.016 Y92.488 E0.1785 F2880
G1 X117.694 Y92.488 E0.2029
G1 X114.18 Y96.00200000000001 E0.3814
G1 X114.859 Y96.00200000000001 E0.4058
G1 X118.373 Y92.488 E0.5843
G1 X119.052 Y92.488 E0.6087
G1 X115.538 Y96.00200000000001 E0.7872
G1 X116.217 Y96.00200000000001 E0.8116
G1 X119.731 Y92.488 E0.9901
G1 X119.961 Y92.488 E0.9984
G1 X120.097 Y92.495 E1.0033
G1 X120.367 Y92.509 E1.0130
G1 X120.385 Y92.512 E1.0137
G1 X116.895 Y96.00200000000001 E1.1910
G1 X117.574 Y96.00200000000001 E1.2154
G1 X120.951 Y92.626 E1.3869
G1 X121.085 Y92.662 E1.3919
G1 X121.428 Y92.794 E1.4051
G1 X121.45 Y92.805 E1.4060
G1 X118.253 Y96.00200000000001 E1.5684
G1 X118.932 Y96.00200000000001 E1.5928
G1 X121.888 Y93.04599999999999 E1.7429
G1 X122.063 Y93.161 E1.7505
G1 X122.278 Y93.33500000000001 E1.7604
G1 X118.992 Y96.62100000000001 E1.9273
G1 X118.992 Y97.3 E1.9517
G1 X122.623 Y93.669 E2.1362
G1 X122.746 Y93.822 E2.1432
G1 X122.839 Y93.936 E2.1485
G1 X122.916 Y94.055 E2.1536
G1 X118.992 Y97.979 E2.3529
G1 X118.992 Y98.657 E2.3773
G1 X123.163 Y94.487 E2.5892
G1 X123.207 Y94.572 E2.5926
G1 X123.338 Y94.91499999999999 E2.6058
G1 X123.354 Y94.97399999999999 E2.6080
G1 X118.992 Y99.336 E2.8296
G1 X118.992 Y100.015 E2.8540
G1 X123.475 Y95.532 E3.0817
G1 X123.491 Y95.63300000000001 E3.0854
G1 X123.512 Y96.038 E3.1000
G1 X123.512 Y96.174 E3.1049
G1 X118.992 Y100.694 E3.3345
G1 X123.283 Y105.227 F6000
G92 E0.0000
G1 X121.227 Y107.28399999999999 E0.1045 F2880
G1 X121.085 Y107.338 E0.1099
G1 X120.73 Y107.43299999999999 E0.1231
G1 X120.367 Y107.491 E0.1363
G1 X120.34 Y107.49199999999999 E0.1373
G1 X123.492 Y104.339 E0.2975
G1 X123.512 Y103.962 E0.3111
G1 X123.512 Y103.64099999999999 E0.3226
G1 X119.641 Y107.512 E0.5192
G1 X118.962 Y107.512 E0.5436
G1 X123.512 Y102.962 E0.7747
G1 X123.512 Y102.283 E0.7991
G1 X118.284 Y107.512 E1.0647
G1 X117.605 Y107.512 E1.0891
G1 X123.512 Y101.604 E1.3892
G1 X123.512 Y100.926 E1.4136
G1 X116.926 Y107.511 E1.7481
G1 X116.247 Y107.511 E1.7725
G1 X123.512 Y100.247 E2.1415
G1 X123.512 Y99.568 E2.1659
G1 X115.569 Y107.511 E2.5694
G1 X114.89 Y107.511 E2.5938
G1 X123.512 Y98.88900000000001 E3.0318
G1 X123.512 Y98.21000000000001 E3.0562
G1 X114.211 Y107.511 E3.5287
G1 X113.533 Y107.511 E3.5531
G1 X123.512 Y97.532 E4.0600
G1 X123.512 Y96.85300000000001 E4.0844
G1 X118.992 Y101.37299999999999 E4.3140
G1 X118.992 Y101.98599999999999 E4.3360
G1 X118.379 Y101.98599999999999 E4.3581
G1 X112.854 Y107.511 E4.6387
G1 X112.175 Y107.511 E4.6631
G1 X117.7 Y101.98599999999999 E4.9437
G1 X117.021 Y101.98599999999999 E4.9681
G1 X111.497 Y107.511 E5.2488
G1 X110.818 Y107.50999999999999 E5.2731
G1 X116.342 Y101.98599999999999 E5.5538
G1 X115.663 Y101.98599999999999 E5.5782
G1 X110.13900000000001 Y107.50999999999999 E5.8588
G1 X109.46000000000001 Y107.50999999999999 E5.8832
G1 X114.984 Y101.98599999999999 E6.1638
G1 X114.306 Y101.98599999999999 E6.1882
G1 X108.782 Y107.50999999999999 E6.4688
G1 X108.10300000000001 Y107.50999999999999 E6.4932
G1 X113.62700000000001 Y101.98599999999999 E6.7738
G1 X112.94800000000001 Y101.98599999999999 E6.7982
G1 X107.424 Y107.50999999999999 E7.0788
G1 X106.74600000000001 Y107.50999999999999 E7.1031
G1 X112.637 Y101.618 E7.4024
G1 X112.637 Y100.939 E7.4268
G1 X106.06700000000001 Y107.50999999999999 E7.7606
G1 X105.388 Y107.509 E7.7849
G1 X112.637 Y100.261 E8.1532
G1 X112.637 Y99.582 E8.1776
G1 X104.709 Y107.509 E8.5803
G1 X104.031 Y107.509 E8.6047
G1 X112.637 Y98.90299999999999 E9.0419
G1 X112.637 Y98.22399999999999 E9.0663
G1 X103.352 Y107.509 E9.5379
G1 X102.673 Y107.509 E9.5623
G1 X112.637 Y97.545 E10.0685
G1 X112.637 Y96.866 E10.0929
G1 X101.995 Y107.509 E10.6335
G1 X101.316 Y107.509 E10.6579
G1 X112.637 Y96.188 E11.2330
G1 X112.637 Y96.00200000000001 E11.2397
G1 X112.82300000000001 Y96.00200000000001 E11.2463
G1 X116.337 Y92.488 E11.4248
G1 X115.658 Y92.488 E11.4492
G1 X100.637 Y107.509 E12.2123
G1 X99.959 Y107.509 E12.2366
G1 X114.979 Y92.488 E12.9997
G1 X114.3 Y92.488 E13.0241
G1 X99.28 Y107.50800000000001 E13.7871
G1 X98.601 Y107.50800000000001 E13.8115
G1 X113.62100000000001 Y92.488 E14.5745
G1 X112.943 Y92.488 E14.5989
G1 X97.922 Y107.50800000000001 E15.3619
G1 X97.244 Y107.50800000000001 E15.3863
G1 X112.26400000000001 Y92.488 E16.1493
G1 X111.58500000000001 Y92.488 E16.1737
G1 X96.565 Y107.50800000000001 E16.9367
G1 X95.928 Y107.50800000000001 E16.9596
G1 X95.886 Y107.50800000000001 E16.9611
G1 X110.906 Y92.488 E17.7241
G1 X110.227 Y92.488 E17.7485
G1 X95.208 Y107.50800000000001 E18.5115
G1 X94.529 Y107.50800000000001 E18.5359
G1 X109.549 Y92.488 E19.2989
G1 X108.87 Y92.488 E19.3233
G1 X93.85 Y107.50800000000001 E20.0863
G1 X93.17099999999999 Y107.507 E20.1106
G1 X108.191 Y92.488 E20.8736
G1 X107.512 Y92.488 E20.8980
G1 X92.493 Y107.507 E21.6610
G1 X91.814 Y107.507 E21.6854
G1 X106.833 Y92.488 E22.4483
G1 X106.154 Y92.488 E22.4727
G1 X91.13499999999999 Y107.507 E23.2357
G1 X90.457 Y107.507 E23.2601
G1 X105.476 Y92.488 E24.0230
G1 X104.797 Y92.488 E24.0474
G1 X89.77799999999999 Y107.507 E24.8104
G1 X89.09899999999999 Y107.507 E24.8347
G1 X104.118 Y92.488 E25.5977
G1 X103.439 Y92.488 E25.6221
G1 X88.42 Y107.507 E26.3850
G1 X87.74199999999999 Y107.506 E26.4094
G1 X102.75999999999999 Y92.488 E27.1723
G1 X102.081 Y92.488 E27.1967
G1 X87.063 Y107.506 E27.9597
G1 X86.384 Y107.506 E27.9840
G1 X101.40299999999999 Y92.488 E28.7470
G1 X100.72399999999999 Y92.488 E28.7713
G1 X85.706 Y107.506 E29.5343
G1 X85.027 Y107.506 E29.5586
G1 X100.045 Y92.488 E30.3216
G1 X99.366 Y92.488 E30.3459
G1 X84.348 Y107.506 E31.1088
G1 X83.67 Y107.506 E31.1332
G1 X98.687 Y92.488 E31.8961
G1 X98.009 Y92.488 E31.9205
G1 X82.991 Y107.506 E32.6834
G1 X82.312 Y107.506 E32.7078
G1 X97.33 Y92.488 E33.4707
G1 X96.65100000000001 Y92.488 E33.4951
G1 X87.363 Y101.77600000000001 E33.9669
G1 X87.363 Y101.98599999999999 E33.9744
G1 X87.15299999999999 Y101.98599999999999 E33.9820
G1 X81.633 Y107.505 E34.2624
G1 X80.955 Y107.505 E34.2868
G1 X86.47399999999999 Y101.98599999999999 E34.5671
G1 X85.795 Y101.98599999999999 E34.5915
G1 X80.276 Y107.505 E34.8719
G1 X79.908 Y107.505 E34.8851
G1 X79.81700000000001 Y107.5 E34.8884
G1 X79.633 Y107.491 E34.8950
G1 X79.615 Y107.488 E34.8957
G1 X85.116 Y101.98599999999999 E35.1751
G1 X84.437 Y101.98599999999999 E35.1995
G1 X79.049 Y107.374 E35.4732
G1 X78.91499999999999 Y107.338 E35.4782
G1 X78.572 Y107.207 E35.4914
G1 X78.55 Y107.195 E35.4923
G1 X83.759 Y101.98599999999999 E35.7569
G1 X83.08 Y101.98599999999999 E35.7813
G1 X78.112 Y106.95400000000001 E36.0337
G1 X77.937 Y106.84 E36.0412
G1 X77.72200000000001 Y106.66499999999999 E36.0511
G1 X82.40100000000001 Y101.98599999999999 E36.2888
G1 X81.72200000000001 Y101.98599999999999 E36.3132
G1 X77.377 Y106.331 E36.5339
G1 X77.16 Y106.063 E36.5463
G1 X77.084 Y105.945 E36.5513
G1 X81.043 Y101.98599999999999 E36.7525
G1 X81.008 Y101.98599999999999 E36.7537
G1 X81.008 Y101.343 E36.7768
G1 X76.837 Y105.513 E36.9887
G1 X76.793 Y105.428 E36.9922
G1 X76.662 Y105.08500000000001 E37.0054
G1 X76.646 Y105.02600000000001 E37.0076
G1 X81.008 Y100.664 E37.2292
G1 X81.008 Y99.985 E37.2535
G1 X76.525 Y104.468 E37.4813
G1 X76.509 Y104.36699999999999 E37.4849
G1 X76.488 Y103.961 E37.4995
G1 X76.488 Y103.826 E37.5044
G1 X81.008 Y99.306 E37.7340
G1 X81.008 Y98.62700000000001 E37.7584
G1 X76.488 Y103.14699999999999 E37.9880
G1 X76.488 Y102.469 E38.0124
G1 X81.008 Y97.949 E38.2420
G1 X81.008 Y97.27000000000001 E38.2664
G1 X76.488 Y101.78999999999999 E38.4960
G1 X76.488 Y101.11099999999999 E38.5204
G1 X81.008 Y96.59100000000001 E38.7500
G1 X81.008 Y96.00200000000001 E38.7711
G1 X81.59700000000001 Y96.00200000000001 E38.7923
G1 X85.11099999999999 Y92.488 E38.9708
G1 X84.432 Y92.488 E38.9952
G1 X76.488 Y100.432 E39.3987
G1 X76.488 Y99.753 E39.4231
G1 X83.753 Y92.488 E39.7922
G1 X83.074 Y92.488 E39.8166
G1 X76.488 Y99.074 E40.1512
G1 X76.488 Y98.396 E40.1756
G1 X82.396 Y92.488 E40.4757
G1 X81.717 Y92.488 E40.5000
G1 X76.488 Y97.717 E40.7657
G1 X76.488 Y97.038 E40.7901
G1 X81.038 Y92.488 E41.0212
G1 X80.35900000000001 Y92.488 E41.0456
G1 X76.488 Y96.35900000000001 E41.2422
G1 X76.488 Y96.039 E41.2537
G1 X76.508 Y95.66 E41.2673
G1 X79.66 Y92.50800000000001 E41.4275
G1 X79.633 Y92.509 E41.4285
G1 X79.27 Y92.56700000000001 E41.4417
G1 X78.91499999999999 Y92.662 E41.4549
G1 X78.773 Y92.71600000000001 E41.4604
G1 X76.71600000000001 Y94.773 E41.5648
G1 X82.27600000000001 Y96.00200000000001 F6000
G92 E0.0000
G1 X85.78999999999999 Y92.488 E0.1785 F2880
G1 X86.469 Y92.488 E0.2029
G1 X82.95400000000001 Y96.00200000000001 E0.3814
G1 X83.63300000000001 Y96.00200000000001 E0.4058
G1 X87.14699999999999 Y92.488 E0.5843
G1 X87.826 Y92.488 E0.6087
G1 X84.312 Y96.00200000000001 E0.7872
G1 X84.991 Y96.00200000000001 E0.8116
G1 X88.505 Y92.488 E0.9901
G1 X89.184 Y92.488 E1.0145
G1 X85.67 Y96.00200000000001 E1.1930
G1 X86.348 Y96.00200000000001 E1.2174
G1 X89.863 Y92.488 E1.3959
G1 X90.541 Y92.488 E1.4203
G1 X87.027 Y96.00200000000001 E1.5989
G1 X87.363 Y96.00200000000001 E1.6109
G1 X87.363 Y96.345 E1.6232
G1 X91.22 Y92.488 E1.8192
G1 X91.899 Y92.488 E1.8436
G1 X87.363 Y97.024 E2.0740
G1 X87.363 Y97.703 E2.0984
G1 X92.578 Y92.488 E2.3633
G1 X93.257 Y92.488 E2.3877
G1 X87.363 Y98.382 E2.6871
G1 X87.363 Y99.06 E2.7115
G1 X93.936 Y92.488 E3.0453
G1 X94.614 Y92.488 E3.0697
G1 X87.363 Y99.739 E3.4381
G1 X87.363 Y100.418 E3.4625
G1 X95.293 Y92.488 E3.8653
G1 X95.97200000000001 Y92.488 E3.8897
G1 X87.363 Y101.09700000000001 E4.3270
; feature infill
; tool H0.200 W0.600
G1 X86.487 Y96.542 F6000
G92 E0.0000
G1 X81.583 Y101.446 E0.3114 F3600
G92 E0.0000
G1 E-12 F1200 ; custom retraction
; layer 9, Z = 1.800
; feature inner perimeter
; tool H0.200 W0.480
G1 Z2.000 F1200
G1 X76.2 Y103.969 F6000
G1 Z1.800 F1200
G1 E-0.4 F1200 ; custom un-retraction/prime
G92 E0.0000
G1 X76.2 Y96.031 E0.2851 F2700
G1 X76.22200000000001 Y95.60300000000001 E0.3005
G1 X76.285 Y95.21000000000001 E0.3148
G1 X76.388 Y94.826 E0.3291
G1 X76.53 Y94.455 E0.3434
G1 X76.711 Y94.101 E0.3576
G1 X76.92699999999999 Y93.767 E0.3719
G1 X77.17699999999999 Y93.458 E0.3862
G1 X77.458 Y93.17699999999999 E0.4005
G1 X77.767 Y92.92699999999999 E0.4148
G1 X78.101 Y92.711 E0.4291
G1 X78.455 Y92.53 E0.4433
G1 X78.826 Y92.388 E0.4576
G1 X79.21000000000001 Y92.285 E0.4719
G1 X79.60300000000001 Y92.22200000000001 E0.4862
G1 X80.031 Y92.2 E0.5016
G1 X119.969 Y92.2 E1.9362
G1 X120.397 Y92.22200000000001 E1.9516
G1 X120.79 Y92.285 E1.9659
G1 X121.174 Y92.388 E1.9801
G1 X121.545 Y92.53 E1.9944
G1 X121.899 Y92.71000000000001 E2.0087
G1 X122.233 Y92.92699999999999 E2.0230
G1 X122.542 Y93.17699999999999 E2.0373
G1 X122.823 Y93.458 E2.0516
G1 X123.073 Y93.767 E2.0658
G1 X123.29 Y94.101 E2.0801
G1 X123.47 Y94.455 E2.0944
G1 X123.612 Y94.826 E2.1087
G1 X123.716 Y95.211 E2.1230
G1 X123.778 Y95.60300000000001 E2.1372
G1 X123.8 Y96.031 E2.1526
G1 X123.8 Y103.969 E2.4378
G1 X123.778 Y104.39699999999999 E2.4532
G1 X123.716 Y104.789 E2.4674
G1 X123.612 Y105.174 E2.4818
G1 X123.47 Y105.545 E2.4960
G1 X123.29 Y105.899 E2.5103
G1 X123.073 Y106.233 E2.5246
G1 X122.823 Y106.542 E2.5389
G1 X122.542 Y106.82300000000001 E2.5531
G1 X122.233 Y107.07300000000001 E2.5674
