; G-Code originally generated by Simplify3D(R) Version 4.1.2
; This calibration test gcode modified by the Teaching Tech Calibration website: https://teachingtechyt.github.io/calibration.html
;M80 ; power supply on
G90
M82
M106 S0
M140 S80 ; custom bed temp
M190 S80 ; custom bed temp
M104 S170 T0 ; custom hot end temp minus 50 degrees
G28 ; home all axes
G29 ; probe ABL
;M420 S1 ; restore ABL mesh
M109 S220 T0 ; custom hot end temp 
;customstart
G0 Z3; fix for delta printers that home at max
;process Process-1
;layer 1, Z = 0.200
T0
G92 E0.0000
G1 E-1 F1800 ; custom retraction
;fan1;
G1 Z0.200 F1200
G1 X31.378 Y52.572 F6000
G1 E0 F1800 ; custom un-retraction/prime
G92 E0.0000
G1 X32.430 Y52.136 E0.0491 F1800
G1 X87.570 Y52.136 E2.4259
G1 X88.622 Y52.572 E2.4750
G1 X92.428 Y56.378 E2.7070
G1 X92.864 Y57.430 E2.7561
G1 X92.864 Y62.570 E2.9777
G1 X92.428 Y63.622 E3.0268
G1 X88.622 Y67.428 E3.2588
G1 X87.570 Y67.864 E3.3079
G1 X32.430 Y67.864 E5.6847
G1 X31.378 Y67.428 E5.7338
G1 X27.572 Y63.622 E5.9658
G1 X27.136 Y62.570 E6.0149
G1 X27.136 Y57.430 E6.2364
G1 X27.572 Y56.378 E6.2855
G1 X31.378 Y52.572 E6.5175
G92 E0.0000
G1 E-1 F1800 ; custom retraction
;zhop1
G1 X31.704 Y53.060 F6000
G1 Z0.200 F1200
G1 E0 F1800 ; custom un-retraction/prime
G92 E0.0000
G1 X32.545 Y52.712 E0.0392 F1800
G1 X87.455 Y52.712 E2.4061
G1 X88.296 Y53.060 E2.4454
G1 X91.940 Y56.704 E2.6675
G1 X92.288 Y57.545 E2.7067
G1 X92.288 Y62.455 E2.9184
G1 X91.940 Y63.296 E2.9576
G1 X88.296 Y66.940 E3.1797
G1 X87.455 Y67.288 E3.2190
G1 X32.545 Y67.288 E5.5859
G1 X31.704 Y66.940 E5.6251
G1 X28.060 Y63.296 E5.8472
G1 X27.712 Y62.455 E5.8865
G1 X27.712 Y57.545 E6.0981
G1 X28.060 Y56.704 E6.1374
G1 X31.704 Y53.060 E6.3595
G92 E0.0000
G1 E-1 F1800 ; custom retraction
;zhop1
G1 X33.119 Y55.288 F6000
G1 X33.012 Y55.396
G1 X33.596 Y56.440
G1 Z0.200 F1200
G1 E0 F1800 ; custom un-retraction/prime
G92 E0.0000
G1 X86.404 Y56.440 E2.2763 F1440
G1 X88.560 Y58.596 E2.4077
G1 X88.560 Y61.404 E2.5287
G1 X86.404 Y63.560 E2.6602
G1 X33.596 Y63.560 E4.9364
G1 X31.440 Y61.404 E5.0679
G1 X31.440 Y58.596 E5.1889
G1 X33.596 Y56.440 E5.3203
G1 X33.358 Y55.864 F6000
G92 E0.0000
G1 X86.642 Y55.864 E2.2968 F1440
G1 X89.136 Y58.358 E2.4489
G1 X89.136 Y61.642 E2.5904
G1 X86.642 Y64.136 E2.7424
G1 X33.358 Y64.136 E5.0393
G1 X30.864 Y61.642 E5.1913
G1 X30.864 Y58.358 E5.3329
G1 X33.358 Y55.864 E5.4849
G1 X33.119 Y55.288 F6000
G92 E0.0000
G1 X86.881 Y55.288 E2.3174 F1080
G1 X89.712 Y58.119 E2.4900
G1 X89.712 Y61.881 E2.6521
G1 X86.881 Y64.712 E2.8247
G1 X33.119 Y64.712 E5.1421
G1 X30.288 Y61.881 E5.3147
G1 X30.288 Y58.119 E5.4768
G1 X33.119 Y55.288 E5.6494
G1 X33.889 Y63.214 F6000
G92 E0.0000
G1 X31.786 Y61.111 E0.1282 F1440
G1 X31.786 Y60.296 E0.1634
G1 X34.704 Y63.214 E0.3413
G1 X35.518 Y63.214 E0.3764
G1 X31.786 Y59.482 E0.6039
G1 X31.786 Y58.740 E0.6359
G1 X31.822 Y58.703 E0.6381
G1 X36.333 Y63.214 E0.9131
G1 X37.148 Y63.214 E0.9482
G1 X32.229 Y58.296 E1.2480
G1 X32.637 Y57.889 E1.2729
G1 X37.962 Y63.214 E1.5975
G1 X38.777 Y63.214 E1.6326
G1 X33.044 Y57.481 E1.9821
G1 X33.451 Y57.074 E2.0070
G1 X39.591 Y63.214 E2.3813
G1 X40.406 Y63.214 E2.4164
G1 X33.977 Y56.786 E2.8083
G1 X34.792 Y56.786 E2.8434
G1 X41.221 Y63.214 E3.2353
G1 X42.035 Y63.214 E3.2704
G1 X35.606 Y56.786 E3.6623
G1 X36.421 Y56.786 E3.6974
G1 X42.850 Y63.214 E4.0893
G1 X43.664 Y63.214 E4.1244
G1 X37.236 Y56.786 E4.5163
G1 X38.050 Y56.786 E4.5514
G1 X44.479 Y63.214 E4.9433
G1 X45.293 Y63.214 E4.9784
G1 X38.865 Y56.786 E5.3703
G1 X39.679 Y56.786 E5.4055
G1 X46.108 Y63.214 E5.7974
G1 X46.923 Y63.214 E5.8325
G1 X40.494 Y56.786 E6.2244
G1 X41.308 Y56.786 E6.2595
G1 X47.737 Y63.214 E6.6514
G1 X48.552 Y63.214 E6.6865
G1 X42.123 Y56.786 E7.0784
G1 X42.938 Y56.786 E7.1135
G1 X49.366 Y63.214 E7.5054
G1 X50.181 Y63.214 E7.5405
G1 X43.752 Y56.786 E7.9324
G1 X44.567 Y56.786 E7.9675
G1 X50.996 Y63.214 E8.3594
G1 X51.810 Y63.214 E8.3945
G1 X45.381 Y56.786 E8.7864
G1 X46.196 Y56.786 E8.8216
G1 X52.625 Y63.214 E9.2135
G1 X53.439 Y63.214 E9.2486
G1 X47.011 Y56.786 E9.6405
G1 X47.825 Y56.786 E9.6756
G1 X54.254 Y63.214 E10.0675
G1 X55.069 Y63.214 E10.1026
G1 X48.640 Y56.786 E10.4945
G1 X49.454 Y56.786 E10.5296
G1 X55.883 Y63.214 E10.9215
G1 X56.698 Y63.214 E10.9566
G1 X50.269 Y56.786 E11.3485
G1 X51.084 Y56.786 E11.3836
G1 X57.512 Y63.214 E11.7755
G1 X58.327 Y63.214 E11.8106
G1 X51.898 Y56.786 E12.2025
G1 X52.713 Y56.786 E12.2376
G1 X59.141 Y63.214 E12.6295
G1 X59.956 Y63.214 E12.6647
G1 X53.527 Y56.786 E13.0566
G1 X54.342 Y56.786 E13.0917
G1 X60.771 Y63.214 E13.4836
G1 X61.585 Y63.214 E13.5187
G1 X55.156 Y56.786 E13.9106
G1 X55.971 Y56.786 E13.9457
G1 X62.400 Y63.214 E14.3376
G1 X63.214 Y63.214 E14.3727
G1 X56.786 Y56.786 E14.7646
G1 X57.600 Y56.786 E14.7997
G1 X64.029 Y63.214 E15.1916
G1 X64.844 Y63.214 E15.2267
G1 X58.415 Y56.786 E15.6186
G1 X59.229 Y56.786 E15.6537
G1 X65.658 Y63.214 E16.0456
G1 X66.473 Y63.214 E16.0808
G1 X60.044 Y56.786 E16.4727
G1 X60.859 Y56.786 E16.5078
G1 X67.287 Y63.214 E16.8997
G1 X68.102 Y63.214 E16.9348
G1 X61.673 Y56.786 E17.3267
G1 X62.488 Y56.786 E17.3618
G1 X68.917 Y63.214 E17.7537
G1 X69.731 Y63.214 E17.7888
G1 X63.302 Y56.786 E18.1807
G1 X64.117 Y56.786 E18.2158
G1 X70.546 Y63.214 E18.6077
G1 X71.360 Y63.214 E18.6428
G1 X64.931 Y56.786 E19.0347
G1 X65.746 Y56.786 E19.0698
G1 X72.175 Y63.214 E19.4617
G1 X72.989 Y63.214 E19.4968
G1 X66.561 Y56.786 E19.8887
G1 X67.375 Y56.786 E19.9239
G1 X73.804 Y63.214 E20.3158
G1 X74.619 Y63.214 E20.3509
G1 X68.190 Y56.786 E20.7428
G1 X69.004 Y56.786 E20.7779
G1 X75.433 Y63.214 E21.1698
G1 X76.248 Y63.214 E21.2049
G1 X69.819 Y56.786 E21.5968
G1 X70.634 Y56.786 E21.6319
G1 X77.062 Y63.214 E22.0238
G1 X77.877 Y63.214 E22.0589
G1 X71.448 Y56.786 E22.4508
G1 X72.263 Y56.786 E22.4859
G1 X78.692 Y63.214 E22.8778
G1 X79.506 Y63.214 E22.9129
G1 X73.077 Y56.786 E23.3048
G1 X73.892 Y56.786 E23.3399
G1 X80.321 Y63.214 E23.7318
G1 X81.135 Y63.214 E23.7670
G1 X74.707 Y56.786 E24.1589
G1 X75.521 Y56.786 E24.1940
G1 X81.950 Y63.214 E24.5859
G1 X82.765 Y63.214 E24.6210
G1 X76.336 Y56.786 E25.0129
G1 X77.150 Y56.786 E25.0480
G1 X83.579 Y63.214 E25.4399
G1 X84.394 Y63.214 E25.4750
G1 X77.965 Y56.786 E25.8669
G1 X78.779 Y56.786 E25.9020
G1 X85.208 Y63.214 E26.2939
G1 X86.023 Y63.214 E26.3290
G1 X79.594 Y56.786 E26.7209
G1 X80.409 Y56.786 E26.7560
G1 X86.549 Y62.926 E27.1304
G1 X86.956 Y62.519 E27.1552
G1 X81.223 Y56.786 E27.5047
G1 X82.038 Y56.786 E27.5398
G1 X87.363 Y62.111 E27.8644
G1 X87.771 Y61.704 E27.8893
G1 X82.852 Y56.786 E28.1891
G1 X83.667 Y56.786 E28.2242
G1 X88.178 Y61.297 E28.4992
G1 X88.214 Y61.260 E28.5014
G1 X88.214 Y60.518 E28.5334
G1 X84.482 Y56.786 E28.7609
G1 X85.296 Y56.786 E28.7961
G1 X88.214 Y59.704 E28.9739
G1 X88.214 Y58.889 E29.0091
G1 X86.111 Y56.786 E29.1373
G92 E0.0000
G1 E-1 F1800 ; custom retraction
M104 S225 T0 ; custom hot end temp - A
M106 S255; custom fan 100% from layer 2
G1 Z0.400 F1200
G1 X86.503 Y56.200 F6000
G1 E0 F1800 ; custom un-retraction/prime
G92 E0.0000
G1 X88.800 Y58.497 E0.1167 F2880
G1 X88.800 Y61.503 E0.2247
G1 X86.503 Y63.800 E0.3414
G1 X33.497 Y63.800 E2.2454
G1 X31.200 Y61.503 E2.3621
G1 X31.200 Y58.497 E2.4700
G1 X33.497 Y56.200 E2.5867
G1 X86.503 Y56.200 E4.4908
G1 X86.702 Y55.720 F6000
G92 E0.0000
G1 X89.280 Y58.298 E0.1310 F2880
G1 X89.280 Y61.702 E0.2532
G1 X86.702 Y64.280 E0.3842
G1 X33.298 Y64.280 E2.3025
G1 X30.720 Y61.702 E2.4335
G1 X30.720 Y58.298 E2.5557
G1 X33.298 Y55.720 E2.6867
G1 X86.702 Y55.720 E4.6050
G1 X86.901 Y55.240 F6000
G92 E0.0000
G1 X89.760 Y58.099 E0.1453 F2160
G1 X89.760 Y61.901 E0.2818
G1 X86.901 Y64.760 E0.4271
G1 X33.099 Y64.760 E2.3596
G1 X30.240 Y61.901 E2.5049
G1 X30.240 Y58.099 E2.6414
G1 X33.099 Y55.240 E2.7867
G1 X86.901 Y55.240 E4.7193
G1 X88.512 Y61.356 F6000
G92 E0.0000
G1 X86.356 Y63.512 E0.1095 F2880
G1 X85.677 Y63.512 E0.1339
G1 X88.512 Y60.677 E0.2779
G1 X88.512 Y59.999 E0.3023
G1 X84.999 Y63.512 E0.4808
G1 X84.320 Y63.512 E0.5051
G1 X88.512 Y59.320 E0.7181
G1 X88.512 Y58.641 E0.7425
G1 X83.641 Y63.512 E0.9899
G1 X82.962 Y63.512 E1.0143
G1 X88.185 Y58.289 E1.2796
G1 X87.845 Y57.950 E1.2969
G1 X82.283 Y63.512 E1.5794
G1 X81.604 Y63.512 E1.6038
G1 X87.506 Y57.610 E1.9036
G1 X87.167 Y57.271 E1.9209
G1 X80.926 Y63.512 E2.2379
G1 X80.247 Y63.512 E2.2623
G1 X86.827 Y56.932 E2.5966
G1 X86.488 Y56.592 E2.6138
G1 X79.568 Y63.512 E2.9653
G1 X78.889 Y63.512 E2.9897
G1 X85.913 Y56.488 E3.3465
G1 X85.234 Y56.488 E3.3709
G1 X78.210 Y63.512 E3.7278
G1 X77.532 Y63.512 E3.7521
G1 X84.556 Y56.488 E4.1090
G1 X83.877 Y56.488 E4.1333
G1 X76.853 Y63.512 E4.4902
G1 X76.174 Y63.512 E4.5145
G1 X83.198 Y56.488 E4.8714
G1 X82.519 Y56.488 E4.8957
G1 X75.495 Y63.512 E5.2526
G1 X74.816 Y63.512 E5.2769
G1 X81.840 Y56.488 E5.6338
G1 X81.161 Y56.488 E5.6581
G1 X74.137 Y63.512 E6.0150
G1 X73.459 Y63.512 E6.0393
G1 X80.483 Y56.488 E6.3962
G1 X79.804 Y56.488 E6.4206
G1 X72.780 Y63.512 E6.7774
G1 X72.101 Y63.512 E6.8018
G1 X79.125 Y56.488 E7.1586
G1 X78.446 Y56.488 E7.1830
G1 X71.422 Y63.512 E7.5398
G1 X70.743 Y63.512 E7.5642
G1 X77.767 Y56.488 E7.9210
G1 X77.088 Y56.488 E7.9454
G1 X70.064 Y63.512 E8.3022
G1 X69.386 Y63.512 E8.3266
G1 X76.410 Y56.488 E8.6834
G1 X75.731 Y56.488 E8.7078
G1 X68.707 Y63.512 E9.0646
G1 X68.028 Y63.512 E9.0890
G1 X75.052 Y56.488 E9.4458
G1 X74.373 Y56.488 E9.4702
G1 X67.349 Y63.512 E9.8270
G1 X66.670 Y63.512 E9.8514
G1 X73.694 Y56.488 E10.2082
G1 X73.016 Y56.488 E10.2326
G1 X65.992 Y63.512 E10.5894
G1 X65.313 Y63.512 E10.6138
G1 X72.337 Y56.488 E10.9706
G1 X71.658 Y56.488 E10.9950
G1 X64.634 Y63.512 E11.3518
G1 X63.955 Y63.512 E11.3762
G1 X70.979 Y56.488 E11.7330
G1 X70.300 Y56.488 E11.7574
G1 X63.276 Y63.512 E12.1142
G1 X62.597 Y63.512 E12.1386
G1 X69.621 Y56.488 E12.4954
G1 X68.943 Y56.488 E12.5198
G1 X61.919 Y63.512 E12.8766
G1 X61.240 Y63.512 E12.9010
G1 X68.264 Y56.488 E13.2578
G1 X67.585 Y56.488 E13.2822
G1 X60.561 Y63.512 E13.6390
G1 X59.882 Y63.512 E13.6634
G1 X66.906 Y56.488 E14.0202
G1 X66.227 Y56.488 E14.0446
G1 X59.203 Y63.512 E14.4014
G1 X58.525 Y63.512 E14.4258
G1 X65.549 Y56.488 E14.7826
G1 X64.870 Y56.488 E14.8070
G1 X57.846 Y63.512 E15.1638
G1 X57.167 Y63.512 E15.1882
G1 X64.191 Y56.488 E15.5450
G1 X63.512 Y56.488 E15.5694
G1 X56.488 Y63.512 E15.9262
G1 X55.809 Y63.512 E15.9506
G1 X62.833 Y56.488 E16.3074
G1 X62.154 Y56.488 E16.3318
G1 X55.130 Y63.512 E16.6886
G1 X54.452 Y63.512 E16.7130
G1 X61.476 Y56.488 E17.0698
G1 X60.797 Y56.488 E17.0942
G1 X53.773 Y63.512 E17.4510
G1 X53.094 Y63.512 E17.4754
G1 X60.118 Y56.488 E17.8322
G1 X59.439 Y56.488 E17.8566
G1 X52.415 Y63.512 E18.2134
G1 X51.736 Y63.512 E18.2378
G1 X58.760 Y56.488 E18.5946
G1 X58.081 Y56.488 E18.6190
G1 X51.057 Y63.512 E18.9758
G1 X50.379 Y63.512 E19.0002
G1 X57.403 Y56.488 E19.3570
G1 X56.724 Y56.488 E19.3814
G1 X49.700 Y63.512 E19.7383
G1 X49.021 Y63.512 E19.7626
G1 X56.045 Y56.488 E20.1195
G1 X55.366 Y56.488 E20.1438
G1 X48.342 Y63.512 E20.5007
G1 X47.663 Y63.512 E20.5250
G1 X54.687 Y56.488 E20.8819
G1 X54.009 Y56.488 E20.9062
G1 X46.985 Y63.512 E21.2631
G1 X46.306 Y63.512 E21.2874
G1 X53.330 Y56.488 E21.6443
G1 X52.651 Y56.488 E21.6686
G1 X45.627 Y63.512 E22.0255
G1 X44.948 Y63.512 E22.0498
G1 X51.972 Y56.488 E22.4067
G1 X51.293 Y56.488 E22.4311
G1 X44.269 Y63.512 E22.7879
G1 X43.590 Y63.512 E22.8123
G1 X50.614 Y56.488 E23.1691
G1 X49.936 Y56.488 E23.1935
G1 X42.912 Y63.512 E23.5503
G1 X42.233 Y63.512 E23.5747
G1 X49.257 Y56.488 E23.9315
G1 X48.578 Y56.488 E23.9559
G1 X41.554 Y63.512 E24.3127
G1 X40.875 Y63.512 E24.3371
G1 X47.899 Y56.488 E24.6939
G1 X47.220 Y56.488 E24.7183
G1 X40.196 Y63.512 E25.0751
G1 X39.517 Y63.512 E25.0995
G1 X46.541 Y56.488 E25.4563
G1 X45.863 Y56.488 E25.4807
G1 X38.839 Y63.512 E25.8375
G1 X38.160 Y63.512 E25.8619
G1 X45.184 Y56.488 E26.2187
G1 X44.505 Y56.488 E26.2431
G1 X37.481 Y63.512 E26.5999
G1 X36.802 Y63.512 E26.6243
G1 X43.826 Y56.488 E26.9811
G1 X43.147 Y56.488 E27.0055
G1 X36.123 Y63.512 E27.3623
G1 X35.445 Y63.512 E27.3867
G1 X42.469 Y56.488 E27.7435
G1 X41.790 Y56.488 E27.7679
G1 X34.766 Y63.512 E28.1247
G1 X34.087 Y63.512 E28.1491
G1 X41.111 Y56.488 E28.5059
G1 X40.432 Y56.488 E28.5303
G1 X33.512 Y63.408 E28.8818
G1 X33.173 Y63.068 E28.8991
G1 X39.753 Y56.488 E29.2333
G1 X39.074 Y56.488 E29.2577
G1 X32.833 Y62.729 E29.5748
G1 X32.494 Y62.390 E29.5920
G1 X38.396 Y56.488 E29.8918
G1 X37.717 Y56.488 E29.9162
G1 X32.155 Y62.050 E30.1988
G1 X31.815 Y61.711 E30.2160
G1 X37.038 Y56.488 E30.4813
G1 X36.359 Y56.488 E30.5057
G1 X31.488 Y61.359 E30.7532
G1 X31.488 Y60.680 E30.7775
G1 X35.680 Y56.488 E30.9905
G1 X35.001 Y56.488 E31.0149
G1 X31.488 Y60.001 E31.1934
G1 X31.488 Y59.323 E31.2178
G1 X34.323 Y56.488 E31.3618
G1 X33.644 Y56.488 E31.3861
G1 X31.488 Y58.644 E31.4957
G92 E0.0000
G1 E-1 F1800 ; custom retraction
;layer 3, Z = 0.600
;fan3;
G1 Z0.600 F1200
G1 X31.200 Y58.497 F6000
G1 E0 F1800 ; custom un-retraction/prime
G92 E0.0000
G1 X33.497 Y56.200 E0.1167 F2880
G1 X86.503 Y56.200 E2.0207
G1 X88.800 Y58.497 E2.1374
G1 X88.800 Y61.503 E2.2454
G1 X86.503 Y63.800 E2.3621
G1 X33.497 Y63.800 E4.2661
G1 X31.200 Y61.503 E4.3828
G1 X31.200 Y58.497 E4.4908
G1 X30.720 Y58.298 F6000
G92 E0.0000
G1 X33.298 Y55.720 E0.1310 F2880
G1 X86.702 Y55.720 E2.0493
G1 X89.280 Y58.298 E2.1803
G1 X89.280 Y61.702 E2.3025
G1 X86.702 Y64.280 E2.4335
G1 X33.298 Y64.280 E4.3518
G1 X30.720 Y61.702 E4.4828
G1 X30.720 Y58.298 E4.6050
G1 X30.240 Y58.099 F6000
G92 E0.0000
G1 X33.099 Y55.240 E0.1453 F2160
G1 X86.901 Y55.240 E2.0778
G1 X89.760 Y58.099 E2.2231
G1 X89.760 Y61.901 E2.3596
G1 X86.901 Y64.760 E2.5049
G1 X33.099 Y64.760 E4.4375
G1 X30.240 Y61.901 E4.5828
G1 X30.240 Y58.099 E4.7193
G1 X33.644 Y63.512 F6000
G92 E0.0000
G1 X31.488 Y61.356 E0.1095 F2880
G1 X31.488 Y60.677 E0.1339
G1 X34.323 Y63.512 E0.2779
G1 X35.001 Y63.512 E0.3023
G1 X31.488 Y59.999 E0.4808
G1 X31.488 Y59.320 E0.5052
G1 X35.680 Y63.512 E0.7181
G1 X36.359 Y63.512 E0.7425
G1 X31.488 Y58.641 E0.9900
G1 X31.488 Y58.616 E0.9908
G1 X31.815 Y58.289 E1.0075
G1 X37.038 Y63.512 E1.2728
G1 X37.717 Y63.512 E1.2972
G1 X32.155 Y57.950 E1.5797
G1 X32.494 Y57.610 E1.5970
G1 X38.396 Y63.512 E1.8968
G1 X39.074 Y63.512 E1.9211
G1 X32.833 Y57.271 E2.2382
G1 X33.173 Y56.932 E2.2554
G1 X39.753 Y63.512 E2.5897
G1 X40.432 Y63.512 E2.6141
G1 X33.512 Y56.592 E2.9656
G1 X33.616 Y56.488 E2.9709
G1 X34.087 Y56.488 E2.9878
G1 X41.111 Y63.512 E3.3446
G1 X41.790 Y63.512 E3.3690
G1 X34.766 Y56.488 E3.7258
G1 X35.445 Y56.488 E3.7502
G1 X42.469 Y63.512 E4.1070
G1 X43.147 Y63.512 E4.1314
G1 X36.123 Y56.488 E4.4882
G1 X36.802 Y56.488 E4.5126
G1 X43.826 Y63.512 E4.8694
G1 X44.505 Y63.512 E4.8938
G1 X37.481 Y56.488 E5.2506
G1 X38.160 Y56.488 E5.2750
G1 X45.184 Y63.512 E5.6318
G1 X45.863 Y63.512 E5.6562
G1 X38.839 Y56.488 E6.0131
G1 X39.517 Y56.488 E6.0374
G1 X46.541 Y63.512 E6.3943
G1 X47.220 Y63.512 E6.4186
G1 X40.196 Y56.488 E6.7755
G1 X40.875 Y56.488 E6.7998
G1 X47.899 Y63.512 E7.1567
G1 X48.578 Y63.512 E7.1810
G1 X41.554 Y56.488 E7.5379
G1 X42.233 Y56.488 E7.5622
G1 X49.257 Y63.512 E7.9191
G1 X49.936 Y63.512 E7.9434
G1 X42.912 Y56.488 E8.3003
G1 X43.590 Y56.488 E8.3246
G1 X50.614 Y63.512 E8.6815
G1 X51.293 Y63.512 E8.7059
G1 X44.269 Y56.488 E9.0627
G1 X44.948 Y56.488 E9.0871
G1 X51.972 Y63.512 E9.4439
G1 X52.651 Y63.512 E9.4683
G1 X45.627 Y56.488 E9.8251
G1 X46.306 Y56.488 E9.8495
G1 X53.330 Y63.512 E10.2063
G1 X54.008 Y63.512 E10.2307
G1 X46.984 Y56.488 E10.5875
G1 X47.663 Y56.488 E10.6119
G1 X54.687 Y63.512 E10.9687
G1 X55.366 Y63.512 E10.9931
G1 X48.342 Y56.488 E11.3499
G1 X49.021 Y56.488 E11.3743
G1 X56.045 Y63.512 E11.7311
G1 X56.724 Y63.512 E11.7555
G1 X49.700 Y56.488 E12.1123
G1 X50.379 Y56.488 E12.1367
G1 X57.403 Y63.512 E12.4935
G1 X58.081 Y63.512 E12.5179
G1 X51.057 Y56.488 E12.8747
G1 X51.736 Y56.488 E12.8991
G1 X58.760 Y63.512 E13.2559
G1 X59.439 Y63.512 E13.2803
G1 X52.415 Y56.488 E13.6371
G1 X53.094 Y56.488 E13.6615
G1 X60.118 Y63.512 E14.0183
G1 X60.797 Y63.512 E14.0427
G1 X53.773 Y56.488 E14.3995
G1 X54.452 Y56.488 E14.4239
G1 X61.476 Y63.512 E14.7807
G1 X62.154 Y63.512 E14.8051
G1 X55.130 Y56.488 E15.1619
G1 X55.809 Y56.488 E15.1863
G1 X62.833 Y63.512 E15.5431
G1 X63.512 Y63.512 E15.5675
G1 X56.488 Y56.488 E15.9243
G1 X57.167 Y56.488 E15.9487
G1 X64.191 Y63.512 E16.3055
G1 X64.870 Y63.512 E16.3299
G1 X57.846 Y56.488 E16.6867
G1 X58.524 Y56.488 E16.7111
G1 X65.548 Y63.512 E17.0679
G1 X66.227 Y63.512 E17.0923
G1 X59.203 Y56.488 E17.4491
G1 X59.882 Y56.488 E17.4735
G1 X66.906 Y63.512 E17.8303
G1 X67.585 Y63.512 E17.8547
G1 X60.561 Y56.488 E18.2115
G1 X61.240 Y56.488 E18.2359
G1 X68.264 Y63.512 E18.5927
G1 X68.943 Y63.512 E18.6171
G1 X61.919 Y56.488 E18.9739
G1 X62.597 Y56.488 E18.9983
G1 X69.621 Y63.512 E19.3551
G1 X70.300 Y63.512 E19.3795
G1 X63.276 Y56.488 E19.7363
G1 X63.955 Y56.488 E19.7607
G1 X70.979 Y63.512 E20.1175
G1 X71.658 Y63.512 E20.1419
G1 X64.634 Y56.488 E20.4987
G1 X65.313 Y56.488 E20.5231
G1 X72.337 Y63.512 E20.8799
G1 X73.016 Y63.512 E20.9043
G1 X65.992 Y56.488 E21.2611
G1 X66.670 Y56.488 E21.2855
G1 X73.694 Y63.512 E21.6423
G1 X74.373 Y63.512 E21.6667
G1 X67.349 Y56.488 E22.0236
G1 X68.028 Y56.488 E22.0479
G1 X75.052 Y63.512 E22.4048
G1 X75.731 Y63.512 E22.4291
G1 X68.707 Y56.488 E22.7860
G1 X69.386 Y56.488 E22.8103
G1 X76.410 Y63.512 E23.1672
G1 X77.088 Y63.512 E23.1915
G1 X70.064 Y56.488 E23.5484
G1 X70.743 Y56.488 E23.5727
G1 X77.767 Y63.512 E23.9296
G1 X78.446 Y63.512 E23.9539
G1 X71.422 Y56.488 E24.3108
G1 X72.101 Y56.488 E24.3351
G1 X79.125 Y63.512 E24.6920
G1 X79.804 Y63.512 E24.7164
G1 X72.780 Y56.488 E25.0732
G1 X73.459 Y56.488 E25.0976
G1 X80.483 Y63.512 E25.4544
G1 X81.161 Y63.512 E25.4788
G1 X74.137 Y56.488 E25.8356
G1 X74.816 Y56.488 E25.8600
G1 X81.840 Y63.512 E26.2168
G1 X82.519 Y63.512 E26.2412
G1 X75.495 Y56.488 E26.5980
G1 X76.174 Y56.488 E26.6224
G1 X83.198 Y63.512 E26.9792
G1 X83.877 Y63.512 E27.0036
G1 X76.853 Y56.488 E27.3604
G1 X77.532 Y56.488 E27.3848
G1 X84.556 Y63.512 E27.7416
G1 X85.234 Y63.512 E27.7660
G1 X78.210 Y56.488 E28.1228
G1 X78.889 Y56.488 E28.1472
G1 X85.913 Y63.512 E28.5040
G1 X86.384 Y63.512 E28.5209
G1 X86.488 Y63.408 E28.5262
G1 X79.568 Y56.488 E28.8777
G1 X80.247 Y56.488 E28.9021
G1 X86.827 Y63.068 E29.2364
G1 X87.167 Y62.729 E29.2536
G1 X80.926 Y56.488 E29.5707
G1 X81.604 Y56.488 E29.5950
G1 X87.506 Y62.390 E29.8948
G1 X87.845 Y62.050 E29.9121
G1 X82.283 Y56.488 E30.1946
G1 X82.962 Y56.488 E30.2190
G1 X88.185 Y61.711 E30.4843
G1 X88.512 Y61.384 E30.5010
G1 X88.512 Y61.359 E30.5018
G1 X83.641 Y56.488 E30.7493
G1 X84.320 Y56.488 E30.7737
G1 X88.512 Y60.680 E30.9866
G1 X88.512 Y60.001 E31.0110
G1 X84.999 Y56.488 E31.1895
G1 X85.677 Y56.488 E31.2139
G1 X88.512 Y59.323 E31.3579
G1 X88.512 Y58.644 E31.3823
G1 X86.356 Y56.488 E31.4918
G92 E0.0000
G1 E-1 F1800 ; custom retraction
;layer 4, Z = 0.800
;fan4;
G1 Z0.800 F1200
G1 X86.503 Y56.200 F6000
G1 E0 F1800 ; custom un-retraction/prime
G92 E0.0000
G1 X88.800 Y58.497 E0.1167 F2880
G1 X88.800 Y61.503 E0.2247
G1 X86.503 Y63.800 E0.3414
G1 X33.497 Y63.800 E2.2454
G1 X31.200 Y61.503 E2.3621
G1 X31.200 Y58.497 E2.4700
G1 X33.497 Y56.200 E2.5867
G1 X86.503 Y56.200 E4.4908
G1 X86.702 Y55.720 F6000
G92 E0.0000
G1 X89.280 Y58.298 E0.1310 F2880
G1 X89.280 Y61.702 E0.2532
G1 X86.702 Y64.280 E0.3842
G1 X33.298 Y64.280 E2.3025
G1 X30.720 Y61.702 E2.4335
G1 X30.720 Y58.298 E2.5557
G1 X33.298 Y55.720 E2.6867
G1 X86.702 Y55.720 E4.6050
G1 X86.901 Y55.240 F6000
G92 E0.0000
G1 X89.760 Y58.099 E0.1453 F2160
G1 X89.760 Y61.901 E0.2818
G1 X86.901 Y64.760 E0.4271
G1 X33.099 Y64.760 E2.3596
G1 X30.240 Y61.901 E2.5049
G1 X30.240 Y58.099 E2.6414
G1 X33.099 Y55.240 E2.7867
G1 X86.901 Y55.240 E4.7193
G1 X86.592 Y61.240 F6000
G92 E0.0000
G1 X88.512 Y59.320 E0.0975 F2880
G1 X88.512 Y58.641 E0.1219
G1 X86.592 Y60.561 E0.2195
G1 X86.592 Y59.882 E0.2438
G1 X88.185 Y58.289 E0.3248
G1 X87.845 Y57.950 E0.3420
G1 X86.592 Y59.203 E0.4057
G1 X86.592 Y58.524 E0.4301
G1 X87.506 Y57.610 E0.4765
G1 X87.167 Y57.271 E0.4937
G1 X86.030 Y58.408 E0.5515
G1 X85.351 Y58.408 E0.5759
G1 X86.827 Y56.932 E0.6509
G1 X86.488 Y56.592 E0.6681
G1 X84.672 Y58.408 E0.7604
G1 X83.993 Y58.408 E0.7847
G1 X85.913 Y56.488 E0.8823
G1 X85.234 Y56.488 E0.9067
G1 X83.314 Y58.408 E1.0042
G1 X82.636 Y58.408 E1.0286
G1 X84.556 Y56.488 E1.1261
G1 X83.877 Y56.488 E1.1505
G1 X81.957 Y58.408 E1.2480
G1 X81.278 Y58.408 E1.2724
G1 X83.198 Y56.488 E1.3700
G1 X82.519 Y56.488 E1.3943
G1 X80.599 Y58.408 E1.4919
G1 X88.512 Y61.356 F6000
G92 E0.0000
G1 X86.356 Y63.512 E0.1095 F2880
G1 X85.677 Y63.512 E0.1339
G1 X88.512 Y60.677 E0.2779
G1 X88.512 Y59.999 E0.3023
G1 X84.999 Y63.512 E0.4808
G1 X84.320 Y63.512 E0.5051
G1 X86.240 Y61.592 E0.6027
G1 X85.561 Y61.592 E0.6271
G1 X83.641 Y63.512 E0.7246
G1 X82.962 Y63.512 E0.7490
G1 X84.882 Y61.592 E0.8465
G1 X84.203 Y61.592 E0.8709
G1 X82.283 Y63.512 E0.9684
G1 X81.604 Y63.512 E0.9928
G1 X83.524 Y61.592 E1.0904
G1 X82.846 Y61.592 E1.1147
G1 X80.926 Y63.512 E1.2123
G1 X80.247 Y63.512 E1.2367
G1 X82.167 Y61.592 E1.3342
G1 X81.488 Y61.592 E1.3586
G1 X79.568 Y63.512 E1.4561
G1 X78.889 Y63.512 E1.4805
G1 X80.809 Y61.592 E1.5780
G1 X80.130 Y61.592 E1.6024
G1 X78.210 Y63.512 E1.7000
G1 X77.532 Y63.512 E1.7243
G1 X79.452 Y61.592 E1.8219
G1 X79.386 Y61.592 E1.8242
G1 X79.386 Y60.978 E1.8463
G1 X76.853 Y63.512 E1.9750
G1 X76.174 Y63.512 E1.9993
G1 X79.386 Y60.300 E2.1625
G1 X79.386 Y59.621 E2.1869
G1 X75.495 Y63.512 E2.3846
G1 X74.816 Y63.512 E2.4090
G1 X79.386 Y58.942 E2.6411
G1 X79.386 Y58.408 E2.6603
G1 X79.920 Y58.408 E2.6795
G1 X81.840 Y56.488 E2.7770
G1 X81.161 Y56.488 E2.8014
G1 X74.137 Y63.512 E3.1582
G1 X73.459 Y63.512 E3.1826
G1 X80.483 Y56.488 E3.5394
G1 X79.804 Y56.488 E3.5638
G1 X72.780 Y63.512 E3.9206
G1 X72.101 Y63.512 E3.9450
G1 X79.125 Y56.488 E4.3018
G1 X78.446 Y56.488 E4.3262
G1 X71.422 Y63.512 E4.6830
G1 X70.743 Y63.512 E4.7074
G1 X77.767 Y56.488 E5.0642
G1 X77.088 Y56.488 E5.0886
G1 X70.064 Y63.512 E5.4454
G1 X69.386 Y63.512 E5.4698
G1 X76.410 Y56.488 E5.8266
G1 X75.731 Y56.488 E5.8510
G1 X68.707 Y63.512 E6.2078
G1 X68.028 Y63.512 E6.2322
G1 X75.052 Y56.488 E6.5891
G1 X74.373 Y56.488 E6.6134
G1 X67.349 Y63.512 E6.9703
G1 X66.670 Y63.512 E6.9946
G1 X73.694 Y56.488 E7.3515
G1 X73.016 Y56.488 E7.3758
G1 X65.992 Y63.512 E7.7327
G1 X65.313 Y63.512 E7.7570
G1 X72.337 Y56.488 E8.1139
G1 X71.658 Y56.488 E8.1382
G1 X64.634 Y63.512 E8.4951
G1 X63.955 Y63.512 E8.5194
G1 X70.979 Y56.488 E8.8763
G1 X70.300 Y56.488 E8.9006
G1 X63.276 Y63.512 E9.2575
G1 X62.597 Y63.512 E9.2819
G1 X69.621 Y56.488 E9.6387
G1 X68.943 Y56.488 E9.6631
G1 X61.919 Y63.512 E10.0199
G1 X61.240 Y63.512 E10.0443
G1 X68.264 Y56.488 E10.4011
G1 X67.585 Y56.488 E10.4255
G1 X60.561 Y63.512 E10.7823
G1 X59.882 Y63.512 E10.8067
G1 X66.906 Y56.488 E11.1635
G1 X66.227 Y56.488 E11.1879
G1 X59.203 Y63.512 E11.5447
G1 X58.525 Y63.512 E11.5691
G1 X65.549 Y56.488 E11.9259
G1 X64.870 Y56.488 E11.9503
G1 X57.846 Y63.512 E12.3071
G1 X57.167 Y63.512 E12.3315
G1 X64.191 Y56.488 E12.6883
G1 X63.512 Y56.488 E12.7127
G1 X56.488 Y63.512 E13.0695
G1 X55.809 Y63.512 E13.0939
G1 X62.833 Y56.488 E13.4507
G1 X62.154 Y56.488 E13.4751
G1 X55.130 Y63.512 E13.8319
G1 X54.452 Y63.512 E13.8563
G1 X61.476 Y56.488 E14.2131
G1 X60.797 Y56.488 E14.2375
G1 X53.773 Y63.512 E14.5943
G1 X53.094 Y63.512 E14.6187
G1 X60.118 Y56.488 E14.9755
G1 X59.439 Y56.488 E14.9999
G1 X52.415 Y63.512 E15.3567
G1 X51.736 Y63.512 E15.3811
G1 X58.760 Y56.488 E15.7379
G1 X58.081 Y56.488 E15.7623
G1 X51.057 Y63.512 E16.1191
G1 X50.379 Y63.512 E16.1435
G1 X57.403 Y56.488 E16.5003
G1 X56.724 Y56.488 E16.5247
G1 X49.700 Y63.512 E16.8815
G1 X49.021 Y63.512 E16.9059
G1 X56.045 Y56.488 E17.2627
G1 X55.366 Y56.488 E17.2871
G1 X48.342 Y63.512 E17.6439
G1 X47.663 Y63.512 E17.6683
G1 X54.687 Y56.488 E18.0251
G1 X54.009 Y56.488 E18.0495
G1 X46.985 Y63.512 E18.4063
G1 X46.306 Y63.512 E18.4307
G1 X53.330 Y56.488 E18.7875
G1 X52.651 Y56.488 E18.8119
G1 X45.627 Y63.512 E19.1687
G1 X44.948 Y63.512 E19.1931
G1 X51.972 Y56.488 E19.5499
G1 X51.293 Y56.488 E19.5743
G1 X44.269 Y63.512 E19.9311
G1 X43.590 Y63.512 E19.9555
G1 X50.614 Y56.488 E20.3123
G1 X49.936 Y56.488 E20.3367
G1 X42.912 Y63.512 E20.6935
G1 X42.233 Y63.512 E20.7179
G1 X49.257 Y56.488 E21.0747
G1 X48.578 Y56.488 E21.0991
G1 X41.554 Y63.512 E21.4559
G1 X40.875 Y63.512 E21.4803
G1 X47.899 Y56.488 E21.8371
G1 X47.220 Y56.488 E21.8615
G1 X40.196 Y63.512 E22.2183
G1 X39.517 Y63.512 E22.2427
G1 X46.541 Y56.488 E22.5996
G1 X45.863 Y56.488 E22.6239
G1 X38.839 Y63.512 E22.9808
G1 X38.160 Y63.512 E23.0051
G1 X45.184 Y56.488 E23.3620
G1 X44.505 Y56.488 E23.3863
G1 X37.481 Y63.512 E23.7432
G1 X36.802 Y63.512 E23.7675
G1 X43.826 Y56.488 E24.1244
G1 X43.147 Y56.488 E24.1487
G1 X38.614 Y61.022 E24.3790
G1 X38.614 Y61.592 E24.3995
G1 X38.043 Y61.592 E24.4200
G1 X36.123 Y63.512 E24.5176
G1 X35.445 Y63.512 E24.5419
G1 X37.365 Y61.592 E24.6395
G1 X36.686 Y61.592 E24.6639
G1 X34.766 Y63.512 E24.7614
G1 X34.087 Y63.512 E24.7858
G1 X36.408 Y61.191 E24.9037
G1 X36.408 Y60.512 E24.9281
G1 X33.512 Y63.408 E25.0752
G1 X33.173 Y63.068 E25.0924
G1 X36.408 Y59.833 E25.2568
G1 X36.408 Y59.154 E25.2812
G1 X32.833 Y62.729 E25.4628
G1 X32.494 Y62.390 E25.4800
G1 X36.408 Y58.476 E25.6788
G1 X36.408 Y58.408 E25.6813
G1 X36.476 Y58.408 E25.6837
G1 X38.396 Y56.488 E25.7812
G1 X37.717 Y56.488 E25.8056
G1 X32.155 Y62.050 E26.0882
G1 X31.815 Y61.711 E26.1054
G1 X37.038 Y56.488 E26.3707
G1 X36.359 Y56.488 E26.3951
G1 X31.488 Y61.359 E26.6426
G1 X31.488 Y60.680 E26.6669
G1 X35.680 Y56.488 E26.8799
G1 X35.001 Y56.488 E26.9043
G1 X31.488 Y60.001 E27.0828
G1 X31.488 Y59.323 E27.1072
G1 X34.323 Y56.488 E27.2512
G1 X33.644 Y56.488 E27.2755
G1 X31.488 Y58.644 E27.3851
G1 X37.154 Y58.408 F6000
G92 E0.0000
G1 X39.074 Y56.488 E0.0975 F2880
G1 X39.753 Y56.488 E0.1219
G1 X37.833 Y58.408 E0.2195
G1 X38.512 Y58.408 E0.2438
G1 X40.432 Y56.488 E0.3414
G1 X41.111 Y56.488 E0.3658
G1 X38.614 Y58.985 E0.4926
G1 X38.614 Y59.664 E0.5170
G1 X41.790 Y56.488 E0.6783
G1 X42.469 Y56.488 E0.7027
G1 X38.614 Y60.343 E0.8985
G1 X80.161 Y61.052 F6000
G92 E0.0000
G1 X82.265 Y58.948 E0.1336 F3600
G1 X86.052 Y58.948 E0.3036
G1 X86.052 Y59.404 E0.3241
G1 X84.404 Y61.052 E0.4288
G92 E0.0000
G1 E-1 F1800 ; custom retraction
;layer 5, Z = 1.000
;fan5;
;
G1 Z1.000 F1200
G1 X86.503 Y63.800 F6000
G1 E0 F1800 ; custom un-retraction/prime
G92 E0.0000
G1 X33.497 Y63.800 E1.9040 F2880
G1 X31.200 Y61.503 E2.0207
G1 X31.200 Y58.497 E2.1287
G1 X33.497 Y56.200 E2.2454
G1 X86.503 Y56.200 E4.1494
G1 X88.800 Y58.497 E4.2661
G1 X88.800 Y61.503 E4.3741
G1 X86.503 Y63.800 E4.4908
G1 X86.702 Y64.280 F6000
G92 E0.0000
G1 X33.298 Y64.280 E1.9183 F2880
G1 X30.720 Y61.702 E2.0493
G1 X30.720 Y58.298 E2.1715
G1 X33.298 Y55.720 E2.3025
G1 X86.702 Y55.720 E4.2208
G1 X89.280 Y58.298 E4.3518
G1 X89.280 Y61.702 E4.4740
G1 X86.702 Y64.280 E4.6050
G1 X86.901 Y64.760 F6000
G92 E0.0000
G1 X33.099 Y64.760 E1.9326 F2160
G1 X30.240 Y61.901 E2.0778
G1 X30.240 Y58.099 E2.2144
G1 X33.099 Y55.240 E2.3596
G1 X86.901 Y55.240 E4.2922
G1 X89.760 Y58.099 E4.4375
G1 X89.760 Y61.901 E4.5740
G1 X86.901 Y64.760 E4.7193
G1 X86.592 Y59.439 F6000
G92 E0.0000
G1 X88.512 Y61.359 E0.0975 F2880
G1 X88.512 Y61.384 E0.0984
G1 X88.185 Y61.711 E0.1150
G1 X86.592 Y60.118 E0.1960
G1 X86.592 Y60.797 E0.2203
G1 X87.845 Y62.050 E0.2840
G1 X87.506 Y62.390 E0.3013
G1 X86.592 Y61.476 E0.3477
G1 X86.592 Y61.592 E0.3519
G1 X86.030 Y61.592 E0.3721
G1 X87.167 Y62.729 E0.4298
G1 X86.827 Y63.068 E0.4471
G1 X85.351 Y61.592 E0.5221
G1 X84.672 Y61.592 E0.5465
G1 X86.488 Y63.408 E0.6387
G1 X86.384 Y63.512 E0.6440
G1 X85.913 Y63.512 E0.6609
G1 X83.993 Y61.592 E0.7584
G1 X83.314 Y61.592 E0.7828
G1 X85.234 Y63.512 E0.8803
G1 X84.556 Y63.512 E0.9047
G1 X82.636 Y61.592 E1.0023
G1 X81.957 Y61.592 E1.0267
G1 X83.877 Y63.512 E1.1242
G1 X83.198 Y63.512 E1.1486
G1 X81.278 Y61.592 E1.2461
G1 X80.599 Y61.592 E1.2705
G1 X82.519 Y63.512 E1.3680
G1 X81.840 Y63.512 E1.3924
G1 X79.920 Y61.592 E1.4899
G1 X86.356 Y56.488 F6000
G92 E0.0000
G1 X88.512 Y58.644 E0.1095 F2880
G1 X88.512 Y59.323 E0.1339
G1 X85.677 Y56.488 E0.2779
G1 X84.999 Y56.488 E0.3023
G1 X88.512 Y60.001 E0.4808
G1 X88.512 Y60.680 E0.5051
G1 X86.592 Y58.760 E0.6027
G1 X86.592 Y58.408 E0.6153
G1 X86.240 Y58.408 E0.6280
G1 X84.320 Y56.488 E0.7255
G1 X83.641 Y56.488 E0.7499
G1 X85.561 Y58.408 E0.8474
G1 X84.882 Y58.408 E0.8718
G1 X82.962 Y56.488 E0.9694
G1 X82.283 Y56.488 E0.9937
G1 X84.203 Y58.408 E1.0913
G1 X83.524 Y58.408 E1.1157
G1 X81.604 Y56.488 E1.2132
G1 X80.926 Y56.488 E1.2376
G1 X82.846 Y58.408 E1.3351
G1 X82.167 Y58.408 E1.3595
G1 X80.247 Y56.488 E1.4570
G1 X79.568 Y56.488 E1.4814
G1 X81.488 Y58.408 E1.5790
G1 X80.809 Y58.408 E1.6033
G1 X78.889 Y56.488 E1.7009
G1 X78.210 Y56.488 E1.7253
G1 X80.130 Y58.408 E1.8228
G1 X79.452 Y58.408 E1.8472
G1 X77.532 Y56.488 E1.9447
G1 X76.853 Y56.488 E1.9691
G1 X79.386 Y59.022 E2.0978
G1 X79.386 Y59.700 E2.1222
G1 X76.174 Y56.488 E2.2854
G1 X75.495 Y56.488 E2.3098
G1 X79.386 Y60.379 E2.5074
G1 X79.386 Y61.058 E2.5318
G1 X74.816 Y56.488 E2.7640
G1 X74.137 Y56.488 E2.7884
G1 X81.161 Y63.512 E3.1452
G1 X80.483 Y63.512 E3.1696
G1 X73.459 Y56.488 E3.5264
G1 X72.780 Y56.488 E3.5508
G1 X79.804 Y63.512 E3.9076
G1 X79.125 Y63.512 E3.9320
G1 X72.101 Y56.488 E4.2888
G1 X71.422 Y56.488 E4.3132
G1 X78.446 Y63.512 E4.6700
G1 X77.767 Y63.512 E4.6944
G1 X70.743 Y56.488 E5.0512
G1 X70.064 Y56.488 E5.0756
G1 X77.088 Y63.512 E5.4324
G1 X76.410 Y63.512 E5.4568
G1 X69.386 Y56.488 E5.8136
G1 X68.707 Y56.488 E5.8380
G1 X75.731 Y63.512 E6.1948
G1 X75.052 Y63.512 E6.2192
G1 X68.028 Y56.488 E6.5760
G1 X67.349 Y56.488 E6.6004
G1 X74.373 Y63.512 E6.9572
G1 X73.694 Y63.512 E6.9816
G1 X66.670 Y56.488 E7.3384
G1 X65.992 Y56.488 E7.3628
G1 X73.016 Y63.512 E7.7196
G1 X72.337 Y63.512 E7.7440
G1 X65.313 Y56.488 E8.1008
G1 X64.634 Y56.488 E8.1252
G1 X71.658 Y63.512 E8.4820
G1 X70.979 Y63.512 E8.5064
G1 X63.955 Y56.488 E8.8632
G1 X63.276 Y56.488 E8.8876
G1 X70.300 Y63.512 E9.2444
G1 X69.621 Y63.512 E9.2688
G1 X62.597 Y56.488 E9.6256
G1 X61.919 Y56.488 E9.6500
G1 X68.943 Y63.512 E10.0068
G1 X68.264 Y63.512 E10.0312
G1 X61.240 Y56.488 E10.3880
G1 X60.561 Y56.488 E10.4124
G1 X67.585 Y63.512 E10.7692
G1 X66.906 Y63.512 E10.7936
G1 X59.882 Y56.488 E11.1504
G1 X59.203 Y56.488 E11.1748
G1 X66.227 Y63.512 E11.5316
G1 X65.548 Y63.512 E11.5560
G1 X58.524 Y56.488 E11.9128
G1 X57.846 Y56.488 E11.9372
G1 X64.870 Y63.512 E12.2940
G1 X64.191 Y63.512 E12.3184
G1 X57.167 Y56.488 E12.6752
G1 X56.488 Y56.488 E12.6996
G1 X63.512 Y63.512 E13.0564
G1 X62.833 Y63.512 E13.0808
G1 X55.809 Y56.488 E13.4376
G1 X55.130 Y56.488 E13.4620
G1 X62.154 Y63.512 E13.8188
G1 X61.476 Y63.512 E13.8432
G1 X54.452 Y56.488 E14.2000
G1 X53.773 Y56.488 E14.2244
G1 X60.797 Y63.512 E14.5812
G1 X60.118 Y63.512 E14.6056
G1 X53.094 Y56.488 E14.9624
G1 X52.415 Y56.488 E14.9868
G1 X59.439 Y63.512 E15.3436
G1 X58.760 Y63.512 E15.3680
G1 X51.736 Y56.488 E15.7249
G1 X51.057 Y56.488 E15.7492
G1 X58.081 Y63.512 E16.1061
G1 X57.403 Y63.512 E16.1304
G1 X50.379 Y56.488 E16.4873
G1 X49.700 Y56.488 E16.5116
G1 X56.724 Y63.512 E16.8685
G1 X56.045 Y63.512 E16.8928
G1 X49.021 Y56.488 E17.2497
G1 X48.342 Y56.488 E17.2740
G1 X55.366 Y63.512 E17.6309
G1 X54.687 Y63.512 E17.6552
G1 X47.663 Y56.488 E18.0121
G1 X46.984 Y56.488 E18.0365
G1 X54.008 Y63.512 E18.3933
G1 X53.330 Y63.512 E18.4177
G1 X46.306 Y56.488 E18.7745
G1 X45.627 Y56.488 E18.7989
G1 X52.651 Y63.512 E19.1557
G1 X51.972 Y63.512 E19.1801
G1 X44.948 Y56.488 E19.5369
G1 X44.269 Y56.488 E19.5613
G1 X51.293 Y63.512 E19.9181
G1 X50.614 Y63.512 E19.9425
G1 X43.590 Y56.488 E20.2993
G1 X42.912 Y56.488 E20.3237
G1 X49.936 Y63.512 E20.6805
G1 X49.257 Y63.512 E20.7049
G1 X42.233 Y56.488 E21.0617
G1 X41.554 Y56.488 E21.0861
G1 X48.578 Y63.512 E21.4429
G1 X47.899 Y63.512 E21.4673
G1 X40.875 Y56.488 E21.8241
G1 X40.196 Y56.488 E21.8485
G1 X47.220 Y63.512 E22.2053
G1 X46.541 Y63.512 E22.2297
G1 X39.517 Y56.488 E22.5865
G1 X38.839 Y56.488 E22.6109
G1 X45.863 Y63.512 E22.9677
G1 X45.184 Y63.512 E22.9921
G1 X38.160 Y56.488 E23.3489
G1 X37.481 Y56.488 E23.3733
G1 X44.505 Y63.512 E23.7301
G1 X43.826 Y63.512 E23.7545
G1 X36.802 Y56.488 E24.1113
G1 X36.123 Y56.488 E24.1357
G1 X38.043 Y58.408 E24.2332
G1 X37.365 Y58.408 E24.2576
G1 X35.445 Y56.488 E24.3551
G1 X34.766 Y56.488 E24.3795
G1 X36.686 Y58.408 E24.4771
G1 X36.408 Y58.408 E24.4870
G1 X36.408 Y58.809 E24.5014
G1 X34.087 Y56.488 E24.6194
G1 X33.616 Y56.488 E24.6363
G1 X33.512 Y56.592 E24.6416
G1 X36.408 Y59.488 E24.7887
G1 X36.408 Y60.167 E24.8130
G1 X33.173 Y56.932 E24.9774
G1 X32.833 Y57.271 E24.9946
G1 X36.408 Y60.846 E25.1762
G1 X36.408 Y61.524 E25.2006
G1 X32.494 Y57.610 E25.3994
G1 X32.155 Y57.950 E25.4167
G1 X37.717 Y63.512 E25.6992
G1 X37.038 Y63.512 E25.7236
G1 X31.815 Y58.289 E25.9889
G1 X31.488 Y58.616 E26.0056
G1 X31.488 Y58.641 E26.0064
G1 X36.359 Y63.512 E26.2539
G1 X35.680 Y63.512 E26.2783
G1 X31.488 Y59.320 E26.4912
G1 X31.488 Y59.999 E26.5156
G1 X35.001 Y63.512 E26.6941
G1 X34.323 Y63.512 E26.7185
G1 X31.488 Y60.677 E26.8625
G1 X31.488 Y61.356 E26.8869
G1 X33.644 Y63.512 E26.9964
G1 X36.476 Y61.592 F6000
G92 E0.0000
G1 X38.396 Y63.512 E0.0975 F2880
G1 X39.074 Y63.512 E0.1219
G1 X37.154 Y61.592 E0.2195
G1 X37.833 Y61.592 E0.2438
G1 X39.753 Y63.512 E0.3414
G1 X40.432 Y63.512 E0.3658
G1 X38.512 Y61.592 E0.4633
G1 X38.614 Y61.592 E0.4669
G1 X38.614 Y61.015 E0.4877
G1 X41.111 Y63.512 E0.6145
G1 X41.790 Y63.512 E0.6389
G1 X38.614 Y60.336 E0.8003
G1 X38.614 Y59.657 E0.8246
G1 X42.469 Y63.512 E1.0205
G1 X43.147 Y63.512 E1.0448
G1 X38.614 Y58.978 E1.2751
G1 X80.161 Y58.948 F6000
G92 E0.0000
G1 X82.265 Y61.052 E0.1336 F3600
G1 X86.052 Y61.052 E0.3036
G1 X86.052 Y60.596 E0.3241
G1 X84.404 Y58.948 E0.4288
G92 E0.0000
G1 E-1 F1800 ; custom retraction
;layer 6, Z = 1.200
;fan6;
G1 Z1.200 F1200
G1 X86.400 Y58.600 F6000
G1 E0 F1800 ; custom un-retraction/prime
G92 E0.0000
G1 X86.400 Y61.400 E0.1006 F2880
G1 X79.578 Y61.400 E0.3456
G1 X79.578 Y58.600 E0.4462
G1 X86.400 Y58.600 E0.6912
G1 X86.880 Y58.120 F6000
G92 E0.0000
G1 X86.880 Y61.880 E0.1351 F2880
G1 X79.098 Y61.880 E0.4146
G1 X79.098 Y58.120 E0.5497
G1 X86.880 Y58.120 E0.8292
G1 X87.360 Y57.640 F6000
G92 E0.0000
G1 X87.360 Y62.360 E0.1695 F2160
G1 X78.618 Y62.360 E0.4836
G1 X78.618 Y57.640 E0.6531
G1 X87.360 Y57.640 E0.9671
G1 X84.404 Y61.052 F6000
G92 E0.0000
G1 X86.052 Y59.404 E0.1047 F3600
G1 X86.052 Y58.948 E0.1251
G1 X82.265 Y58.948 E0.2952
G1 X80.161 Y61.052 E0.4288
G92 E0.0000
G1 E-1 F1800 ; custom retraction
;zhop1
G1 X38.422 Y61.400 F6000
G1 Z1.200 F1200
G1 E0 F1800 ; custom un-retraction/prime
G92 E0.0000
G1 X36.600 Y61.400 E0.0654 F2880
G1 X36.600 Y58.600 E0.1660
G1 X38.422 Y58.600 E0.2315
G1 X38.422 Y61.400 E0.3320
G1 X38.902 Y61.880 F6000
G92 E0.0000
G1 X36.120 Y61.880 E0.0999 F2880
G1 X36.120 Y58.120 E0.2350
G1 X38.902 Y58.120 E0.3349
G1 X38.902 Y61.880 E0.4700
G1 X39.382 Y62.360 F6000
G92 E0.0000
G1 X35.640 Y62.360 E0.1344 F2160
G1 X35.640 Y57.640 E0.3040
G1 X39.382 Y57.640 E0.4384
G1 X39.382 Y62.360 E0.6079
G92 E0.0000
G1 E-1 F1800 ; custom retraction
;zhop1
G1 X35.640 Y61.331 F6000
G1 X32.244 Y60.744
G1 X32.244 Y60.396
G1 X31.764 Y60.264
G1 Z1.200 F1200
G1 E0 F1800 ; custom un-retraction/prime
G92 E0.0000
G1 X31.236 Y60.264 E0.0190 F2880
G1 X31.236 Y59.736 E0.0380
G1 X31.764 Y59.736 E0.0569
G1 X31.764 Y60.264 E0.0759
G1 X32.244 Y60.744 F6000
G92 E0.0000
G1 X30.756 Y60.744 E0.0535 F2160
G1 X30.756 Y59.256 E0.1069
G1 X32.244 Y59.256 E0.1604
G1 X32.244 Y60.744 E0.2138
G92 E0.0000
G1 E-1 F1800 ; custom retraction
;layer 7, Z = 1.400
;fan7;
G1 Z1.400 F1200
G1 X31.732 Y60.232 F6000
G1 E0 F1800 ; custom un-retraction/prime
G92 E0.0000
G1 X31.268 Y60.232 E0.0167 F2880
G1 X31.268 Y59.768 E0.0334
G1 X31.732 Y59.768 E0.0501
G1 X31.732 Y60.232 E0.0668
G1 X32.212 Y60.712 F6000
G92 E0.0000
G1 X30.788 Y60.712 E0.0512 F2160
G1 X30.788 Y59.288 E0.1024
G1 X32.212 Y59.288 E0.1536
G1 X32.212 Y60.712 E0.2047
G92 E0.0000
G1 E-1 F1800 ; custom retraction
;zhop1
G1 X36.400 Y61.600 F6000
G1 Z1.400 F1200
G1 E0 F1800 ; custom un-retraction/prime
G92 E0.0000
G1 X36.400 Y58.400 E0.1149 F2880
G1 X38.635 Y58.400 E0.1952
G1 X38.635 Y61.600 E0.3102
G1 X36.400 Y61.600 E0.3904
G1 X35.920 Y62.080 F6000
G92 E0.0000
G1 X35.920 Y57.920 E0.1494 F2880
G1 X39.114 Y57.920 E0.2642
G1 X39.114 Y62.080 E0.4136
G1 X35.920 Y62.080 E0.5284
G1 X35.440 Y62.560 F6000
G92 E0.0000
G1 X35.440 Y57.440 E0.1839 F2160
G1 X39.594 Y57.440 E0.3331
G1 X39.594 Y62.560 E0.5171
G1 X35.440 Y62.560 E0.6663
G92 E0.0000
G1 E-1 F1800 ; custom retraction
;zhop1
G1 X39.594 Y62.469 F6000
G1 X78.405 Y62.560
G1 X78.405 Y61.621
G1 X79.365 Y61.600
G1 Z1.400 F1200
G1 E0 F1800 ; custom un-retraction/prime
G92 E0.0000
G1 X79.365 Y58.400 E0.1149 F2880
G1 X86.600 Y58.400 E0.3748
G1 X86.600 Y61.600 E0.4898
G1 X79.365 Y61.600 E0.7496
G1 X78.885 Y62.080 F6000
G92 E0.0000
G1 X78.885 Y57.920 E0.1494 F2880
G1 X87.080 Y57.920 E0.4438
G1 X87.080 Y62.080 E0.5932
G1 X78.885 Y62.080 E0.8876
G1 X78.405 Y62.560 F6000
G92 E0.0000
G1 X78.405 Y57.440 E0.1839 F2160
G1 X87.560 Y57.440 E0.5128
G1 X87.560 Y62.560 E0.6967
G1 X78.405 Y62.560 E1.0255
G1 X79.961 Y58.748 F6000
G92 E0.0000
G1 X82.465 Y61.252 E0.1590 F3600
G1 X86.252 Y61.252 E0.3290
G1 X86.252 Y60.796 E0.3495
G1 X84.204 Y58.748 E0.4796
G92 E0.0000
G1 E-1 F1800 ; custom retraction
;layer 8, Z = 1.600
;fan8;
G1 Z1.600 F1200
G1 X86.800 Y58.200 F6000
G1 E0 F1800 ; custom un-retraction/prime
G92 E0.0000
G1 X86.800 Y61.800 E0.1293 F2880
G1 X79.184 Y61.800 E0.4029
G1 X79.184 Y58.200 E0.5322
G1 X86.800 Y58.200 E0.8058
G1 X87.280 Y57.720 F6000
G92 E0.0000
G1 X87.280 Y62.280 E0.1638 F2880
G1 X78.704 Y62.280 E0.4719
G1 X78.704 Y57.720 E0.6357
G1 X87.280 Y57.720 E0.9437
G1 X87.760 Y57.240 F6000
G92 E0.0000
G1 X87.760 Y62.760 E0.1983 F2160
G1 X78.224 Y62.760 E0.5408
G1 X78.224 Y57.240 E0.7391
G1 X87.760 Y57.240 E1.0817
G1 X84.004 Y61.452 F6000
G92 E0.0000
G1 X86.452 Y59.004 E0.1555 F3600
G1 X86.452 Y58.548 E0.1759
G1 X82.665 Y58.548 E0.3460
G1 X79.761 Y61.452 E0.5304
G92 E0.0000
G1 E-1 F1800 ; custom retraction
;zhop1
G1 X38.816 Y61.800 F6000
G1 Z1.600 F1200
G1 E0 F1800 ; custom un-retraction/prime
G92 E0.0000
G1 X36.200 Y61.800 E0.0940 F2880
G1 X36.200 Y58.200 E0.2233
G1 X38.816 Y58.200 E0.3173
G1 X38.816 Y61.800 E0.4466
G1 X39.296 Y62.280 F6000
G92 E0.0000
G1 X35.720 Y62.280 E0.1285 F2880
G1 X35.720 Y57.720 E0.2923
G1 X39.296 Y57.720 E0.4207
G1 X39.296 Y62.280 E0.5845
G1 X39.776 Y62.760 F6000
G92 E0.0000
G1 X35.240 Y62.760 E0.1630 F2160
G1 X35.240 Y57.240 E0.3612
G1 X39.776 Y57.240 E0.5242
G1 X39.776 Y62.760 E0.7225
G92 E0.0000
G1 E-1 F1800 ; custom retraction
;zhop1
G1 X32.181 Y60.681 F6000
G1 Z1.600 F1200
G1 E0 F1800 ; custom un-retraction/prime
G92 E0.0000
G1 X30.819 Y60.681 E0.0489 F2160
G1 X30.819 Y59.319 E0.0978
G1 X32.181 Y59.319 E0.1467
G1 X32.181 Y60.681 E0.1956
G1 X31.893 Y60.276 F6000
G92 E0.0000
G1 X31.776 Y60.393 E0.0060 F3600
G1 X31.107 Y60.393 E0.0300
G1 X31.107 Y60.382 E0.0303
G1 X31.882 Y59.607 E0.0697
G1 X31.203 Y59.607 E0.0941
G1 X31.107 Y59.703 E0.0990
G92 E0.0000
G1 E-1 F1800 ; custom retraction
;layer 9, Z = 1.800
;fan9;
G1 Z1.800 F1200
G1 X30.851 Y59.351 F6000
G1 E0 F1800 ; custom un-retraction/prime
G92 E0.0000
G1 X32.149 Y59.351 E0.0466 F2160
G1 X32.149 Y60.649 E0.0933
G1 X30.851 Y60.649 E0.1399
G1 X30.851 Y59.351 E0.1865
G1 X31.807 Y59.639 F6000
G92 E0.0000
G1 X31.861 Y59.693 E0.0027 F3600
G1 X31.861 Y60.361 E0.0267
G1 X31.851 Y60.361 E0.0271
G1 X31.139 Y59.649 E0.0633
G1 X31.139 Y60.328 E0.0877
G1 X31.172 Y60.361 E0.0893
G92 E0.0000
G1 E-1 F1800 ; custom retraction
;zhop1
G1 X32.149 Y60.641 F6000
G1 X32.149 Y60.649
G1 X36.200 Y61.800
G1 Z1.800 F1200
G1 E0 F1800 ; custom un-retraction/prime
G92 E0.0000
G1 X36.200 Y58.200 E0.1293 F2880
G1 X38.834 Y58.200 E0.2239
G1 X38.834 Y61.800 E0.3532
G1 X36.200 Y61.800 E0.4478
G1 X35.720 Y62.280 F6000
G92 E0.0000
G1 X35.720 Y57.720 E0.1638 F2880
G1 X39.314 Y57.720 E0.2929
G1 X39.314 Y62.280 E0.4567
G1 X35.720 Y62.280 E0.5858
G1 X35.240 Y62.760 F6000
G92 E0.0000
G1 X35.240 Y57.240 E0.1983 F2160
G1 X39.794 Y57.240 E0.3619
G1 X39.794 Y62.760 E0.5601
G1 X35.240 Y62.760 E0.7237
G92 E0.0000
G1 E-1 F1800 ; custom retraction
;zhop1
G1 X39.794 Y62.660 F6000
G1 X78.206 Y62.760
G1 X78.206 Y61.821
G1 X79.166 Y61.800
G1 Z1.800 F1200
G1 E0 F1800 ; custom un-retraction/prime
G92 E0.0000
G1 X79.166 Y58.200 E0.1293 F2880
G1 X86.800 Y58.200 E0.4035
G1 X86.800 Y61.800 E0.5328
G1 X79.166 Y61.800 E0.8070
G1 X78.686 Y62.280 F6000
G92 E0.0000
G1 X78.686 Y57.720 E0.1638 F2880
G1 X87.280 Y57.720 E0.4725
G1 X87.280 Y62.280 E0.6363
G1 X78.686 Y62.280 E0.9450
G1 X78.206 Y62.760 F6000
G92 E0.0000
G1 X78.206 Y57.240 E0.1983 F2160
G1 X87.760 Y57.240 E0.5415
G1 X87.760 Y62.760 E0.7397
G1 X78.206 Y62.760 E1.0829
G1 X79.761 Y58.548 F6000
G92 E0.0000
G1 X82.665 Y61.452 E0.1844 F3600
G1 X86.452 Y61.452 E0.3544
G1 X86.452 Y60.996 E0.3749
G1 X84.004 Y58.548 E0.5304
G92 E0.0000
G1 E-1 F1800 ; custom retraction
;layer 10, Z = 2.000
;fan10;
G1 Z2.000 F1200
G1 X86.800 Y58.200 F6000
G1 E0 F1800 ; custom un-retraction/prime
G92 E0.0000
G1 X86.800 Y61.800 E0.1293 F2880
G1 X79.145 Y61.800 E0.4043
G1 X79.145 Y58.200 E0.5336
G1 X86.800 Y58.200 E0.8086
G1 X87.280 Y57.720 F6000
G92 E0.0000
G1 X87.280 Y62.280 E0.1638 F2880
G1 X78.665 Y62.280 E0.4733
G1 X78.665 Y57.720 E0.6371
G1 X87.280 Y57.720 E0.9465
G1 X87.760 Y57.240 F6000
G92 E0.0000
G1 X87.760 Y62.760 E0.1983 F2160
G1 X78.185 Y62.760 E0.5422
G1 X78.185 Y57.240 E0.7405
G1 X87.760 Y57.240 E1.0844
G1 X84.004 Y61.452 F6000
G92 E0.0000
G1 X86.452 Y59.004 E0.1555 F3600
G1 X86.452 Y58.548 E0.1759
G1 X82.665 Y58.548 E0.3460
G1 X79.761 Y61.452 E0.5304
G92 E0.0000
G1 E-1 F1800 ; custom retraction
;zhop1
G1 X38.855 Y61.800 F6000
G1 Z2.000 F1200
G1 E0 F1800 ; custom un-retraction/prime
G92 E0.0000
G1 X36.200 Y61.800 E0.0954 F2880
G1 X36.200 Y58.200 E0.2247
G1 X38.855 Y58.200 E0.3200
G1 X38.855 Y61.800 E0.4494
G1 X39.335 Y62.280 F6000
G92 E0.0000
G1 X35.720 Y62.280 E0.1299 F2880
G1 X35.720 Y57.720 E0.2937
G1 X39.335 Y57.720 E0.4235
G1 X39.335 Y62.280 E0.5873
G1 X39.815 Y62.760 F6000
G92 E0.0000
G1 X35.240 Y62.760 E0.1643 F2160
G1 X35.240 Y57.240 E0.3626
G1 X39.815 Y57.240 E0.5270
G1 X39.815 Y62.760 E0.7252
G92 E0.0000
G1 E-1 F1800 ; custom retraction
;zhop1
G1 X35.240 Y61.487 F6000
G1 X32.117 Y60.617
G1 Z2.000 F1200
G1 E0 F1800 ; custom un-retraction/prime
G92 E0.0000
G1 X30.883 Y60.617 E0.0444 F2160
G1 X30.883 Y59.383 E0.0887
G1 X32.117 Y59.383 E0.1331
G1 X32.117 Y60.617 E0.1774
G1 X31.819 Y59.671 F6000
G92 E0.0000
G1 X31.171 Y60.319 E0.0329 F3600
G92 E0.0000
G1 E-1 F1800 ; custom retraction
;layer 11, Z = 2.200
;fan11;
G1 Z2.200 F1200
G1 X30.914 Y60.586 F6000
G1 E0 F1800 ; custom un-retraction/prime
G92 E0.0000
G1 X30.914 Y59.414 E0.0421 F2160
G1 X32.086 Y59.414 E0.0842
G1 X32.086 Y60.586 E0.1262
G1 X30.914 Y60.586 E0.1683
G1 X31.787 Y60.298 F6000
G92 E0.0000
G1 X31.202 Y59.713 E0.0297 F3600
G92 E0.0000
G1 E-1 F1800 ; custom retraction
;zhop1
G1 X32.086 Y59.445 F6000
G1 X32.086 Y59.414
G1 X35.240 Y58.491
G1 X36.200 Y58.200
G1 Z2.200 F1200
G1 E0 F1800 ; custom un-retraction/prime
G92 E0.0000
G1 X38.880 Y58.200 E0.0963 F2880
G1 X38.880 Y61.800 E0.2256
G1 X36.200 Y61.800 E0.3219
G1 X36.200 Y58.200 E0.4512
G1 X35.720 Y57.720 F6000
G92 E0.0000
G1 X39.360 Y57.720 E0.1308 F2880
G1 X39.360 Y62.280 E0.2946
G1 X35.720 Y62.280 E0.4253
G1 X35.720 Y57.720 E0.5891
G1 X35.240 Y57.240 F6000
G92 E0.0000
G1 X39.840 Y57.240 E0.1652 F2160
G1 X39.840 Y62.760 E0.3635
G1 X35.240 Y62.760 E0.5288
G1 X35.240 Y57.240 E0.7271
G92 E0.0000
G1 E-1 F1800 ; custom retraction
;zhop1
G1 X39.840 Y57.341 F6000
G1 X78.160 Y57.240
G1 X78.160 Y58.179
G1 X79.120 Y58.200
G1 Z2.200 F1200
G1 E0 F1800 ; custom un-retraction/prime
G92 E0.0000
G1 X86.800 Y58.200 E0.2759 F2880
G1 X86.800 Y61.800 E0.4052
G1 X79.120 Y61.800 E0.6811
G1 X79.120 Y58.200 E0.8104
G1 X78.640 Y57.720 F6000
G92 E0.0000
G1 X87.280 Y57.720 E0.3104 F2880
G1 X87.280 Y62.280 E0.4742
G1 X78.640 Y62.280 E0.7845
G1 X78.640 Y57.720 E0.9483
G1 X78.160 Y57.240 F6000
G92 E0.0000
G1 X87.760 Y57.240 E0.3449 F2160
G1 X87.760 Y62.760 E0.5431
G1 X78.160 Y62.760 E0.8880
G1 X78.160 Y57.240 E1.0863
G1 X79.761 Y58.548 F6000
G92 E0.0000
G1 X82.665 Y61.452 E0.1844 F3600
G1 X86.452 Y61.452 E0.3544
G1 X86.452 Y60.996 E0.3749
G1 X84.004 Y58.548 E0.5304
G92 E0.0000
G1 E-1 F1800 ; custom retraction
;layer 12, Z = 2.400
;fan12;
G1 Z2.400 F1200
G1 X86.800 Y58.200 F6000
G1 E0 F1800 ; custom un-retraction/prime
G92 E0.0000
G1 X86.800 Y61.800 E0.1293 F2880
G1 X79.086 Y61.800 E0.4064
G1 X79.086 Y58.200 E0.5357
G1 X86.800 Y58.200 E0.8128
G1 X87.280 Y57.720 F6000
G92 E0.0000
G1 X87.280 Y62.280 E0.1638 F2880
G1 X78.606 Y62.280 E0.4754
G1 X78.606 Y57.720 E0.6392
G1 X87.280 Y57.720 E0.9507
G1 X87.760 Y57.240 F6000
G92 E0.0000
G1 X87.760 Y62.760 E0.1983 F2160
G1 X78.126 Y62.760 E0.5443
G1 X78.126 Y57.240 E0.7426
G1 X87.760 Y57.240 E1.0887
G1 X84.004 Y61.452 F6000
G92 E0.0000
G1 X86.452 Y59.004 E0.1555 F3600
G1 X86.452 Y58.548 E0.1759
G1 X82.665 Y58.548 E0.3460
G1 X79.761 Y61.452 E0.5304
G92 E0.0000
G1 E-1 F1800 ; custom retraction
;zhop1
G1 X38.914 Y61.800 F6000
G1 Z2.400 F1200
G1 E0 F1800 ; custom un-retraction/prime
G92 E0.0000
G1 X36.200 Y61.800 E0.0975 F2880
G1 X36.200 Y58.200 E0.2268
G1 X38.914 Y58.200 E0.3243
G1 X38.914 Y61.800 E0.4536
G1 X39.394 Y62.280 F6000
G92 E0.0000
G1 X35.720 Y62.280 E0.1320 F2880
G1 X35.720 Y57.720 E0.2958
G1 X39.394 Y57.720 E0.4277
G1 X39.394 Y62.280 E0.5915
G1 X39.874 Y62.760 F6000
G92 E0.0000
G1 X35.240 Y62.760 E0.1664 F2160
G1 X35.240 Y57.240 E0.3647
G1 X39.874 Y57.240 E0.5312
G1 X39.874 Y62.760 E0.7294
G92 E0.0000
G1 E-1 F1800 ; custom retraction
;zhop1
G1 X32.054 Y60.554 F6000
G1 Z2.400 F1200
G1 E0 F1800 ; custom un-retraction/prime
G92 E0.0000
G1 X30.946 Y60.554 E0.0398 F2160
G1 X30.946 Y59.446 E0.0796
G1 X32.054 Y59.446 E0.1194
G1 X32.054 Y60.554 E0.1592
G1 X31.756 Y59.734 F6000
G92 E0.0000
G1 X31.234 Y60.256 E0.0265 F3600
G92 E0.0000
G1 E-1 F1800 ; custom retraction
;layer 13, Z = 2.600
;fan13;
G1 Z2.600 F1200
G1 X30.978 Y60.522 F6000
G1 E0 F1800 ; custom un-retraction/prime
G92 E0.0000
G1 X30.978 Y59.478 E0.0375 F2160
G1 X32.022 Y59.478 E0.0751
G1 X32.022 Y60.522 E0.1126
G1 X30.978 Y60.522 E0.1501
G1 X31.266 Y59.776 F6000
G92 E0.0000
G1 X31.724 Y60.234 E0.0233 F3600
G92 E0.0000
G1 E-1 F1800 ; custom retraction
;zhop1
G1 X32.022 Y60.339 F6000
G1 X32.022 Y60.522
G1 X35.240 Y61.464
G1 X36.200 Y61.800
G1 Z2.600 F1200
G1 E0 F1800 ; custom un-retraction/prime
G92 E0.0000
G1 X36.200 Y58.200 E0.1293 F2880
G1 X38.950 Y58.200 E0.2281
G1 X38.950 Y61.800 E0.3574
G1 X36.200 Y61.800 E0.4562
G1 X35.720 Y62.280 F6000
G92 E0.0000
G1 X35.720 Y57.720 E0.1638 F2880
G1 X39.430 Y57.720 E0.2971
G1 X39.430 Y62.280 E0.4609
G1 X35.720 Y62.280 E0.5941
G1 X35.240 Y62.760 F6000
G92 E0.0000
G1 X35.240 Y57.240 E0.1983 F2160
G1 X39.910 Y57.240 E0.3660
G1 X39.910 Y62.760 E0.5643
G1 X35.240 Y62.760 E0.7321
G92 E0.0000
G1 E-1 F1800 ; custom retraction
;zhop1
G1 X39.910 Y62.658 F6000
G1 X78.090 Y62.760
G1 X78.090 Y61.821
G1 X79.050 Y61.800
G1 Z2.600 F1200
G1 E0 F1800 ; custom un-retraction/prime
G92 E0.0000
G1 X79.050 Y58.200 E0.1293 F2880
G1 X86.800 Y58.200 E0.4077
G1 X86.800 Y61.800 E0.5370
G1 X79.050 Y61.800 E0.8154
G1 X78.570 Y62.280 F6000
G92 E0.0000
G1 X78.570 Y57.720 E0.1638 F2880
G1 X87.280 Y57.720 E0.4767
G1 X87.280 Y62.280 E0.6405
G1 X78.570 Y62.280 E0.9534
G1 X78.090 Y62.760 F6000
G92 E0.0000
G1 X78.090 Y57.240 E0.1983 F2160
G1 X87.760 Y57.240 E0.5456
G1 X87.760 Y62.760 E0.7439
G1 X78.090 Y62.760 E1.0913
G1 X79.761 Y58.548 F6000
G92 E0.0000
G1 X82.665 Y61.452 E0.1844 F3600
G1 X86.452 Y61.452 E0.3544
G1 X86.452 Y60.996 E0.3749
G1 X84.004 Y58.548 E0.5304
G92 E0.0000
G1 E-1 F1800 ; custom retraction
;layer 14, Z = 2.800
;fan14;
G1 Z2.800 F1200
G1 X86.800 Y58.200 F6000
G1 E0 F1800 ; custom un-retraction/prime
G92 E0.0000
G1 X86.800 Y61.800 E0.1293 F2880
G1 X79.007 Y61.800 E0.4093
G1 X79.007 Y58.200 E0.5386
G1 X86.800 Y58.200 E0.8185
G1 X87.280 Y57.720 F6000
G92 E0.0000
G1 X87.280 Y62.280 E0.1638 F2880
G1 X78.527 Y62.280 E0.4782
G1 X78.527 Y57.720 E0.6420
G1 X87.280 Y57.720 E0.9565
G1 X87.760 Y57.240 F6000
G92 E0.0000
G1 X87.760 Y62.760 E0.1983 F2160
G1 X78.047 Y62.760 E0.5472
G1 X78.047 Y57.240 E0.7455
G1 X87.760 Y57.240 E1.0944
G1 X84.004 Y61.452 F6000
G92 E0.0000
G1 X86.452 Y59.004 E0.1555 F3600
G1 X86.452 Y58.548 E0.1759
G1 X82.665 Y58.548 E0.3460
G1 X79.761 Y61.452 E0.5304
G92 E0.0000
G1 E-1 F1800 ; custom retraction
;zhop1
G1 X38.993 Y61.800 F6000
G1 Z2.800 F1200
G1 E0 F1800 ; custom un-retraction/prime
G92 E0.0000
G1 X36.200 Y61.800 E0.1003 F2880
G1 X36.200 Y58.200 E0.2297
G1 X38.993 Y58.200 E0.3300
G1 X38.993 Y61.800 E0.4593
G1 X39.473 Y62.280 F6000
G92 E0.0000
G1 X35.720 Y62.280 E0.1348 F2880
G1 X35.720 Y57.720 E0.2986
G1 X39.473 Y57.720 E0.4334
G1 X39.473 Y62.280 E0.5972
G1 X39.953 Y62.760 F6000
G92 E0.0000
G1 X35.240 Y62.760 E0.1693 F2160
G1 X35.240 Y57.240 E0.3676
G1 X39.953 Y57.240 E0.5369
G1 X39.953 Y62.760 E0.7352
G92 E0.0000
G1 E-1 F1800 ; custom retraction
;zhop1
G1 X31.991 Y60.491 F6000
G1 Z2.800 F1200
G1 E0 F1800 ; custom un-retraction/prime
G92 E0.0000
G1 X31.009 Y60.491 E0.0353 F2160
G1 X31.009 Y59.509 E0.0705
G1 X31.991 Y59.509 E0.1058
G1 X31.991 Y60.491 E0.1410
G1 X31.297 Y60.192 F6000
G92 E0.0000
G1 X31.692 Y59.797 E0.0201 F3600
G92 E0.0000
G1 E-1 F1800 ; custom retraction
;layer 15, Z = 3.000
;fan15;
G1 Z3.000 F1200
G1 X31.959 Y59.541 F6000
G1 E0 F1800 ; custom un-retraction/prime
G92 E0.0000
G1 X31.959 Y60.459 E0.0330 F2160
G1 X31.041 Y60.459 E0.0660
G1 X31.041 Y59.541 E0.0989
G1 X31.959 Y59.541 E0.1319
G1 X31.661 Y60.171 F6000
G92 E0.0000
G1 X31.329 Y59.839 E0.0168 F3600
G92 E0.0000
G1 E-1 F1800 ; custom retraction
;zhop1
G1 X31.959 Y59.627 F6000
G1 X31.959 Y59.541
G1 X35.240 Y58.523
G1 X36.200 Y58.200
G1 Z3.000 F1200
G1 E0 F1800 ; custom un-retraction/prime
G92 E0.0000
G1 X39.043 Y58.200 E0.1021 F2880
G1 X39.043 Y61.800 E0.2314
G1 X36.200 Y61.800 E0.3335
G1 X36.200 Y58.200 E0.4628
G1 X35.720 Y57.720 F6000
G92 E0.0000
G1 X39.523 Y57.720 E0.1366 F2880
G1 X39.523 Y62.280 E0.3004
G1 X35.720 Y62.280 E0.4370
G1 X35.720 Y57.720 E0.6008
G1 X35.240 Y57.240 F6000
G92 E0.0000
G1 X40.003 Y57.240 E0.1711 F2160
G1 X40.003 Y62.760 E0.3694
G1 X35.240 Y62.760 E0.5404
G1 X35.240 Y57.240 E0.7387
G92 E0.0000
G1 E-1 F1800 ; custom retraction
;zhop1
G1 X40.003 Y57.345 F6000
G1 X77.997 Y57.240
G1 X77.997 Y58.179
G1 X78.957 Y58.200
G1 Z3.000 F1200
G1 E0 F1800 ; custom un-retraction/prime
G92 E0.0000
G1 X86.800 Y58.200 E0.2817 F2880
G1 X86.800 Y61.800 E0.4110
G1 X78.957 Y61.800 E0.6927
G1 X78.957 Y58.200 E0.8221
G1 X78.477 Y57.720 F6000
G92 E0.0000
G1 X87.280 Y57.720 E0.3162 F2880
G1 X87.280 Y62.280 E0.4800
G1 X78.477 Y62.280 E0.7962
G1 X78.477 Y57.720 E0.9600
G1 X77.997 Y57.240 F6000
G92 E0.0000
G1 X87.760 Y57.240 E0.3507 F2160
G1 X87.760 Y62.760 E0.5490
G1 X77.997 Y62.760 E0.8996
G1 X77.997 Y57.240 E1.0979
G1 X79.761 Y58.548 F6000
G92 E0.0000
G1 X82.665 Y61.452 E0.1844 F3600
G1 X86.452 Y61.452 E0.3544
G1 X86.452 Y60.996 E0.3749
G1 X84.004 Y58.548 E0.5304
G92 E0.0000
G1 E-1 F1800 ; custom retraction
;layer 16, Z = 3.200
;fan16;
G1 Z3.200 F1200
G1 X86.800 Y58.200 F6000
G1 E0 F1800 ; custom un-retraction/prime
G92 E0.0000
G1 X86.800 Y61.800 E0.1293 F2880
G1 X78.904 Y61.800 E0.4129
G1 X78.904 Y58.200 E0.5423
G1 X86.800 Y58.200 E0.8259
G1 X87.280 Y57.720 F6000
G92 E0.0000
G1 X87.280 Y62.280 E0.1638 F2880
G1 X78.424 Y62.280 E0.4819
G1 X78.424 Y57.720 E0.6457
G1 X87.280 Y57.720 E0.9638
G1 X87.760 Y57.240 F6000
G92 E0.0000
G1 X87.760 Y62.760 E0.1983 F2160
G1 X77.944 Y62.760 E0.5509
G1 X77.944 Y57.240 E0.7492
G1 X87.760 Y57.240 E1.1017
G1 X84.004 Y61.452 F6000
G92 E0.0000
G1 X86.452 Y59.004 E0.1555 F3600
G1 X86.452 Y58.548 E0.1759
G1 X82.665 Y58.548 E0.3460
G1 X79.761 Y61.452 E0.5304
G92 E0.0000
G1 E-1 F1800 ; custom retraction
;zhop1
G1 X39.096 Y61.800 F6000
G1 Z3.200 F1200
G1 E0 F1800 ; custom un-retraction/prime
G92 E0.0000
G1 X36.200 Y61.800 E0.1040 F2880
G1 X36.200 Y58.200 E0.2333
G1 X39.096 Y58.200 E0.3373
G1 X39.096 Y61.800 E0.4667
G1 X39.576 Y62.280 F6000
G92 E0.0000
G1 X35.720 Y62.280 E0.1385 F2880
G1 X35.720 Y57.720 E0.3023
G1 X39.576 Y57.720 E0.4408
G1 X39.576 Y62.280 E0.6046
G1 X40.056 Y62.760 F6000
G92 E0.0000
G1 X35.240 Y62.760 E0.1730 F2160
G1 X35.240 Y57.240 E0.3713
G1 X40.056 Y57.240 E0.5442
G1 X40.056 Y62.760 E0.7425
G92 E0.0000
G1 E-1 F1800 ; custom retraction
;zhop1
G1 X35.240 Y61.378 F6000
G1 X31.927 Y60.427
G1 Z3.200 F1200
G1 E0 F1800 ; custom un-retraction/prime
G92 E0.0000
G1 X31.073 Y60.427 E0.0307 F2160
G1 X31.073 Y59.573 E0.0614
G1 X31.927 Y59.573 E0.0921
G1 X31.927 Y60.427 E0.1228
G1 X31.361 Y60.129 F6000
G92 E0.0000
G1 X31.629 Y59.861 E0.0136 F3600
G92 E0.0000
G1 E-1 F1800 ; custom retraction
;layer 17, Z = 3.400
;fan17;
G1 Z3.400 F1200
G1 X31.896 Y59.604 F6000
G1 E0 F1800 ; custom un-retraction/prime
G92 E0.0000
G1 X31.896 Y60.396 E0.0284 F2160
G1 X31.104 Y60.396 E0.0569
G1 X31.104 Y59.604 E0.0853
G1 X31.896 Y59.604 E0.1137
G1 X31.597 Y60.108 F6000
G92 E0.0000
G1 X31.392 Y59.903 E0.0104 F3600
G92 E0.0000
G1 E-1 F1800 ; custom retraction
;zhop1
G1 X31.896 Y59.725 F6000
G1 X31.896 Y59.604
G1 X35.240 Y58.540
G1 X36.200 Y58.200
G1 Z3.400 F1200
G1 E0 F1800 ; custom un-retraction/prime
G92 E0.0000
G1 X39.157 Y58.200 E0.1062 F2880
G1 X39.157 Y61.800 E0.2355
G1 X36.200 Y61.800 E0.3418
G1 X36.200 Y58.200 E0.4711
G1 X35.720 Y57.720 F6000
G92 E0.0000
G1 X39.637 Y57.720 E0.1407 F2880
G1 X39.637 Y62.280 E0.3045
G1 X35.720 Y62.280 E0.4452
G1 X35.720 Y57.720 E0.6090
G1 X35.240 Y57.240 F6000
G92 E0.0000
G1 X40.117 Y57.240 E0.1752 F2160
G1 X40.117 Y62.760 E0.3735
G1 X35.240 Y62.760 E0.5487
G1 X35.240 Y57.240 E0.7470
G92 E0.0000
G1 E-1 F1800 ; custom retraction
;zhop1
G1 X40.117 Y57.347 F6000
G1 X77.883 Y57.240
G1 X77.883 Y58.179
G1 X78.843 Y58.200
G1 Z3.400 F1200
G1 E0 F1800 ; custom un-retraction/prime
G92 E0.0000
G1 X86.800 Y58.200 E0.2858 F2880
G1 X86.800 Y61.800 E0.4151
G1 X78.843 Y61.800 E0.7010
G1 X78.843 Y58.200 E0.8303
G1 X78.363 Y57.720 F6000
G92 E0.0000
G1 X87.280 Y57.720 E0.3203 F2880
G1 X87.280 Y62.280 E0.4841
G1 X78.363 Y62.280 E0.8044
G1 X78.363 Y57.720 E0.9682
G1 X77.883 Y57.240 F6000
G92 E0.0000
G1 X87.760 Y57.240 E0.3548 F2160
G1 X87.760 Y62.760 E0.5531
G1 X77.883 Y62.760 E0.9079
G1 X77.883 Y57.240 E1.1062
G1 X79.761 Y58.548 F6000
G92 E0.0000
G1 X82.665 Y61.452 E0.1844 F3600
G1 X86.452 Y61.452 E0.3544
G1 X86.452 Y60.996 E0.3749
G1 X84.004 Y58.548 E0.5304
G92 E0.0000
G1 E-1 F1800 ; custom retraction
;layer 18, Z = 3.600
;fan18;
G1 Z3.600 F1200
G1 X86.800 Y58.200 F6000
G1 E0 F1800 ; custom un-retraction/prime
G92 E0.0000
G1 X86.800 Y61.800 E0.1293 F2880
G1 X78.776 Y61.800 E0.4175
G1 X78.776 Y58.200 E0.5469
G1 X86.800 Y58.200 E0.8351
G1 X87.280 Y57.720 F6000
G92 E0.0000
G1 X87.280 Y62.280 E0.1638 F2880
G1 X78.296 Y62.280 E0.4865
G1 X78.296 Y57.720 E0.6503
G1 X87.280 Y57.720 E0.9730
G1 X87.760 Y57.240 F6000
G92 E0.0000
G1 X87.760 Y62.760 E0.1983 F2160
G1 X77.816 Y62.760 E0.5555
G1 X77.816 Y57.240 E0.7538
G1 X87.760 Y57.240 E1.1109
G1 X84.004 Y61.452 F6000
G92 E0.0000
G1 X86.452 Y59.004 E0.1555 F3600
G1 X86.452 Y58.548 E0.1759
G1 X82.665 Y58.548 E0.3460
G1 X79.761 Y61.452 E0.5304
G92 E0.0000
G1 E-1 F1800 ; custom retraction
;zhop1
G1 X39.224 Y61.800 F6000
G1 Z3.600 F1200
G1 E0 F1800 ; custom un-retraction/prime
G92 E0.0000
G1 X36.200 Y61.800 E0.1086 F2880
G1 X36.200 Y58.200 E0.2379
G1 X39.224 Y58.200 E0.3465
G1 X39.224 Y61.800 E0.4759
G1 X39.704 Y62.280 F6000
G92 E0.0000
G1 X35.720 Y62.280 E0.1431 F2880
G1 X35.720 Y57.720 E0.3069
G1 X39.704 Y57.720 E0.4500
G1 X39.704 Y62.280 E0.6138
G1 X40.184 Y62.760 F6000
G92 E0.0000
G1 X35.240 Y62.760 E0.1776 F2160
G1 X35.240 Y57.240 E0.3759
G1 X40.184 Y57.240 E0.5534
G1 X40.184 Y62.760 E0.7517
G92 E0.0000
G1 E-1 F1800 ; custom retraction
;zhop1
G1 X31.864 Y60.364 F6000
G1 Z3.600 F1200
G1 E0 F1800 ; custom un-retraction/prime
G92 E0.0000
G1 X31.136 Y60.364 E0.0262 F2160
G1 X31.136 Y59.636 E0.0523
G1 X31.864 Y59.636 E0.0785
G1 X31.864 Y60.364 E0.1046
G1 X31.424 Y60.066 F6000
G92 E0.0000
G1 X31.566 Y59.924 E0.0072 F3600
G92 E0.0000
G1 E-1 F1800 ; custom retraction
;layer 19, Z = 3.800
;fan19;
G1 Z3.800 F1200
G1 X31.832 Y59.668 F6000
G1 E0 F1800 ; custom un-retraction/prime
G92 E0.0000
G1 X31.832 Y60.332 E0.0239 F2160
G1 X31.168 Y60.332 E0.0478
G1 X31.168 Y59.668 E0.0716
G1 X31.832 Y59.668 E0.0955
G1 X31.456 Y59.966 F6000
G92 E0.0000
G1 X31.534 Y60.044 E0.0040 F3600
G92 E0.0000
G1 E-1 F1800 ; custom retraction
;zhop1
G1 X31.832 Y60.157 F6000
G1 X31.832 Y60.332
G1 X35.240 Y61.439
G1 X36.200 Y61.800
G1 Z3.800 F1200
G1 E0 F1800 ; custom un-retraction/prime
G92 E0.0000
G1 X36.200 Y58.200 E0.1293 F2880
G1 X39.295 Y58.200 E0.2405
G1 X39.295 Y61.800 E0.3698
G1 X36.200 Y61.800 E0.4810
G1 X35.720 Y62.280 F6000
G92 E0.0000
G1 X35.720 Y57.720 E0.1638 F2880
G1 X39.775 Y57.720 E0.3095
G1 X39.775 Y62.280 E0.4733
G1 X35.720 Y62.280 E0.6189
G1 X35.240 Y62.760 F6000
G92 E0.0000
G1 X35.240 Y57.240 E0.1983 F2160
G1 X40.255 Y57.240 E0.3784
G1 X40.255 Y62.760 E0.5767
G1 X35.240 Y62.760 E0.7568
G92 E0.0000
G1 E-1 F1800 ; custom retraction
;zhop1
G1 X40.255 Y62.649 F6000
G1 X77.745 Y62.760
G1 X77.745 Y61.821
G1 X78.705 Y61.800
G1 Z3.800 F1200
G1 E0 F1800 ; custom un-retraction/prime
G92 E0.0000
G1 X78.705 Y58.200 E0.1293 F2880
G1 X86.800 Y58.200 E0.4201
G1 X86.800 Y61.800 E0.5494
G1 X78.705 Y61.800 E0.8402
G1 X78.225 Y62.280 F6000
G92 E0.0000
G1 X78.225 Y57.720 E0.1638 F2880
G1 X87.280 Y57.720 E0.4891
G1 X87.280 Y62.280 E0.6529
G1 X78.225 Y62.280 E0.9781
G1 X77.745 Y62.760 F6000
G92 E0.0000
G1 X77.745 Y57.240 E0.1983 F2160
G1 X87.760 Y57.240 E0.5580
G1 X87.760 Y62.760 E0.7563
G1 X77.745 Y62.760 E1.1160
G1 X79.761 Y58.548 F6000
G92 E0.0000
G1 X82.665 Y61.452 E0.1844 F3600
G1 X86.452 Y61.452 E0.3544
G1 X86.452 Y60.996 E0.3749
G1 X84.004 Y58.548 E0.5304
G92 E0.0000
G1 E-1 F1800 ; custom retraction
;layer 20, Z = 4.000
;fan20;
G1 Z4.000 F1200
G1 X86.800 Y58.200 F6000
G1 E0 F1800 ; custom un-retraction/prime
G92 E0.0000
G1 X86.800 Y61.800 E0.1293 F2880
G1 X78.624 Y61.800 E0.4230
G1 X78.624 Y58.200 E0.5523
G1 X86.800 Y58.200 E0.8460
G1 X87.280 Y57.720 F6000
G92 E0.0000
G1 X87.280 Y62.280 E0.1638 F2880
G1 X78.144 Y62.280 E0.4920
G1 X78.144 Y57.720 E0.6558
G1 X87.280 Y57.720 E0.9839
G1 X87.760 Y57.240 F6000
G92 E0.0000
G1 X87.760 Y62.760 E0.1983 F2160
G1 X77.664 Y62.760 E0.5609
G1 X77.664 Y57.240 E0.7592
G1 X87.760 Y57.240 E1.1218
G1 X84.004 Y61.452 F6000
G92 E0.0000
G1 X86.452 Y59.004 E0.1555 F3600
G1 X86.452 Y58.548 E0.1759
G1 X82.665 Y58.548 E0.3460
G1 X79.761 Y61.452 E0.5304
G92 E0.0000
G1 E-1 F1800 ; custom retraction
;zhop1
G1 X39.376 Y61.800 F6000
G1 Z4.000 F1200
G1 E0 F1800 ; custom un-retraction/prime
G92 E0.0000
G1 X36.200 Y61.800 E0.1141 F2880
G1 X36.200 Y58.200 E0.2434
G1 X39.376 Y58.200 E0.3575
G1 X39.376 Y61.800 E0.4868
G1 X39.856 Y62.280 F6000
G92 E0.0000
G1 X35.720 Y62.280 E0.1486 F2880
G1 X35.720 Y57.720 E0.3124
G1 X39.856 Y57.720 E0.4609
G1 X39.856 Y62.280 E0.6247
G1 X40.336 Y62.760 F6000
G92 E0.0000
G1 X35.240 Y62.760 E0.1830 F2160
G1 X35.240 Y57.240 E0.3813
G1 X40.336 Y57.240 E0.5644
G1 X40.336 Y62.760 E0.7626
G92 E0.0000
G1 E-1 F1800 ; custom retraction
;zhop1
G1 X35.240 Y61.292 F6000
G1 X31.801 Y60.301
G1 Z4.000 F1200
G1 E0 F1800 ; custom un-retraction/prime
G92 E0.0000
G1 X31.199 Y60.301 E0.0216 F2160
G1 X31.199 Y59.699 E0.0432
G1 X31.801 Y59.699 E0.0648
G1 X31.801 Y60.301 E0.0864
G1 X31.487 Y60.002 F6000
G92 E0.0000
G1 X31.502 Y59.987 E0.0008 F3600
G92 E0.0000
G1 E-1 F1800 ; custom retraction
;layer 21, Z = 4.200
;fan21;
G1 Z4.200 F1200
G1 X31.769 Y59.731 F6000
G1 E0 F1800 ; custom un-retraction/prime
G92 E0.0000
G1 X31.769 Y60.269 E0.0193 F2160
G1 X31.231 Y60.269 E0.0387
G1 X31.231 Y59.731 E0.0580
G1 X31.769 Y59.731 E0.0773
G92 E0.0000
G1 E-1 F1800 ; custom retraction
;zhop1
G1 X36.200 Y58.200 F6000
G1 Z4.200 F1200
G1 E0 F1800 ; custom un-retraction/prime
G92 E0.0000
G1 X39.461 Y58.200 E0.1171 F2880
G1 X39.461 Y61.800 E0.2465
G1 X36.200 Y61.800 E0.3636
G1 X36.200 Y58.200 E0.4929
G1 X35.720 Y57.720 F6000
G92 E0.0000
G1 X39.941 Y57.720 E0.1516 F2880
G1 X39.941 Y62.280 E0.3154
G1 X35.720 Y62.280 E0.4671
G1 X35.720 Y57.720 E0.6309
G1 X35.240 Y57.240 F6000
G92 E0.0000
G1 X40.421 Y57.240 E0.1861 F2160
G1 X40.421 Y62.760 E0.3844
G1 X35.240 Y62.760 E0.5705
G1 X35.240 Y57.240 E0.7688
G92 E0.0000
G1 E-1 F1800 ; custom retraction
;zhop1
G1 X40.421 Y57.355 F6000
G1 X77.579 Y57.240
G1 X77.579 Y58.179
G1 X78.539 Y58.200
G1 Z4.200 F1200
G1 E0 F1800 ; custom un-retraction/prime
G92 E0.0000
G1 X86.800 Y58.200 E0.2967 F2880
G1 X86.800 Y61.800 E0.4261
G1 X78.539 Y61.800 E0.7228
G1 X78.539 Y58.200 E0.8521
G1 X78.059 Y57.720 F6000
G92 E0.0000
G1 X87.280 Y57.720 E0.3312 F2880
G1 X87.280 Y62.280 E0.4950
G1 X78.059 Y62.280 E0.8263
G1 X78.059 Y57.720 E0.9901
G1 X77.579 Y57.240 F6000
G92 E0.0000
G1 X87.760 Y57.240 E0.3657 F2160
G1 X87.760 Y62.760 E0.5640
G1 X77.579 Y62.760 E0.9297
G1 X77.579 Y57.240 E1.1280
G1 X79.761 Y58.548 F6000
G92 E0.0000
G1 X82.665 Y61.452 E0.1844 F3600
G1 X86.452 Y61.452 E0.3544
G1 X86.452 Y60.996 E0.3749
G1 X84.004 Y58.548 E0.5304
G92 E0.0000
G1 E-1 F1800 ; custom retraction
;layer 22, Z = 4.400
;fan22;
G1 Z4.400 F1200
G1 X86.800 Y58.200 F6000
G1 E0 F1800 ; custom un-retraction/prime
G92 E0.0000
G1 X86.800 Y61.800 E0.1293 F2880
G1 X78.448 Y61.800 E0.4293
G1 X78.448 Y58.200 E0.5587
G1 X86.800 Y58.200 E0.8587
G1 X87.280 Y57.720 F6000
G92 E0.0000
G1 X87.280 Y62.280 E0.1638 F2880
G1 X77.968 Y62.280 E0.4983
G1 X77.968 Y57.720 E0.6621
G1 X87.280 Y57.720 E0.9966
G1 X87.760 Y57.240 F6000
G92 E0.0000
G1 X87.760 Y62.760 E0.1983 F2160
G1 X77.488 Y62.760 E0.5673
G1 X77.488 Y57.240 E0.7656
G1 X87.760 Y57.240 E1.1345
G1 X84.004 Y61.452 F6000
G92 E0.0000
G1 X86.452 Y59.004 E0.1555 F3600
G1 X86.452 Y58.548 E0.1759
G1 X82.665 Y58.548 E0.3460
G1 X79.761 Y61.452 E0.5304
G92 E0.0000
G1 E-1 F1800 ; custom retraction
;zhop1
G1 X39.552 Y61.800 F6000
G1 Z4.400 F1200
G1 E0 F1800 ; custom un-retraction/prime
G92 E0.0000
G1 X36.200 Y61.800 E0.1204 F2880
G1 X36.200 Y58.200 E0.2497
G1 X39.552 Y58.200 E0.3701
G1 X39.552 Y61.800 E0.4995
G1 X40.032 Y62.280 F6000
G92 E0.0000
G1 X35.720 Y62.280 E0.1549 F2880
G1 X35.720 Y57.720 E0.3187
G1 X40.032 Y57.720 E0.4736
G1 X40.032 Y62.280 E0.6374
G1 X40.512 Y62.760 F6000
G92 E0.0000
G1 X35.240 Y62.760 E0.1894 F2160
G1 X35.240 Y57.240 E0.3877
G1 X40.512 Y57.240 E0.5771
G1 X40.512 Y62.760 E0.7753
G92 E0.0000
G1 E-1 F1800 ; custom retraction
;zhop1
G1 X35.240 Y61.244 F6000
G1 X31.737 Y60.237
G1 Z4.400 F1200
G1 E0 F1800 ; custom un-retraction/prime
G92 E0.0000
G1 X31.263 Y60.237 E0.0171 F2160
G1 X31.263 Y59.763 E0.0341
G1 X31.737 Y59.763 E0.0512
G1 X31.737 Y60.237 E0.0682
G92 E0.0000
G1 E-1 F1800 ; custom retraction
;layer 23, Z = 4.600
;fan23;
G1 Z4.600 F1200
G1 X31.706 Y60.206 F6000
G1 E0 F1800 ; custom un-retraction/prime
G92 E0.0000
G1 X31.294 Y60.206 E0.0148 F2160
G1 X31.294 Y59.794 E0.0295
G1 X31.706 Y59.794 E0.0443
G1 X31.706 Y60.206 E0.0591
G92 E0.0000
G1 E-1 F1800 ; custom retraction
;zhop1
G1 X36.200 Y61.800 F6000
G1 Z4.600 F1200
G1 E0 F1800 ; custom un-retraction/prime
G92 E0.0000
G1 X36.200 Y58.200 E0.1293 F2880
G1 X39.654 Y58.200 E0.2534
G1 X39.654 Y61.800 E0.3827
G1 X36.200 Y61.800 E0.5067
G1 X35.720 Y62.280 F6000
G92 E0.0000
G1 X35.720 Y57.720 E0.1638 F2880
G1 X40.134 Y57.720 E0.3223
G1 X40.134 Y62.280 E0.4861
G1 X35.720 Y62.280 E0.6447
G1 X35.240 Y62.760 F6000
G92 E0.0000
G1 X35.240 Y57.240 E0.1983 F2160
G1 X40.614 Y57.240 E0.3913
G1 X40.614 Y62.760 E0.5896
G1 X35.240 Y62.760 E0.7826
G92 E0.0000
G1 E-1 F1800 ; custom retraction
;zhop1
G1 X40.614 Y62.640 F6000
G1 X77.386 Y62.760
G1 X77.386 Y61.821
G1 X78.346 Y61.800
G1 Z4.600 F1200
G1 E0 F1800 ; custom un-retraction/prime
G92 E0.0000
G1 X78.346 Y58.200 E0.1293 F2880
G1 X86.800 Y58.200 E0.4330
G1 X86.800 Y61.800 E0.5623
G1 X78.346 Y61.800 E0.8660
G1 X77.866 Y62.280 F6000
G92 E0.0000
G1 X77.866 Y57.720 E0.1638 F2880
G1 X87.280 Y57.720 E0.5019
G1 X87.280 Y62.280 E0.6657
G1 X77.866 Y62.280 E1.0039
G1 X77.386 Y62.760 F6000
G92 E0.0000
G1 X77.386 Y57.240 E0.1983 F2160
G1 X87.760 Y57.240 E0.5709
G1 X87.760 Y62.760 E0.7692
G1 X77.386 Y62.760 E1.1418
G1 X79.761 Y58.548 F6000
G92 E0.0000
G1 X82.665 Y61.452 E0.1844 F3600
G1 X86.452 Y61.452 E0.3544
G1 X86.452 Y60.996 E0.3749
G1 X84.004 Y58.548 E0.5304
G92 E0.0000
G1 E-1 F1800 ; custom retraction
;layer 24, Z = 4.800
;fan24;
G1 Z4.800 F1200
G1 X86.800 Y58.200 F6000
G1 E0 F1800 ; custom un-retraction/prime
G92 E0.0000
G1 X86.800 Y61.800 E0.1293 F2880
G1 X78.239 Y61.800 E0.4368
G1 X78.239 Y58.200 E0.5662
G1 X86.800 Y58.200 E0.8737
G1 X87.280 Y57.720 F6000
G92 E0.0000
G1 X87.280 Y62.280 E0.1638 F2880
G1 X77.759 Y62.280 E0.5058
G1 X77.759 Y57.720 E0.6696
G1 X87.280 Y57.720 E1.0116
G1 X87.760 Y57.240 F6000
G92 E0.0000
G1 X87.760 Y62.760 E0.1983 F2160
G1 X77.279 Y62.760 E0.5748
G1 X77.279 Y57.240 E0.7731
G1 X87.760 Y57.240 E1.1495
G1 X84.004 Y61.452 F6000
G92 E0.0000
G1 X86.452 Y59.004 E0.1555 F3600
G1 X86.452 Y58.548 E0.1759
G1 X82.665 Y58.548 E0.3460
G1 X79.761 Y61.452 E0.5304
G92 E0.0000
G1 E-1 F1800 ; custom retraction
;zhop1
G1 X39.761 Y61.800 F6000
G1 Z4.800 F1200
G1 E0 F1800 ; custom un-retraction/prime
G92 E0.0000
G1 X36.200 Y61.800 E0.1279 F2880
G1 X36.200 Y58.200 E0.2572
G1 X39.761 Y58.200 E0.3851
G1 X39.761 Y61.800 E0.5145
G1 X40.241 Y62.280 F6000
G92 E0.0000
G1 X35.720 Y62.280 E0.1624 F2880
G1 X35.720 Y57.720 E0.3262
G1 X40.241 Y57.720 E0.4886
G1 X40.241 Y62.280 E0.6524
G1 X40.721 Y62.760 F6000
G92 E0.0000
G1 X35.240 Y62.760 E0.1969 F2160
G1 X35.240 Y57.240 E0.3952
G1 X40.721 Y57.240 E0.5921
G1 X40.721 Y62.760 E0.7903
G92 E0.0000
G1 E-1 F1800 ; custom retraction
;zhop1
G1 X35.240 Y61.193 F6000
G1 X31.674 Y60.174
G1 Z4.800 F1200
G1 E0 F1800 ; custom un-retraction/prime
G92 E0.0000
G1 X31.326 Y60.174 E0.0125 F2160
G1 X31.326 Y59.826 E0.0250
G1 X31.674 Y59.826 E0.0375
G1 X31.674 Y60.174 E0.0500
G92 E0.0000
G1 E-1 F1800 ; custom retraction
;layer 25, Z = 5.000
;fan25;
G1 Z5.000 F1200
G1 X31.642 Y60.142 F6000
G1 E0 F1800 ; custom un-retraction/prime
G92 E0.0000
G1 X31.358 Y60.142 E0.0102 F2160
G1 X31.358 Y59.858 E0.0204
G1 X31.642 Y59.858 E0.0307
G1 X31.642 Y60.142 E0.0409
G92 E0.0000
G1 E-1 F1800 ; custom retraction
;zhop1
G1 X36.200 Y61.800 F6000
G1 Z5.000 F1200
G1 E0 F1800 ; custom un-retraction/prime
G92 E0.0000
G1 X36.200 Y58.200 E0.1293 F2880
G1 X39.875 Y58.200 E0.2613
G1 X39.875 Y61.800 E0.3906
G1 X36.200 Y61.800 E0.5226
G1 X35.720 Y62.280 F6000
G92 E0.0000
G1 X35.720 Y57.720 E0.1638 F2880
G1 X40.355 Y57.720 E0.3303
G1 X40.355 Y62.280 E0.4941
G1 X35.720 Y62.280 E0.6606
G1 X35.240 Y62.760 F6000
G92 E0.0000
G1 X35.240 Y57.240 E0.1983 F2160
G1 X40.835 Y57.240 E0.3993
G1 X40.835 Y62.760 E0.5975
G1 X35.240 Y62.760 E0.7985
G92 E0.0000
G1 E-1 F1800 ; custom retraction
;zhop1
G1 X40.835 Y62.635 F6000
G1 X77.165 Y62.760
G1 X77.165 Y61.821
G1 X78.125 Y61.800
G1 Z5.000 F1200
G1 E0 F1800 ; custom un-retraction/prime
G92 E0.0000
G1 X78.125 Y58.200 E0.1293 F2880
G1 X86.800 Y58.200 E0.4409
G1 X86.800 Y61.800 E0.5702
G1 X78.125 Y61.800 E0.8818
G1 X77.645 Y62.280 F6000
G92 E0.0000
G1 X77.645 Y57.720 E0.1638 F2880
G1 X87.280 Y57.720 E0.5099
G1 X87.280 Y62.280 E0.6737
G1 X77.645 Y62.280 E1.0198
G1 X77.165 Y62.760 F6000
G92 E0.0000
G1 X77.165 Y57.240 E0.1983 F2160
G1 X87.760 Y57.240 E0.5789
G1 X87.760 Y62.760 E0.7771
G1 X77.165 Y62.760 E1.1577
G1 X79.761 Y58.548 F6000
G92 E0.0000
G1 X82.665 Y61.452 E0.1844 F3600
G1 X86.452 Y61.452 E0.3544
G1 X86.452 Y60.996 E0.3749
G1 X84.004 Y58.548 E0.5304
G92 E0.0000
G1 E-1 F1800 ; custom retraction
;layer 26, Z = 5.200
;fan26;
G1 Z5.200 F1200
G1 X86.800 Y58.200 F6000
G1 E0 F1800 ; custom un-retraction/prime
G92 E0.0000
G1 X86.800 Y61.800 E0.1293 F2880
G1 X78.001 Y61.800 E0.4454
G1 X78.001 Y58.200 E0.5747
G1 X86.800 Y58.200 E0.8908
G1 X87.280 Y57.720 F6000
G92 E0.0000
G1 X87.280 Y62.280 E0.1638 F2880
G1 X77.521 Y62.280 E0.5144
G1 X77.521 Y57.720 E0.6782
G1 X87.280 Y57.720 E1.0287
G1 X87.760 Y57.240 F6000
G92 E0.0000
G1 X87.760 Y62.760 E0.1983 F2160
G1 X77.041 Y62.760 E0.5833
G1 X77.041 Y57.240 E0.7816
G1 X87.760 Y57.240 E1.1667
G1 X86.452 Y59.004 F6000
G92 E0.0000
G1 X84.004 Y61.452 E0.1555 F3600
G1 X79.761 Y61.452 E0.3460
G1 X82.665 Y58.548 E0.5304
G1 X78.423 Y58.548 E0.7209
G1 X78.349 Y58.622 E0.7256
G92 E0.0000
G1 E-1 F1800 ; custom retraction
;zhop1
G1 X39.999 Y58.200 F6000
G1 Z5.200 F1200
G1 E0 F1800 ; custom un-retraction/prime
G92 E0.0000
G1 X39.999 Y61.800 E0.1293 F2880
G1 X36.200 Y61.800 E0.2658
G1 X36.200 Y58.200 E0.3951
G1 X39.999 Y58.200 E0.5316
G1 X40.479 Y57.720 F6000
G92 E0.0000
G1 X40.479 Y62.280 E0.1638 F2880
G1 X35.720 Y62.280 E0.3348
G1 X35.720 Y57.720 E0.4986
G1 X40.479 Y57.720 E0.6695
G1 X40.959 Y57.240 F6000
G92 E0.0000
G1 X40.959 Y62.760 E0.1983 F2160
G1 X35.240 Y62.760 E0.4037
G1 X35.240 Y57.240 E0.6020
G1 X40.959 Y57.240 E0.8075
G92 E0.0000
G1 E-1 F1800 ; custom retraction
;zhop1
G1 X31.611 Y59.889 F6000
G1 Z5.200 F1200
G1 E0 F1800 ; custom un-retraction/prime
G92 E0.0000
G1 X31.611 Y60.111 E0.0079 F2160
G1 X31.389 Y60.111 E0.0159
G1 X31.389 Y59.889 E0.0238
G1 X31.611 Y59.889 E0.0318
G92 E0.0000
G1 E-1 F1800 ; custom retraction
;layer 27, Z = 5.400
;fan27;
G1 Z5.400 F1200
G1 X31.579 Y59.921 F6000
G1 E0 F1800 ; custom un-retraction/prime
G92 E0.0000
G1 X31.579 Y60.079 E0.0057 F2160
G1 X31.421 Y60.079 E0.0113
G1 X31.421 Y59.921 E0.0170
G1 X31.579 Y59.921 E0.0227
G92 E0.0000
G1 E-1 F1800 ; custom retraction
;zhop1
G1 X36.200 Y58.200 F6000
G1 Z5.400 F1200
G1 E0 F1800 ; custom un-retraction/prime
G92 E0.0000
G1 X40.132 Y58.200 E0.1412 F2880
G1 X40.132 Y61.800 E0.2706
G1 X36.200 Y61.800 E0.4118
G1 X36.200 Y58.200 E0.5411
G1 X35.720 Y57.720 F6000
G92 E0.0000
G1 X40.612 Y57.720 E0.1757 F2880
G1 X40.612 Y62.280 E0.3395
G1 X35.720 Y62.280 E0.5153
G1 X35.720 Y57.720 E0.6791
G1 X35.240 Y57.240 F6000
G92 E0.0000
G1 X41.092 Y57.240 E0.2102 F2160
G1 X41.092 Y62.760 E0.4085
G1 X35.240 Y62.760 E0.6187
G1 X35.240 Y57.240 E0.8170
G92 E0.0000
G1 E-1 F1800 ; custom retraction
;zhop1
G1 X41.092 Y57.372 F6000
G1 X76.908 Y57.240
G1 X76.908 Y58.178
G1 X77.868 Y58.200
G1 Z5.400 F1200
G1 E0 F1800 ; custom un-retraction/prime
G92 E0.0000
G1 X86.800 Y58.200 E0.3209 F2880
G1 X86.800 Y61.800 E0.4502
G1 X77.868 Y61.800 E0.7710
G1 X77.868 Y58.200 E0.9003
G1 X77.388 Y57.720 F6000
G92 E0.0000
G1 X87.280 Y57.720 E0.3553 F2880
G1 X87.280 Y62.280 E0.5191
G1 X77.388 Y62.280 E0.8745
G1 X77.388 Y57.720 E1.0383
G1 X76.908 Y57.240 F6000
G92 E0.0000
G1 X87.760 Y57.240 E0.3898 F2160
G1 X87.760 Y62.760 E0.5881
G1 X76.908 Y62.760 E0.9779
G1 X76.908 Y57.240 E1.1762
G1 X78.423 Y61.452 F6000
G92 E0.0000
G1 X78.216 Y61.245 E0.0131 F3600
G1 X78.216 Y58.548 E0.1342
G1 X79.761 Y58.548 E0.2036
G1 X82.665 Y61.452 E0.3880
G1 X86.452 Y61.452 E0.5581
G1 X86.452 Y60.996 E0.5785
G1 X84.004 Y58.548 E0.7340
G92 E0.0000
G1 E-1 F1800 ; custom retraction
;layer 28, Z = 5.600
;fan28;
G1 Z5.600 F1200
G1 X86.800 Y58.200 F6000
G1 E0 F1800 ; custom un-retraction/prime
G92 E0.0000
G1 X86.800 Y61.800 E0.1293 F2880
G1 X77.727 Y61.800 E0.4552
G1 X77.727 Y58.200 E0.5846
G1 X86.800 Y58.200 E0.9105
G1 X87.280 Y57.720 F6000
G92 E0.0000
G1 X87.280 Y62.280 E0.1638 F2880
G1 X77.247 Y62.280 E0.5242
G1 X77.247 Y57.720 E0.6880
G1 X87.280 Y57.720 E1.0484
G1 X87.760 Y57.240 F6000
G92 E0.0000
G1 X87.760 Y62.760 E0.1983 F2160
G1 X76.767 Y62.760 E0.5932
G1 X76.767 Y57.240 E0.7915
G1 X87.760 Y57.240 E1.1864
G1 X86.452 Y59.004 F6000
G92 E0.0000
G1 X84.004 Y61.452 E0.1555 F3600
G1 X79.761 Y61.452 E0.3460
G1 X82.665 Y58.548 E0.5304
G1 X78.423 Y58.548 E0.7209
G1 X78.075 Y58.896 E0.7430
G92 E0.0000
G1 E-1 F1800 ; custom retraction
;zhop1
G1 X40.273 Y58.200 F6000
G1 Z5.600 F1200
G1 E0 F1800 ; custom un-retraction/prime
G92 E0.0000
G1 X40.273 Y61.800 E0.1293 F2880
G1 X36.200 Y61.800 E0.2756
G1 X36.200 Y58.200 E0.4049
G1 X40.273 Y58.200 E0.5513
G1 X40.753 Y57.720 F6000
G92 E0.0000
G1 X40.753 Y62.280 E0.1638 F2880
G1 X35.720 Y62.280 E0.3446
G1 X35.720 Y57.720 E0.5084
G1 X40.753 Y57.720 E0.6892
G1 X41.233 Y57.240 F6000
G92 E0.0000
G1 X41.233 Y62.760 E0.1983 F2160
G1 X35.240 Y62.760 E0.4136
G1 X35.240 Y57.240 E0.6119
G1 X41.233 Y57.240 E0.8271
G92 E0.0000
G1 E-1 F1800 ; custom retraction
;zhop1
G1 X31.547 Y59.953 F6000
G1 Z5.600 F1200
G1 E0 F1800 ; custom un-retraction/prime
G92 E0.0000
G1 X31.547 Y60.047 E0.0034 F2160
G1 X31.453 Y60.047 E0.0068
G1 X31.453 Y59.953 E0.0102
G1 X31.547 Y59.953 E0.0136
G92 E0.0000
G1 E-1 F1800 ; custom retraction
;layer 29, Z = 5.800
;fan29;
G1 Z5.800 F1200
G1 X31.516 Y59.984 F6000
G1 E0 F1800 ; custom un-retraction/prime
G92 E0.0000
G1 X31.516 Y60.016 E0.0011 F2160
G1 X31.484 Y60.016 E0.0022
G1 X31.484 Y59.984 E0.0034
G1 X31.516 Y59.984 E0.0045
G92 E0.0000
G1 E-1 F1800 ; custom retraction
;zhop1
G1 X35.913 Y59.695 F6000
G1 Z5.800 F1200
G1 E0 F1800 ; custom un-retraction/prime
G92 E0.0000
G1 X36.200 Y59.530 E0.0119 F2880
G1 X36.200 Y58.200 E0.0597
G1 X40.423 Y58.200 E0.2114
G1 X40.423 Y61.800 E0.3407
G1 X36.200 Y61.800 E0.4924
G1 X36.200 Y60.470 E0.5402
G1 X35.913 Y60.305 E0.5521
G1 X35.913 Y59.695 E0.5740
G1 X35.720 Y59.252 F6000
G92 E0.0000
G1 X35.720 Y57.720 E0.0550 F2880
G1 X40.903 Y57.720 E0.2412
G1 X40.903 Y62.280 E0.4050
G1 X35.720 Y62.280 E0.5912
G1 X35.720 Y60.748 E0.6463
G1 X35.433 Y60.583 E0.6582
G1 X35.433 Y59.417 E0.7000
G1 X35.720 Y59.252 E0.7119
G1 X35.240 Y58.974 F6000
G92 E0.0000
G1 X35.240 Y57.240 E0.0623 F2160
G1 X41.383 Y57.240 E0.2830
G1 X41.383 Y62.760 E0.4813
G1 X35.240 Y62.760 E0.7019
G1 X35.240 Y61.026 E0.7642
G1 X34.953 Y60.861 E0.7761
G1 X34.953 Y59.139 E0.8380
G1 X35.240 Y58.974 E0.8499
G92 E0.0000
G1 E-1 F1800 ; custom retraction
;zhop1
G1 X77.577 Y58.200 F6000
G1 Z5.800 F1200
G1 E0 F1800 ; custom un-retraction/prime
G92 E0.0000
G1 X86.800 Y58.200 E0.3313 F2880
G1 X86.800 Y61.800 E0.4606
G1 X77.577 Y61.800 E0.7919
G1 X77.577 Y58.200 E0.9213
G1 X77.097 Y57.720 F6000
G92 E0.0000
G1 X87.280 Y57.720 E0.3658 F2880
G1 X87.280 Y62.280 E0.5296
G1 X77.097 Y62.280 E0.8954
G1 X77.097 Y57.720 E1.0592
G1 X76.617 Y57.240 F6000
G92 E0.0000
G1 X87.760 Y57.240 E0.4003 F2160
G1 X87.760 Y62.760 E0.5986
G1 X76.617 Y62.760 E0.9989
G1 X76.617 Y57.240 E1.1971
G1 X78.423 Y61.452 F6000
G92 E0.0000
G1 X77.925 Y60.954 E0.0316 F3600
G1 X77.925 Y58.548 E0.1397
G1 X79.761 Y58.548 E0.2221
G1 X82.665 Y61.452 E0.4065
G1 X86.452 Y61.452 E0.5766
G1 X86.452 Y60.996 E0.5970
G1 X84.004 Y58.548 E0.7525
G92 E0.0000
G1 E-1 F1800 ; custom retraction
;layer 30, Z = 6.000
;fan30;
G1 Z6.000 F1200
G1 X86.800 Y58.200 F6000
G1 E0 F1800 ; custom un-retraction/prime
G92 E0.0000
G1 X86.800 Y61.800 E0.1293 F2880
G1 X77.413 Y61.800 E0.4665
G1 X77.413 Y58.200 E0.5958
G1 X86.800 Y58.200 E0.9330
G1 X87.280 Y57.720 F6000
G92 E0.0000
G1 X87.280 Y62.280 E0.1638 F2880
G1 X76.933 Y62.280 E0.5355
G1 X76.933 Y57.720 E0.6993
G1 X87.280 Y57.720 E1.0710
G1 X87.760 Y57.240 F6000
G92 E0.0000
G1 X87.760 Y62.760 E0.1983 F2160
G1 X76.453 Y62.760 E0.6044
G1 X76.453 Y57.240 E0.8027
G1 X87.760 Y57.240 E1.2089
G1 X86.452 Y59.004 F6000
G92 E0.0000
G1 X84.004 Y61.452 E0.1555 F3600
G1 X79.761 Y61.452 E0.3460
G1 X82.665 Y58.548 E0.5304
G1 X78.423 Y58.548 E0.7209
G1 X77.761 Y59.210 E0.7629
G92 E0.0000
G1 E-1 F1800 ; custom retraction
;zhop1
G1 X40.587 Y58.200 F6000
G1 Z6.000 F1200
G1 E0 F1800 ; custom un-retraction/prime
G92 E0.0000
G1 X40.587 Y61.800 E0.1293 F2880
G1 X36.200 Y61.800 E0.2869
G1 X36.200 Y60.633 E0.3288
G1 X35.627 Y60.305 E0.3525
G1 X35.627 Y59.695 E0.3744
G1 X36.200 Y59.367 E0.3982
G1 X36.200 Y58.200 E0.4401
G1 X40.587 Y58.200 E0.5976
G1 X41.067 Y57.720 F6000
G92 E0.0000
G1 X41.067 Y62.280 E0.1638 F2880
G1 X35.720 Y62.280 E0.3559
G1 X35.720 Y60.911 E0.4050
G1 X35.147 Y60.583 E0.4288
G1 X35.147 Y59.417 E0.4706
G1 X35.720 Y59.089 E0.4943
G1 X35.720 Y57.720 E0.5435
G1 X41.067 Y57.720 E0.7356
G1 X41.547 Y57.240 F6000
G92 E0.0000
G1 X41.547 Y62.760 E0.1983 F2160
G1 X35.240 Y62.760 E0.4248
G1 X35.240 Y61.189 E0.4813
G1 X34.667 Y60.861 E0.5050
G1 X34.667 Y59.139 E0.5668
G1 X35.240 Y58.810 E0.5905
G1 X35.240 Y57.240 E0.6470
G1 X41.547 Y57.240 E0.8735
G92 E0.0000
G1 E-1 F1800 ; custom retraction
;layer 31, Z = 6.200
;fan31;
G1 Z6.200 F1200
G1 X40.762 Y58.200 F6000
G1 E0 F1800 ; custom un-retraction/prime
G92 E0.0000
G1 X40.762 Y61.800 E0.1293 F2880
G1 X36.200 Y61.800 E0.2932
G1 X36.200 Y60.797 E0.3292
G1 X35.342 Y60.305 E0.3648
G1 X35.342 Y59.695 E0.3867
G1 X36.200 Y59.203 E0.4222
G1 X36.200 Y58.200 E0.4582
G1 X40.762 Y58.200 E0.6221
G1 X41.242 Y57.720 F6000
G92 E0.0000
G1 X41.242 Y62.280 E0.1638 F2880
G1 X35.720 Y62.280 E0.3622
G1 X35.720 Y61.075 E0.4054
G1 X34.862 Y60.583 E0.4410
G1 X34.862 Y59.417 E0.4829
G1 X35.720 Y58.925 E0.5184
G1 X35.720 Y57.720 E0.5617
G1 X41.242 Y57.720 E0.7600
G1 X41.722 Y57.240 F6000
G92 E0.0000
G1 X41.722 Y62.760 E0.1983 F2160
G1 X35.240 Y62.760 E0.4311
G1 X35.240 Y61.353 E0.4817
G1 X34.382 Y60.861 E0.5172
G1 X34.382 Y59.139 E0.5791
G1 X35.240 Y58.647 E0.6146
G1 X35.240 Y57.240 E0.6651
G1 X41.722 Y57.240 E0.8980
G1 X40.465 Y58.794 F6000
G92 E0.0000
G1 X40.474 Y58.802 E0.0004 F2880
G1 X40.474 Y59.481 E0.0248
G1 X40.465 Y59.472 E0.0253
G1 X40.465 Y60.151 E0.0497
G1 X40.474 Y60.160 E0.0501
G1 X40.474 Y60.839 E0.0745
G1 X40.465 Y60.830 E0.0749
G1 X40.469 Y61.512 E0.0995
G1 X35.931 Y59.689 F6000
G92 E0.0000
G1 X36.008 Y59.767 E0.0039 F2880
G1 X36.008 Y60.355 E0.0251
G1 X35.796 Y60.233 E0.0339
G1 X35.630 Y60.067 E0.0423
G92 E0.0000
G1 E-1 F1800 ; custom retraction
;zhop1
G1 X41.722 Y60.321 F6000
G1 X41.722 Y62.760
G1 X76.278 Y62.760
G1 X76.278 Y61.760
G1 X77.238 Y61.800
G1 Z6.200 F1200
G1 E0 F1800 ; custom un-retraction/prime
G92 E0.0000
G1 X77.238 Y58.200 E0.1293 F2880
G1 X86.800 Y58.200 E0.4728
G1 X86.800 Y61.800 E0.6021
G1 X77.238 Y61.800 E0.9456
G1 X76.758 Y62.280 F6000
G92 E0.0000
G1 X76.758 Y57.720 E0.1638 F2880
G1 X87.280 Y57.720 E0.5418
G1 X87.280 Y62.280 E0.7056
G1 X76.758 Y62.280 E1.0835
G1 X76.278 Y62.760 F6000
G92 E0.0000
G1 X76.278 Y57.240 E0.1983 F2160
G1 X87.760 Y57.240 E0.6107
G1 X87.760 Y62.760 E0.8090
G1 X76.278 Y62.760 E1.2215
G1 X77.535 Y61.243 F6000
G92 E0.0000
G1 X77.526 Y61.234 E0.0004 F2880
G1 X77.526 Y60.555 E0.0248
G1 X77.535 Y60.564 E0.0253
G1 X77.535 Y59.885 E0.0497
G1 X77.526 Y59.877 E0.0501
G1 X77.526 Y59.198 E0.0745
G1 X77.535 Y59.206 E0.0749
G1 X77.535 Y58.528 E0.0993
G1 X77.526 Y58.519 E0.0998
G1 X78.423 Y61.452 F6000
G92 E0.0000
G1 X78.075 Y61.104 E0.0221 F3600
G1 X78.075 Y58.548 E0.1369
G1 X79.761 Y58.548 E0.2126
G1 X82.665 Y61.452 E0.3970
G1 X86.452 Y61.452 E0.5670
G1 X86.452 Y60.996 E0.5875
G1 X84.004 Y58.548 E0.7430
G92 E0.0000
G1 E-1 F1800 ; custom retraction
;layer 32, Z = 6.400
;fan32;
G1 Z6.400 F1200
G1 X86.800 Y58.200 F6000
G1 E0 F1800 ; custom un-retraction/prime
G92 E0.0000
G1 X86.800 Y61.800 E0.1293 F2880
G1 X77.051 Y61.800 E0.4795
G1 X77.051 Y58.200 E0.6088
G1 X86.800 Y58.200 E0.9590
G1 X87.280 Y57.720 F6000
G92 E0.0000
G1 X87.280 Y62.280 E0.1638 F2880
G1 X76.571 Y62.280 E0.5485
G1 X76.571 Y57.720 E0.7123
G1 X87.280 Y57.720 E1.0970
G1 X87.760 Y57.240 F6000
G92 E0.0000
G1 X87.760 Y62.760 E0.1983 F2160
G1 X76.091 Y62.760 E0.6175
G1 X76.091 Y57.240 E0.8157
G1 X87.760 Y57.240 E1.2349
G1 X77.339 Y58.953 F6000
G92 E0.0000
G1 X77.385 Y58.907 E0.0023 F2880
G1 X77.385 Y59.586 E0.0267
G1 X77.339 Y59.632 E0.0290
G1 X77.339 Y60.311 E0.0534
G1 X77.385 Y60.265 E0.0557
G1 X77.385 Y60.944 E0.0801
G1 X77.339 Y60.989 E0.0825
G1 X77.925 Y59.046 F6000
G92 E0.0000
G1 X78.423 Y58.548 E0.0316 F3600
G1 X82.665 Y58.548 E0.2221
G1 X79.761 Y61.452 E0.4065
G1 X84.004 Y61.452 E0.5970
G1 X86.452 Y59.004 E0.7525
G92 E0.0000
G1 E-1 F1800 ; custom retraction
;zhop1
G1 X40.949 Y58.200 F6000
G1 Z6.400 F1200
G1 E0 F1800 ; custom un-retraction/prime
G92 E0.0000
G1 X40.949 Y61.800 E0.1293 F2880
G1 X36.200 Y61.800 E0.2999
G1 X36.200 Y60.961 E0.3300
G1 X35.056 Y60.305 E0.3774
G1 X35.056 Y59.695 E0.3993
G1 X36.200 Y59.039 E0.4467
G1 X36.200 Y58.200 E0.4768
G1 X40.949 Y58.200 E0.6474
G1 X41.429 Y57.720 F6000
G92 E0.0000
G1 X41.429 Y62.280 E0.1638 F2880
G1 X35.720 Y62.280 E0.3689
G1 X35.720 Y61.239 E0.4063
G1 X34.576 Y60.583 E0.4536
G1 X34.576 Y59.417 E0.4955
G1 X35.720 Y58.761 E0.5429
G1 X35.720 Y57.720 E0.5803
G1 X41.429 Y57.720 E0.7854
G1 X41.909 Y57.240 F6000
G92 E0.0000
G1 X41.909 Y62.760 E0.1983 F2160
G1 X35.240 Y62.760 E0.4378
G1 X35.240 Y61.517 E0.4825
G1 X34.096 Y60.861 E0.5299
G1 X34.096 Y59.139 E0.5917
G1 X35.240 Y58.483 E0.6391
G1 X35.240 Y57.240 E0.6837
G1 X41.909 Y57.240 E0.9233
G1 X40.615 Y59.020 F6000
G92 E0.0000
G1 X40.661 Y58.974 E0.0023 F2880
G1 X40.661 Y59.653 E0.0267
G1 X40.615 Y59.699 E0.0290
G1 X40.615 Y60.378 E0.0534
G1 X40.661 Y60.332 E0.0557
G1 X40.661 Y61.011 E0.0801
G1 X40.615 Y61.056 E0.0825
G1 X35.721 Y59.842 F6000
G92 E0.0000
G1 X35.395 Y60.167 E0.0166 F2880
G92 E0.0000
G1 E-1 F1800 ; custom retraction
;layer 33, Z = 6.600
;fan33;
G1 Z6.600 F1200
G1 X34.770 Y60.305 F6000
G1 E0 F1800 ; custom un-retraction/prime
G92 E0.0000
G1 X34.770 Y59.695 E0.0219 F2880
G1 X36.200 Y58.875 E0.0811
G1 X36.200 Y58.200 E0.1054
G1 X41.150 Y58.200 E0.2832
G1 X41.150 Y61.800 E0.4125
G1 X36.200 Y61.800 E0.5903
G1 X36.200 Y61.125 E0.6146
G1 X34.770 Y60.305 E0.6738
G1 X34.290 Y60.583 F6000
G92 E0.0000
G1 X34.290 Y59.417 E0.0419 F2880
G1 X35.720 Y58.597 E0.1011
G1 X35.720 Y57.720 E0.1326
G1 X41.630 Y57.720 E0.3449
G1 X41.630 Y62.280 E0.5087
G1 X35.720 Y62.280 E0.7210
G1 X35.720 Y61.403 E0.7525
G1 X34.290 Y60.583 E0.8117
G1 X33.810 Y60.861 F6000
G92 E0.0000
G1 X33.810 Y59.139 E0.0619 F2160
G1 X35.240 Y58.319 E0.1211
G1 X35.240 Y57.240 E0.1598
G1 X42.110 Y57.240 E0.4066
G1 X42.110 Y62.760 E0.6049
G1 X35.240 Y62.760 E0.8517
G1 X35.240 Y61.681 E0.8904
G1 X33.810 Y60.861 E0.9496
G1 X35.291 Y59.729 F6000
G92 E0.0000
G1 X35.435 Y59.873 E0.0073 F2880
G1 X40.839 Y58.488 F6000
G92 E0.0000
G1 X40.862 Y58.512 E0.0012 F2880
G1 X40.862 Y59.190 E0.0256
G1 X40.779 Y59.107 E0.0298
G1 X40.779 Y59.786 E0.0542
G1 X40.862 Y59.869 E0.0584
G1 X40.862 Y60.548 E0.0828
G1 X40.779 Y60.465 E0.0870
G1 X40.779 Y61.144 E0.1114
G1 X40.862 Y61.227 E0.1156
G92 E0.0000
G1 E-1 F1800 ; custom retraction
;zhop1
G1 X76.850 Y61.800 F6000
G1 Z6.600 F1200
G1 E0 F1800 ; custom un-retraction/prime
G92 E0.0000
G1 X76.850 Y58.200 E0.1293 F2880
G1 X86.800 Y58.200 E0.4867
G1 X86.800 Y61.800 E0.6161
G1 X76.850 Y61.800 E0.9735
G1 X76.370 Y62.280 F6000
G92 E0.0000
G1 X76.370 Y57.720 E0.1638 F2880
G1 X87.280 Y57.720 E0.5557
G1 X87.280 Y62.280 E0.7195
G1 X76.370 Y62.280 E1.1114
G1 X75.890 Y62.760 F6000
G92 E0.0000
G1 X75.890 Y57.240 E0.1983 F2160
G1 X87.760 Y57.240 E0.6247
G1 X87.760 Y62.760 E0.8230
G1 X75.890 Y62.760 E1.2493
G1 X77.138 Y60.846 F6000
G92 E0.0000
G1 X77.221 Y60.929 E0.0042 F2880
G1 X77.221 Y60.250 E0.0286
G1 X77.138 Y60.167 E0.0328
G1 X77.138 Y59.488 E0.0572
G1 X77.221 Y59.571 E0.0614
G1 X77.221 Y58.893 E0.0858
G1 X77.138 Y58.810 E0.0900
G1 X78.423 Y61.452 F6000
G92 E0.0000
G1 X77.761 Y60.790 E0.0420 F3600
G1 X77.761 Y58.548 E0.1427
G1 X79.761 Y58.548 E0.2325
G1 X82.665 Y61.452 E0.4169
G1 X86.452 Y61.452 E0.5870
G1 X86.452 Y60.996 E0.6074
G1 X84.004 Y58.548 E0.7629
G92 E0.0000
G1 E-1 F1800 ; custom retraction
;layer 34, Z = 6.800
;fan34;
G1 Z6.800 F1200
G1 X86.800 Y58.200 F6000
G1 E0 F1800 ; custom un-retraction/prime
G92 E0.0000
G1 X86.800 Y61.800 E0.1293 F2880
G1 X76.633 Y61.800 E0.4945
G1 X76.633 Y58.200 E0.6238
G1 X86.800 Y58.200 E0.9890
G1 X87.280 Y57.720 F6000
G92 E0.0000
G1 X87.280 Y62.280 E0.1638 F2880
G1 X76.153 Y62.280 E0.5635
G1 X76.153 Y57.720 E0.7273
G1 X87.280 Y57.720 E1.1270
G1 X87.760 Y57.240 F6000
G92 E0.0000
G1 X87.760 Y62.760 E0.1983 F2160
G1 X75.673 Y62.760 E0.6325
G1 X75.673 Y57.240 E0.8307
G1 X87.760 Y57.240 E1.2649
G1 X76.921 Y58.692 F6000
G92 E0.0000
G1 X77.046 Y58.567 E0.0063 F2880
G1 X77.046 Y59.246 E0.0307
G1 X76.921 Y59.371 E0.0371
G1 X76.921 Y60.049 E0.0614
G1 X77.046 Y59.925 E0.0678
G1 X77.046 Y60.603 E0.0922
G1 X76.921 Y60.728 E0.0985
G1 X76.921 Y61.407 E0.1229
G1 X77.046 Y61.282 E0.1292
G1 X77.586 Y59.385 F6000
G92 E0.0000
G1 X78.423 Y58.548 E0.0531 F3600
G1 X82.665 Y58.548 E0.2436
G1 X79.761 Y61.452 E0.4280
G1 X84.004 Y61.452 E0.6185
G1 X86.452 Y59.004 E0.7740
G92 E0.0000
G1 E-1 F1800 ; custom retraction
;zhop1
G1 X41.367 Y58.200 F6000
G1 Z6.800 F1200
G1 E0 F1800 ; custom un-retraction/prime
G92 E0.0000
G1 X41.367 Y61.800 E0.1293 F2880
G1 X36.200 Y61.800 E0.3149
G1 X36.200 Y61.289 E0.3333
G1 X34.485 Y60.305 E0.4043
G1 X34.485 Y59.695 E0.4262
G1 X36.200 Y58.711 E0.4972
G1 X36.200 Y58.200 E0.5156
G1 X41.367 Y58.200 E0.7012
G1 X41.847 Y57.720 F6000
G92 E0.0000
G1 X41.847 Y62.280 E0.1638 F2880
G1 X35.720 Y62.280 E0.3839
G1 X35.720 Y61.567 E0.4095
G1 X34.005 Y60.583 E0.4805
G1 X34.005 Y59.417 E0.5224
G1 X35.720 Y58.433 E0.5934
G1 X35.720 Y57.720 E0.6191
G1 X41.847 Y57.720 E0.8391
G1 X42.327 Y57.240 F6000
G92 E0.0000
G1 X42.327 Y62.760 E0.1983 F2160
G1 X35.240 Y62.760 E0.4529
G1 X35.240 Y61.845 E0.4857
G1 X33.525 Y60.861 E0.5568
G1 X33.525 Y59.139 E0.6186
G1 X35.240 Y58.155 E0.6896
G1 X35.240 Y57.240 E0.7225
G1 X42.327 Y57.240 E0.9771
G1 X40.954 Y58.681 F6000
G92 E0.0000
G1 X41.079 Y58.556 E0.0063 F2880
G1 X41.079 Y59.235 E0.0307
G1 X40.954 Y59.360 E0.0371
G1 X40.954 Y60.039 E0.0614
G1 X41.079 Y59.914 E0.0678
G1 X41.079 Y60.593 E0.0922
G1 X40.954 Y60.718 E0.0985
G1 X40.954 Y61.397 E0.1229
G1 X41.079 Y61.272 E0.1292
G1 X35.150 Y59.734 F6000
G92 E0.0000
G1 X34.773 Y60.111 E0.0191 F2880
G92 E0.0000
G1 E-1 F1800 ; custom retraction
;layer 35, Z = 7.000
;fan35;
G1 Z7.000 F1200
G1 X34.199 Y60.305 F6000
G1 E0 F1800 ; custom un-retraction/prime
G92 E0.0000
G1 X34.199 Y59.695 E0.0219 F2880
G1 X36.200 Y58.547 E0.1048
G1 X36.200 Y58.200 E0.1172
G1 X41.602 Y58.200 E0.3113
G1 X41.602 Y61.800 E0.4406
G1 X36.200 Y61.800 E0.6346
G1 X36.200 Y61.453 E0.6471
G1 X34.199 Y60.305 E0.7300
G1 X33.719 Y60.583 F6000
G92 E0.0000
G1 X33.719 Y59.417 E0.0419 F2880
G1 X35.720 Y58.269 E0.1247
G1 X35.720 Y57.720 E0.1445
G1 X42.082 Y57.720 E0.3730
G1 X42.082 Y62.280 E0.5368
G1 X35.720 Y62.280 E0.7653
G1 X35.720 Y61.731 E0.7850
G1 X33.719 Y60.583 E0.8679
G1 X33.239 Y60.861 F6000
G92 E0.0000
G1 X33.239 Y59.139 E0.0619 F2160
G1 X35.240 Y57.991 E0.1447
G1 X35.240 Y57.240 E0.1717
G1 X42.562 Y57.240 E0.4347
G1 X42.562 Y62.760 E0.6330
G1 X35.240 Y62.760 E0.8960
G1 X35.240 Y62.009 E0.9230
G1 X33.239 Y60.861 E1.0058
G1 X34.651 Y59.768 F6000
G92 E0.0000
G1 X34.864 Y59.980 E0.0108 F2880
G1 X41.141 Y58.791 F6000
G92 E0.0000
G1 X41.314 Y58.963 E0.0088 F2880
G1 X41.314 Y59.642 E0.0331
G1 X41.141 Y59.469 E0.0419
G1 X41.141 Y60.148 E0.0663
G1 X41.314 Y60.321 E0.0751
G1 X41.314 Y61.000 E0.0994
G1 X41.141 Y60.827 E0.1082
G1 X41.141 Y61.506 E0.1326
G1 X41.147 Y61.512 E0.1329
G92 E0.0000
G1 E-1 F1800 ; custom retraction
;zhop1
G1 X76.398 Y61.800 F6000
G1 Z7.000 F1200
G1 E0 F1800 ; custom un-retraction/prime
G92 E0.0000
G1 X76.398 Y58.200 E0.1293 F2880
G1 X86.800 Y58.200 E0.5030
G1 X86.800 Y61.800 E0.6323
G1 X76.398 Y61.800 E1.0059
G1 X75.918 Y62.280 F6000
G92 E0.0000
G1 X75.918 Y57.720 E0.1638 F2880
G1 X87.280 Y57.720 E0.5719
G1 X87.280 Y62.280 E0.7357
G1 X75.918 Y62.280 E1.1438
G1 X75.438 Y62.760 F6000
G92 E0.0000
G1 X75.438 Y57.240 E0.1983 F2160
G1 X87.760 Y57.240 E0.6409
G1 X87.760 Y62.760 E0.8392
G1 X75.438 Y62.760 E1.2818
G1 X76.859 Y61.246 F6000
G92 E0.0000
G1 X76.686 Y61.073 E0.0088 F2880
G1 X76.686 Y60.395 E0.0331
G1 X76.859 Y60.567 E0.0419
G1 X76.859 Y59.888 E0.0663
G1 X76.686 Y59.716 E0.0750
G1 X76.686 Y59.037 E0.0994
G1 X76.859 Y59.209 E0.1082
G1 X76.859 Y58.531 E0.1326
G1 X76.816 Y58.488 E0.1347
G1 X78.423 Y61.452 F6000
G92 E0.0000
G1 X77.399 Y60.428 E0.0650 F3600
G1 X77.399 Y58.548 E0.1494
G1 X79.761 Y58.548 E0.2555
G1 X82.665 Y61.452 E0.4399
G1 X86.452 Y61.452 E0.6099
G1 X86.452 Y60.996 E0.6304
G1 X84.004 Y58.548 E0.7859
G92 E0.0000
G1 E-1 F1800 ; custom retraction
;layer 36, Z = 7.200
;fan36;
G1 Z7.200 F1200
G1 X86.800 Y58.200 F6000
G1 E0 F1800 ; custom un-retraction/prime
G92 E0.0000
G1 X86.800 Y61.800 E0.1293 F2880
G1 X76.142 Y61.800 E0.5122
G1 X76.142 Y58.200 E0.6415
G1 X86.800 Y58.200 E1.0243
G1 X87.280 Y57.720 F6000
G92 E0.0000
G1 X87.280 Y62.280 E0.1638 F2880
G1 X75.662 Y62.280 E0.5811
G1 X75.662 Y57.720 E0.7449
G1 X87.280 Y57.720 E1.1622
G1 X87.760 Y57.240 F6000
G92 E0.0000
G1 X87.760 Y62.760 E0.1983 F2160
G1 X75.182 Y62.760 E0.6501
G1 X75.182 Y57.240 E0.8484
G1 X87.760 Y57.240 E1.3002
G1 X76.430 Y58.504 F6000
G92 E0.0000
G1 X76.446 Y58.488 E0.0008 F2880
G1 X76.658 Y58.488 E0.0084
G1 X76.658 Y58.955 E0.0252
G1 X76.430 Y59.183 E0.0367
G1 X76.430 Y59.861 E0.0611
G1 X76.658 Y59.634 E0.0727
G1 X76.658 Y60.313 E0.0971
G1 X76.430 Y60.540 E0.1086
G1 X76.430 Y61.219 E0.1330
G1 X76.658 Y60.992 E0.1446
G1 X77.198 Y59.773 F6000
G92 E0.0000
G1 X78.423 Y58.548 E0.0778 F3600
G1 X82.665 Y58.548 E0.2683
G1 X79.761 Y61.452 E0.4527
G1 X84.004 Y61.452 E0.6432
G1 X86.452 Y59.004 E0.7986
G92 E0.0000
G1 E-1 F1800 ; custom retraction
;zhop1
G1 X41.858 Y58.200 F6000
G1 Z7.200 F1200
G1 E0 F1800 ; custom un-retraction/prime
G92 E0.0000
G1 X41.858 Y61.800 E0.1293 F2880
G1 X36.200 Y61.800 E0.3325
G1 X36.200 Y61.616 E0.3391
G1 X33.913 Y60.305 E0.4338
G1 X33.913 Y59.695 E0.4557
G1 X36.200 Y58.384 E0.5504
G1 X36.200 Y58.200 E0.5570
G1 X41.858 Y58.200 E0.7602
G1 X42.338 Y57.720 F6000
G92 E0.0000
G1 X42.338 Y62.280 E0.1638 F2880
G1 X35.720 Y62.280 E0.4015
G1 X35.720 Y61.894 E0.4154
G1 X33.433 Y60.583 E0.5100
G1 X33.433 Y59.417 E0.5519
G1 X35.720 Y58.106 E0.6466
G1 X35.720 Y57.720 E0.6605
G1 X42.338 Y57.720 E0.8982
G1 X42.818 Y57.240 F6000
G92 E0.0000
G1 X42.818 Y62.760 E0.1983 F2160
G1 X35.240 Y62.760 E0.4705
G1 X35.240 Y62.172 E0.4916
G1 X32.953 Y60.861 E0.5863
G1 X32.953 Y59.139 E0.6481
G1 X35.240 Y57.828 E0.7428
G1 X35.240 Y57.240 E0.7639
G1 X42.818 Y57.240 E1.0361
G1 X41.342 Y58.972 F6000
G92 E0.0000
G1 X41.570 Y58.744 E0.0116 F2880
G1 X41.570 Y59.423 E0.0359
G1 X41.342 Y59.651 E0.0475
G1 X41.342 Y60.330 E0.0719
G1 X41.570 Y60.102 E0.0834
G1 X41.570 Y60.781 E0.1078
G1 X41.342 Y61.008 E0.1194
G1 X41.342 Y61.512 E0.1375
G1 X41.517 Y61.512 E0.1438
G1 X41.570 Y61.460 E0.1464
G1 X34.547 Y60.336 F6000
G92 E0.0000
G1 X34.578 Y60.305 E0.0016 F2880
G1 X34.578 Y59.646 E0.0253
G1 X34.533 Y59.672 E0.0271
G1 X34.201 Y60.003 E0.0440
G1 X35.118 Y59.426 F6000
G92 E0.0000
G1 X35.167 Y59.377 E0.0031 F3600
G1 X36.548 Y58.585 E0.0746
G1 X36.548 Y58.548 E0.0762
G1 X40.239 Y58.548 E0.2420
G1 X37.335 Y61.452 E0.4264
G92 E0.0000
G1 E-1 F1800 ; custom retraction
;layer 37, Z = 7.400
;fan37;
G1 Z7.400 F1200
G1 X36.234 Y61.800 F6000
G1 E0 F1800 ; custom un-retraction/prime
G92 E0.0000
G1 X33.628 Y60.305 E0.1079 F2880
G1 X33.628 Y59.695 E0.1298
G1 X36.234 Y58.200 E0.2378
G1 X42.139 Y58.200 E0.4499
G1 X42.139 Y61.800 E0.5792
G1 X36.234 Y61.800 E0.7913
G1 X35.720 Y62.058 F6000
G92 E0.0000
G1 X33.148 Y60.583 E0.1065 F2880
G1 X33.148 Y59.417 E0.1484
G1 X35.720 Y57.942 E0.2549
G1 X35.720 Y57.720 E0.2629
G1 X42.619 Y57.720 E0.5107
G1 X42.619 Y62.280 E0.6745
G1 X35.720 Y62.280 E0.9223
G1 X35.720 Y62.058 E0.9303
G1 X35.240 Y62.336 F6000
G92 E0.0000
G1 X32.668 Y60.861 E0.1065 F2160
G1 X32.668 Y59.139 E0.1684
G1 X35.240 Y57.664 E0.2749
G1 X35.240 Y57.240 E0.2901
G1 X43.099 Y57.240 E0.5724
G1 X43.099 Y62.760 E0.7707
G1 X35.240 Y62.760 E1.0530
G1 X35.240 Y62.336 E1.0682
G1 X34.293 Y60.088 F6000
G92 E0.0000
G1 X34.012 Y59.807 E0.0143 F2880
G1 X41.559 Y58.529 F6000
G92 E0.0000
G1 X41.851 Y58.821 E0.0148 F2880
G1 X41.851 Y59.500 E0.0392
G1 X41.559 Y59.208 E0.0540
G1 X41.559 Y59.887 E0.0784
G1 X41.851 Y60.179 E0.0933
G1 X41.851 Y60.858 E0.1176
G1 X41.559 Y60.566 E0.1325
G1 X41.559 Y61.245 E0.1569
G1 X41.826 Y61.512 E0.1704
G1 X37.335 Y58.548 F6000
G92 E0.0000
G1 X40.239 Y61.452 E0.1844 F3600
G1 X36.327 Y61.452 E0.3600
G1 X35.551 Y61.007 E0.4002
G1 X34.833 Y60.289 E0.4458
G92 E0.0000
G1 E-1 F1800 ; custom retraction
;zhop1
G1 X43.099 Y60.593 F6000
G1 X43.099 Y62.760
G1 X74.901 Y62.760
G1 X74.901 Y61.765
G1 X75.861 Y61.800
G1 Z7.400 F1200
G1 E0 F1800 ; custom un-retraction/prime
G92 E0.0000
G1 X75.861 Y58.200 E0.1293 F2880
G1 X86.800 Y58.200 E0.5222
G1 X86.800 Y61.800 E0.6516
G1 X75.861 Y61.800 E1.0445
G1 X75.381 Y62.280 F6000
G92 E0.0000
G1 X75.381 Y57.720 E0.1638 F2880
G1 X87.280 Y57.720 E0.5912
G1 X87.280 Y62.280 E0.7550
G1 X75.381 Y62.280 E1.1824
G1 X74.901 Y62.760 F6000
G92 E0.0000
G1 X74.901 Y57.240 E0.1983 F2160
G1 X87.760 Y57.240 E0.6602
G1 X87.760 Y62.760 E0.8585
G1 X74.901 Y62.760 E1.3204
G1 X76.441 Y61.507 F6000
G92 E0.0000
G1 X76.149 Y61.215 E0.0148 F2880
G1 X76.149 Y60.536 E0.0392
G1 X76.441 Y60.828 E0.0540
G1 X76.441 Y60.149 E0.0784
G1 X76.149 Y59.857 E0.0933
G1 X76.149 Y59.179 E0.1176
G1 X76.441 Y59.471 E0.1325
G1 X76.441 Y58.792 E0.1569
G1 X76.149 Y58.500 E0.1717
G1 X78.423 Y61.452 F6000
G92 E0.0000
G1 X76.981 Y60.011 E0.0915 F3600
G1 X76.981 Y58.548 E0.1572
G1 X79.761 Y58.548 E0.2820
G1 X82.665 Y61.452 E0.4664
G1 X86.452 Y61.452 E0.6365
G1 X86.452 Y60.996 E0.6569
G1 X84.004 Y58.548 E0.8124
G92 E0.0000
G1 E-1 F1800 ; custom retraction
;layer 38, Z = 7.600
;fan38;
G1 Z7.600 F1200
G1 X86.800 Y58.200 F6000
G1 E0 F1800 ; custom un-retraction/prime
G92 E0.0000
G1 X86.800 Y61.800 E0.1293 F2880
G1 X75.550 Y61.800 E0.5334
G1 X75.550 Y58.200 E0.6627
G1 X86.800 Y58.200 E1.0669
G1 X87.280 Y57.720 F6000
G92 E0.0000
G1 X87.280 Y62.280 E0.1638 F2880
G1 X75.070 Y62.280 E0.6024
G1 X75.070 Y57.720 E0.7662
G1 X87.280 Y57.720 E1.2048
G1 X87.760 Y57.240 F6000
G92 E0.0000
G1 X87.760 Y62.760 E0.1983 F2160
G1 X74.590 Y62.760 E0.6714
G1 X74.590 Y57.240 E0.8697
G1 X87.760 Y57.240 E1.3427
G1 X75.838 Y59.096 F6000
G92 E0.0000
G1 X76.206 Y58.728 E0.0187 F2880
G1 X76.206 Y59.407 E0.0431
G1 X75.838 Y59.775 E0.0618
G1 X75.838 Y60.454 E0.0862
G1 X76.206 Y60.085 E0.1049
G1 X76.206 Y60.764 E0.1293
G1 X75.838 Y61.133 E0.1480
G1 X75.838 Y61.512 E0.1617
G1 X76.137 Y61.512 E0.1724
G1 X76.206 Y61.443 E0.1759
G1 X76.746 Y60.224 F6000
G92 E0.0000
G1 X78.423 Y58.548 E0.1064 F3600
G1 X82.665 Y58.548 E0.2969
G1 X79.761 Y61.452 E0.4813
G1 X84.004 Y61.452 E0.6718
G1 X86.452 Y59.004 E0.8273
G92 E0.0000
G1 E-1 F1800 ; custom retraction
;zhop1
G1 X42.450 Y58.200 F6000
G1 Z7.600 F1200
G1 E0 F1800 ; custom un-retraction/prime
G92 E0.0000
G1 X42.450 Y61.800 E0.1293 F2880
G1 X35.949 Y61.800 E0.3629
G1 X33.342 Y60.305 E0.4708
G1 X33.342 Y59.695 E0.4927
G1 X35.949 Y58.200 E0.6006
G1 X42.450 Y58.200 E0.8342
G1 X42.930 Y57.720 F6000
G92 E0.0000
G1 X42.930 Y62.280 E0.1638 F2880
G1 X35.821 Y62.280 E0.4192
G1 X32.862 Y60.583 E0.5417
G1 X32.862 Y59.417 E0.5836
G1 X35.821 Y57.720 E0.7061
G1 X42.930 Y57.720 E0.9615
G1 X43.410 Y57.240 F6000
G92 E0.0000
G1 X43.410 Y62.760 E0.1983 F2160
G1 X35.240 Y62.760 E0.4918
G1 X35.240 Y62.500 E0.5011
G1 X32.382 Y60.861 E0.6194
G1 X32.382 Y59.139 E0.6813
G1 X35.240 Y57.500 E0.7996
G1 X35.240 Y57.240 E0.8090
G1 X43.410 Y57.240 E1.1025
G1 X41.794 Y58.520 F6000
G92 E0.0000
G1 X41.826 Y58.488 E0.0017 F2880
G1 X42.162 Y58.488 E0.0137
G1 X42.162 Y58.831 E0.0260
G1 X41.794 Y59.199 E0.0448
G1 X41.794 Y59.878 E0.0691
G1 X42.162 Y59.510 E0.0879
G1 X42.162 Y60.188 E0.1122
G1 X41.794 Y60.557 E0.1310
G1 X41.794 Y61.236 E0.1553
G1 X42.162 Y60.867 E0.1741
G1 X33.908 Y60.297 F6000
G92 E0.0000
G1 X34.007 Y60.198 E0.0051 F2880
G1 X34.007 Y59.646 E0.0249
G1 X33.710 Y59.816 E0.0372
G1 X33.630 Y59.896 E0.0412
G1 X34.547 Y59.997 F6000
G92 E0.0000
G1 X35.935 Y58.609 E0.0881 F3600
G1 X36.042 Y58.548 E0.0936
G1 X40.239 Y58.548 E0.2821
G1 X37.335 Y61.452 E0.4665
G92 E0.0000
G1 E-1 F1800 ; custom retraction
;layer 39, Z = 7.800
;fan39;
G1 Z7.800 F1200
G1 X35.663 Y61.800 F6000
G1 E0 F1800 ; custom un-retraction/prime
G92 E0.0000
G1 X33.057 Y60.305 E0.1079 F2880
G1 X33.057 Y59.695 E0.1298
G1 X35.663 Y58.200 E0.2378
G1 X42.799 Y58.200 E0.4941
G1 X42.799 Y61.800 E0.6234
G1 X35.663 Y61.800 E0.8797
G1 X35.535 Y62.280 F6000
G92 E0.0000
G1 X32.577 Y60.583 E0.1225 F2880
G1 X32.577 Y59.417 E0.1644
G1 X35.535 Y57.720 E0.2869
G1 X43.279 Y57.720 E0.5651
G1 X43.279 Y62.280 E0.7289
G1 X35.535 Y62.280 E1.0070
G1 X35.240 Y62.664 F6000
G92 E0.0000
G1 X32.097 Y60.861 E0.1302 F2160
G1 X32.097 Y59.139 E0.1920
G1 X35.240 Y57.336 E0.3222
G1 X35.240 Y57.240 E0.3256
G1 X43.759 Y57.240 E0.6316
G1 X43.759 Y62.760 E0.8299
G1 X35.240 Y62.760 E1.1359
G1 X35.240 Y62.664 E1.1394
G1 X33.721 Y60.196 F6000
G92 E0.0000
G1 X33.372 Y59.846 E0.0177 F2880
G1 X42.196 Y58.488 F6000
G92 E0.0000
G1 X42.511 Y58.802 E0.0160 F2880
G1 X42.511 Y59.481 E0.0404
G1 X42.050 Y59.020 E0.0638
G1 X42.050 Y59.699 E0.0882
G1 X42.511 Y60.160 E0.1116
G1 X42.511 Y60.839 E0.1360
G1 X42.050 Y60.378 E0.1594
G1 X42.050 Y61.057 E0.1838
G1 X42.505 Y61.512 E0.2069
G1 X37.335 Y58.548 F6000
G92 E0.0000
G1 X40.239 Y61.452 E0.1844 F3600
G1 X35.996 Y61.452 E0.3749
G1 X34.261 Y59.717 E0.4851
G92 E0.0000
G1 E-1 F1800 ; custom retraction
;zhop1
G1 X43.759 Y59.365 F6000
G1 X43.759 Y57.240
G1 X74.241 Y57.240
G1 X74.241 Y58.236
G1 X75.201 Y58.200
G1 Z7.800 F1200
G1 E0 F1800 ; custom un-retraction/prime
G92 E0.0000
G1 X86.800 Y58.200 E0.4166 F2880
G1 X86.800 Y61.800 E0.5460
G1 X75.201 Y61.800 E0.9626
G1 X75.201 Y58.200 E1.0919
G1 X74.721 Y57.720 F6000
G92 E0.0000
G1 X87.280 Y57.720 E0.4511 F2880
G1 X87.280 Y62.280 E0.6149
G1 X74.721 Y62.280 E1.0660
G1 X74.721 Y57.720 E1.2298
G1 X74.241 Y57.240 F6000
G92 E0.0000
G1 X87.760 Y57.240 E0.4856 F2160
G1 X87.760 Y62.760 E0.6839
G1 X74.241 Y62.760 E1.1695
G1 X74.241 Y57.240 E1.3678
G1 X75.489 Y58.519 F6000
G92 E0.0000
G1 X75.950 Y58.980 E0.0234 F2880
G1 X75.950 Y59.659 E0.0478
G1 X75.489 Y59.197 E0.0712
G1 X75.489 Y59.876 E0.0956
G1 X75.950 Y60.337 E0.1190
G1 X75.950 Y61.016 E0.1434
G1 X75.489 Y60.555 E0.1668
G1 X75.489 Y61.234 E0.1912
G1 X75.767 Y61.512 E0.2053
G1 X78.423 Y61.452 F6000
G92 E0.0000
G1 X76.490 Y59.520 E0.1227 F3600
G1 X76.490 Y58.548 E0.1663
G1 X79.761 Y58.548 E0.3132
G1 X82.665 Y61.452 E0.4976
G1 X86.452 Y61.452 E0.6676
G1 X86.452 Y60.996 E0.6881
G1 X84.004 Y58.548 E0.8436
G92 E0.0000
G1 E-1 F1800 ; custom retraction
;layer 40, Z = 8.000
;fan40;
G1 Z8.000 F1200
G1 X86.800 Y58.200 F6000
G1 E0 F1800 ; custom un-retraction/prime
G92 E0.0000
G1 X86.800 Y61.800 E0.1293 F2880
G1 X74.806 Y61.800 E0.5601
G1 X74.806 Y58.200 E0.6895
G1 X86.800 Y58.200 E1.1203
G1 X87.280 Y57.720 F6000
G92 E0.0000
G1 X87.280 Y62.280 E0.1638 F2880
G1 X74.326 Y62.280 E0.6291
G1 X74.326 Y57.720 E0.7929
G1 X87.280 Y57.720 E1.2582
G1 X87.760 Y57.240 F6000
G92 E0.0000
G1 X87.760 Y62.760 E0.1983 F2160
G1 X73.846 Y62.760 E0.6981
G1 X73.846 Y57.240 E0.8964
G1 X87.760 Y57.240 E1.3962
G1 X75.669 Y61.301 F6000
G92 E0.0000
G1 X75.459 Y61.512 E0.0107 F2880
G1 X75.094 Y61.512 E0.0238
G1 X75.094 Y61.198 E0.0351
G1 X75.669 Y60.623 E0.0643
G1 X75.669 Y59.944 E0.0887
G1 X75.094 Y60.519 E0.1179
G1 X75.094 Y59.840 E0.1423
G1 X75.669 Y59.265 E0.1715
G1 X75.669 Y58.586 E0.1959
G1 X75.094 Y59.161 E0.2251
G1 X76.209 Y60.761 F6000
G92 E0.0000
G1 X78.423 Y58.548 E0.1406 F3600
G1 X82.665 Y58.548 E0.3311
G1 X79.761 Y61.452 E0.5155
G1 X84.004 Y61.452 E0.7060
G1 X86.452 Y59.004 E0.8614
G92 E0.0000
G1 E-1 F1800 ; custom retraction
;zhop1
G1 X43.194 Y58.200 F6000
G1 Z8.000 F1200
G1 E0 F1800 ; custom un-retraction/prime
G92 E0.0000
G1 X43.194 Y61.800 E0.1293 F2880
G1 X35.378 Y61.800 E0.4101
G1 X32.771 Y60.305 E0.5180
G1 X32.771 Y59.695 E0.5399
G1 X35.378 Y58.200 E0.6479
G1 X43.194 Y58.200 E0.9286
G1 X43.674 Y57.720 F6000
G92 E0.0000
G1 X43.674 Y62.280 E0.1638 F2880
G1 X35.250 Y62.280 E0.4664
G1 X32.291 Y60.583 E0.5889
G1 X32.291 Y59.417 E0.6308
G1 X35.250 Y57.720 E0.7533
G1 X43.674 Y57.720 E1.0559
G1 X44.154 Y57.240 F6000
G92 E0.0000
G1 X44.154 Y62.760 E0.1983 F2160
G1 X35.122 Y62.760 E0.5227
G1 X31.811 Y60.861 E0.6598
G1 X31.811 Y59.139 E0.7217
G1 X35.122 Y57.240 E0.8588
G1 X44.154 Y57.240 E1.1832
G1 X42.331 Y58.662 F6000
G92 E0.0000
G1 X42.505 Y58.488 E0.0088 F2880
G1 X42.906 Y58.488 E0.0232
G1 X42.906 Y58.766 E0.0332
G1 X42.331 Y59.341 E0.0624
G1 X42.331 Y60.020 E0.0868
G1 X42.906 Y59.445 E0.1160
G1 X42.906 Y60.124 E0.1404
G1 X42.331 Y60.699 E0.1696
G1 X42.331 Y61.377 E0.1940
G1 X42.906 Y60.802 E0.2232
G1 X42.906 Y61.481 E0.2476
G1 X42.875 Y61.512 E0.2492
G1 X33.436 Y60.090 F6000
G92 E0.0000
G1 X33.268 Y60.258 E0.0085 F2880
G1 X33.976 Y60.568 F6000
G92 E0.0000
G1 X35.996 Y58.548 E0.1283 F3600
G1 X40.239 Y58.548 E0.3188
G1 X37.335 Y61.452 E0.5032
G1 X41.577 Y61.452 E0.6937
G1 X41.791 Y61.239 E0.7072
G92 E0.0000
G1 E-1 F1800 ; custom retraction
;layer 41, Z = 8.200
;fan41;
G1 Z8.200 F1200
G1 X43.666 Y61.800 F6000
G1 E0 F1800 ; custom un-retraction/prime
G92 E0.0000
G1 X35.092 Y61.800 E0.3080 F2880
G1 X32.485 Y60.305 E0.4159
G1 X32.485 Y59.695 E0.4378
G1 X35.092 Y58.200 E0.5458
G1 X43.666 Y58.200 E0.8537
G1 X43.666 Y61.800 E0.9831
G1 X44.146 Y62.280 F6000
G92 E0.0000
