;FLAVOR:Marlin
;TIME:7381
;Filament used: 8.10169m
;Layer height: 0.28
;MINX:75.359
;MINY:91.556
;MINZ:0.28
;MAXX:143.72
;MAXY:128.447
;MAXZ:28
;Generated with Cura_SteamEngine 5.4.0
M140 S50
M105
M190 S50
M104 S200
M105
M109 S200
M82 ;absolute extrusion mode
M201 X500.00 Y500.00 Z100.00 E5000.00 ;Setup machine max acceleration
M203 X500.00 Y500.00 Z10.00 E50.00 ;Setup machine max feedrate
M204 P500.00 R1000.00 T500.00 ;Setup Print/Retract/Travel acceleration
M205 X8.00 Y8.00 Z0.40 E5.00 ;Setup Jerk
M220 S100 ;Reset Feedrate
M221 S100 ;Reset Flowrate
G92 E0 ;Reset Extruder
M117 Retract 500 before homing...
G1 E-5 F300 ;retract 5 mm filament speed 300 to avoid oozing during ABL
M117 Homing...
G28 ;Home
M117 Loading UBL mesh
G29 L0 ; Load the mesh stored in slot 0 (from G29 S0)
M117 Probing 3 points to tilt the loaded UBL mesh
G29 J ; Probe 3 points and tilt the mesh according to what it finds, optionally G29 J2 would do 4 points.
M117 Moving up a bit...
G1 Z2.0 F3000 ;Move Z Axis up
M117 Going to start position
G1 X10.1 Y20 Z0.28 F5000.0 ;Move to start position
G1 E5 F300 ; extract 5 mm filament at speed 300 was retracted to avoid oozing during ABL
M117 Drawing setup line 1
G1 X10.1 Y200.0 Z0.28 F1500.0 E15 ;Draw the first line
M117 Drawing setup line 2
G1 X10.4 Y200.0 Z0.28 F5000.0 ;Move to side a little
G1 X10.4 Y20 Z0.28 F1500.0 E30 ;Draw the second line
G92 E0 ;Reset Extruder
G1 Z2.0 F3000 ;Move Z Axis up
M900 K0.95 ; set linear advance k factor (AMZ3D PLA)
M117 Ready to go!
G92 E0
G92 E0
G1 F1200 E-1
;LAYER_COUNT:100
;LAYER:0
M107
G0 F6000 X88.533 Y93.265 Z0.28
;TYPE:SKIRT
G1 F1200 E0
G1 X89.69 Y92.283 E0.07066
G1 X90.794 Y91.807 E0.12665
G1 X91.663 Y91.558 E0.16874
G1 X139.503 Y91.556 E2.39637
G1 X140.851 Y91.998 E2.46243
G1 X141.816 Y92.56 E2.51442
G1 X142.785 Y93.58 E2.57994
G1 X143.357 Y94.624 E2.63537
G1 X143.72 Y95.839 E2.69441
G1 X143.719 Y124.228 E4.01632
G1 X143.277 Y125.576 E4.08238
G1 X142.715 Y126.541 E4.13438
G1 X141.695 Y127.51 E4.19989
G1 X140.651 Y128.082 E4.25532
G1 X139.436 Y128.445 E4.31437
G1 X91.519 Y128.447 E6.54559
G1 X90.156 Y127.985 E6.6126
G1 X89.072 Y127.308 E6.67211
G1 X88.272 Y126.315 E6.73149
G1 X81.561 Y115.891 E7.30877
G1 X80.608 Y116.072 E7.35393
G1 X79.421 Y116.001 E7.4093
G1 X78.108 Y115.607 E7.47314
G1 X77.083 Y114.814 E7.53348
G1 X76.189 Y113.753 E7.59809
G1 X75.36 Y111.596 E7.70569
G1 X75.359 Y108.7 E7.84054
G1 X75.656 Y107.316 E7.90645
G1 X76.666 Y105.72 E7.9944
G1 X77.473 Y104.94 E8.04666
G1 X78.015 Y104.562 E8.07743
G1 X79.17 Y104.113 E8.13513
G1 X79.927 Y103.984 E8.17089
G1 X81.084 Y104.033 E8.22481
G1 X81.526 Y104.16 E8.24622
G1 X88.533 Y93.265 E8.8494
G0 F6000 X88.836 Y93.533
G1 F1200 X89.904 Y92.626 E8.91465
G1 X90.904 Y92.192 E8.96541
G1 X91.721 Y91.958 E9.00498
G1 X139.439 Y91.956 E11.22693
G1 X140.686 Y92.365 E11.28804
G1 X141.565 Y92.877 E11.33541
G1 X142.46 Y93.819 E11.39591
G1 X142.987 Y94.781 E11.44699
G1 X143.32 Y95.896 E11.50117
G1 X143.319 Y124.164 E12.81745
G1 X142.91 Y125.411 E12.87856
G1 X142.398 Y126.29 E12.92593
G1 X141.456 Y127.185 E12.98643
G1 X140.494 Y127.712 E13.03751
G1 X139.379 Y128.045 E13.09169
G1 X91.585 Y128.047 E15.31718
G1 X90.328 Y127.621 E15.37898
G1 X89.342 Y127.005 E15.43312
G1 X88.608 Y126.098 E15.48745
G1 X81.751 Y115.447 E16.07729
G1 X80.581 Y115.67 E16.13275
G1 X79.492 Y115.605 E16.18355
G1 X78.294 Y115.245 E16.2418
G1 X77.363 Y114.525 E16.2966
G1 X76.538 Y113.546 E16.35622
G1 X75.76 Y111.522 E16.45719
G1 X75.759 Y108.742 E16.58663
G1 X76.032 Y107.47 E16.64721
G1 X76.978 Y105.975 E16.72959
G1 X77.751 Y105.228 E16.77965
G1 X78.204 Y104.918 E16.80521
G1 X79.28 Y104.5 E16.85896
G1 X79.949 Y104.386 E16.89056
G1 X81.019 Y104.431 E16.94043
G1 X81.701 Y104.626 E16.97346
G1 X88.836 Y93.533 E17.58761
G0 F6000 X89.139 Y93.801
G1 F1200 X90.12 Y92.968 E17.64754
G1 X91.014 Y92.577 E17.69298
G1 X91.779 Y92.358 E17.73003
G1 X139.375 Y92.356 E19.9463
G1 X140.521 Y92.732 E20.00246
G1 X141.316 Y93.195 E20.0453
G1 X142.133 Y94.055 E20.10053
G1 X142.617 Y94.938 E20.14742
G1 X142.92 Y95.953 E20.19674
G1 X142.919 Y124.1 E21.50739
G1 X142.543 Y125.246 E21.56355
G1 X142.08 Y126.041 E21.60639
G1 X141.22 Y126.858 E21.66162
G1 X140.337 Y127.342 E21.70851
G1 X139.322 Y127.645 E21.75783
G1 X91.651 Y127.647 E23.97759
G1 X90.5 Y127.257 E24.03418
G1 X89.61 Y126.701 E24.08305
G1 X88.944 Y125.881 E24.13224
G1 X81.941 Y115.003 E24.73465
G1 X80.554 Y115.268 E24.8004
G1 X79.563 Y115.209 E24.84663
G1 X78.48 Y114.883 E24.89929
G1 X77.643 Y114.236 E24.94855
G1 X76.886 Y113.338 E25.00324
G1 X76.16 Y111.449 E25.09748
G1 X76.159 Y108.784 E25.22157
G1 X76.408 Y107.624 E25.27682
G1 X77.292 Y106.228 E25.35376
G1 X78.029 Y105.515 E25.4015
G1 X78.39 Y105.275 E25.42169
G1 X79.39 Y104.887 E25.47164
G1 X79.971 Y104.788 E25.49908
G1 X80.959 Y104.829 E25.54513
G1 X81.876 Y105.092 E25.58955
G1 X89.139 Y93.801 E26.21468
G0 F6000 X89.442 Y94.069
G1 F1200 X90.334 Y93.311 E26.26919
G1 X91.124 Y92.962 E26.3094
G1 X91.837 Y92.758 E26.34394
G1 X139.311 Y92.756 E28.55453
G1 X140.356 Y93.099 E28.60574
G1 X141.067 Y93.513 E28.64405
G1 X141.806 Y94.291 E28.69402
G1 X142.246 Y95.094 E28.73665
G1 X142.52 Y96.011 E28.78122
G1 X142.519 Y124.036 E30.08618
G1 X142.176 Y125.081 E30.13739
G1 X141.762 Y125.792 E30.1757
G1 X140.984 Y126.531 E30.22567
G1 X140.181 Y126.971 E30.2683
G1 X139.264 Y127.245 E30.31287
G1 X91.717 Y127.247 E32.52686
G1 X90.672 Y126.893 E32.57823
G1 X89.879 Y126.398 E32.62176
G1 X89.28 Y125.664 E32.66587
G1 X82.091 Y114.498 E33.28425
G1 X81.837 Y114.62 E33.29737
G1 X80.527 Y114.866 E33.35944
G1 X79.634 Y114.813 E33.40109
G1 X78.668 Y114.522 E33.44807
G1 X77.92 Y113.944 E33.49209
G1 X77.235 Y113.131 E33.54159
G1 X76.56 Y111.375 E33.62919
G1 X76.559 Y108.826 E33.74788
G1 X76.784 Y107.778 E33.79779
G1 X77.604 Y106.483 E33.86917
G1 X78.307 Y105.803 E33.91471
G1 X78.573 Y105.633 E33.92941
G1 X79.499 Y105.274 E33.97565
G1 X79.993 Y105.19 E33.99899
G1 X80.898 Y105.227 E34.04116
G1 X82.051 Y105.558 E34.09702
G1 X89.442 Y94.069 E34.73314
G0 F6000 X89.745 Y94.337
G1 F1200 X90.549 Y93.654 E34.78226
G1 X91.286 Y93.328 E34.81978
G1 X91.893 Y93.158 E34.84914
G1 X139.247 Y93.156 E37.05414
G1 X140.191 Y93.466 E37.1004
G1 X140.818 Y93.831 E37.13418
G1 X141.479 Y94.527 E37.17888
G1 X141.876 Y95.251 E37.21733
G1 X142.12 Y96.068 E37.25703
G1 X142.119 Y123.972 E38.55636
G1 X141.809 Y124.916 E38.60262
G1 X141.444 Y125.543 E38.63641
G1 X140.748 Y126.204 E38.6811
G1 X140.024 Y126.601 E38.71955
G1 X139.207 Y126.845 E38.75925
G1 X91.783 Y126.847 E40.96751
G1 X90.844 Y126.529 E41.01368
G1 X90.147 Y126.094 E41.05193
G1 X89.616 Y125.447 E41.09091
G1 X82.22 Y113.96 E41.72707
G1 X81.763 Y114.227 E41.75172
G1 X80.501 Y114.464 E41.81151
G1 X79.705 Y114.417 E41.84864
G1 X78.856 Y114.161 E41.88993
G1 X78.197 Y113.652 E41.9287
G1 X77.583 Y112.923 E41.97308
G1 X76.96 Y111.302 E42.05395
G1 X76.959 Y108.868 E42.16728
G1 X77.16 Y107.932 E42.21186
G1 X77.916 Y106.738 E42.27767
G1 X78.585 Y106.091 E42.321
G1 X78.718 Y106.006 E42.32835
G1 X79.608 Y105.661 E42.3728
G1 X80.015 Y105.592 E42.39202
G1 X80.837 Y105.625 E42.43033
G1 X81.816 Y105.906 E42.47776
G1 X82.18 Y106.096 E42.49687
G1 X89.745 Y94.337 E43.14795
G0 F6000 X90.048 Y94.605
G1 F1200 X90.764 Y93.997 E43.19169
G1 X91.448 Y93.694 E43.22652
G1 X91.948 Y93.558 E43.25065
G1 X139.183 Y93.556 E45.45011
G1 X140.026 Y93.833 E45.49143
G1 X140.569 Y94.149 E45.52068
G1 X141.152 Y94.763 E45.56011
G1 X141.506 Y95.408 E45.59437
G1 X141.72 Y96.125 E45.62921
G1 X141.719 Y123.908 E46.9229
G1 X141.442 Y124.751 E46.96422
G1 X141.126 Y125.294 E46.99347
G1 X140.512 Y125.877 E47.0329
G1 X139.867 Y126.231 E47.06716
G1 X139.15 Y126.445 E47.102
G1 X91.85 Y126.447 E49.30449
G1 X91.016 Y126.164 E49.3455
G1 X90.414 Y125.789 E49.37852
G1 X89.952 Y125.23 E49.41229
G1 X82.349 Y113.421 E50.06628
G1 X81.621 Y113.847 E50.10555
G1 X80.475 Y114.062 E50.15985
G1 X79.778 Y114.021 E50.19236
G1 X79.042 Y113.799 E50.22815
G1 X78.476 Y113.362 E50.26145
G1 X77.932 Y112.716 E50.30078
G1 X77.36 Y111.228 E50.37501
G1 X77.359 Y108.91 E50.48294
G1 X77.536 Y108.086 E50.52219
G1 X78.228 Y106.993 E50.58242
G1 X78.863 Y106.379 E50.62356
G1 X79.717 Y106.048 E50.6662
G1 X80.037 Y105.994 E50.68131
G1 X80.772 Y106.023 E50.71557
G1 X81.669 Y106.28 E50.75901
G1 X82.318 Y106.62 E50.79313
G1 X90.048 Y94.605 E51.45838
G0 F6000 X90.351 Y94.873
G1 F1200 X90.979 Y94.34 E51.49674
G1 X91.61 Y94.06 E51.52888
G1 X92.001 Y93.958 E51.5477
G1 X139.119 Y93.956 E53.74171
G1 X139.861 Y94.2 E53.77808
G1 X140.32 Y94.467 E53.80281
G1 X140.825 Y94.999 E53.83696
G1 X141.135 Y95.564 E53.86697
G1 X141.32 Y96.183 E53.89706
G1 X141.319 Y123.844 E55.18507
G1 X141.075 Y124.586 E55.22144
G1 X140.808 Y125.045 E55.24616
G1 X140.276 Y125.55 E55.28032
G1 X139.711 Y125.86 E55.31033
G1 X139.092 Y126.045 E55.34041
G1 X91.916 Y126.047 E57.53712
G1 X91.187 Y125.8 E57.57296
G1 X90.68 Y125.484 E57.60078
G1 X90.288 Y125.013 E57.62932
G1 X82.514 Y112.937 E58.29807
G1 X82.303 Y112.935 E58.30789
G1 X82.09 Y113.116 E58.32091
G1 X81.479 Y113.467 E58.35372
G1 X80.449 Y113.66 E58.40252
G1 X79.851 Y113.625 E58.43041
G1 X79.228 Y113.437 E58.46071
G1 X78.755 Y113.072 E58.48853
G1 X78.28 Y112.508 E58.52287
G1 X77.76 Y111.155 E58.59036
G1 X77.759 Y108.952 E58.69294
G1 X77.912 Y108.24 E58.72685
G1 X78.54 Y107.248 E58.78152
G1 X79.084 Y106.722 E58.81676
G1 X79.861 Y106.421 E58.85556
G1 X80.021 Y106.394 E58.86311
G1 X80.708 Y106.421 E58.89513
G1 X81.524 Y106.655 E58.93465
G1 X82.004 Y106.906 E58.95988
G1 X82.196 Y107.064 E58.97146
G1 X82.508 Y107.063 E58.98598
G1 X90.351 Y94.873 E59.66094
G0 F6000 X90.653 Y95.141
G1 F1200 X91.195 Y94.681 E59.69404
G1 X91.711 Y94.447 E59.72042
G1 X92.052 Y94.358 E59.73683
G1 X139.055 Y94.356 E61.92549
G1 X139.696 Y94.567 E61.95691
G1 X140.071 Y94.785 E61.97711
G1 X140.498 Y95.235 E62.006
G1 X140.764 Y95.72 E62.03175
G1 X140.92 Y96.241 E62.05708
G1 X140.919 Y123.78 E63.33941
G1 X140.708 Y124.421 E63.37083
G1 X140.49 Y124.796 E63.39103
G1 X140.04 Y125.223 E63.41991
G1 X139.555 Y125.489 E63.44567
G1 X139.034 Y125.645 E63.471
G1 X91.982 Y125.647 E65.66193
G1 X91.36 Y125.436 E65.69252
G1 X90.947 Y125.179 E65.71517
G1 X90.596 Y124.757 E65.74073
G1 X82.733 Y112.54 E66.41724
G1 X82.151 Y112.533 E66.44434
G1 X81.891 Y112.769 E66.4607
G1 X81.338 Y113.087 E66.4904
G1 X80.423 Y113.258 E66.53374
G1 X79.924 Y113.229 E66.55702
G1 X79.414 Y113.075 E66.58182
G1 X79.034 Y112.782 E66.60417
G1 X78.629 Y112.301 E66.63345
G1 X78.16 Y111.081 E66.69431
G1 X78.159 Y108.994 E66.79149
G1 X78.288 Y108.394 E66.82007
G1 X78.852 Y107.503 E66.86917
G1 X79.305 Y107.065 E66.89851
G1 X80.005 Y106.794 E66.93346
G1 X80.648 Y106.819 E66.96342
G1 X81.373 Y107.027 E66.99854
G1 X81.818 Y107.26 E67.02193
G1 X82.041 Y107.464 E67.03601
G1 X82.726 Y107.462 E67.0679
G1 X90.653 Y95.141 E67.7501
G0 F6000 X90.956 Y95.409
G1 F1200 X91.412 Y95.022 E67.77795
G1 X91.812 Y94.834 E67.79853
G1 X92.103 Y94.758 E67.81254
G1 X138.991 Y94.756 E69.99584
G1 X139.531 Y94.934 E70.02232
G1 X139.822 Y95.103 E70.03799
G1 X140.171 Y95.471 E70.0616
G1 X140.393 Y95.876 E70.08311
G1 X140.52 Y96.299 E70.10367
G1 X140.519 Y123.716 E71.38032
G1 X140.341 Y124.256 E71.4068
G1 X140.172 Y124.547 E71.42247
G1 X139.804 Y124.896 E71.44608
G1 X139.399 Y125.118 E71.46759
G1 X138.976 Y125.245 E71.48816
G1 X92.049 Y125.247 E73.67327
G1 X91.531 Y125.071 E73.69875
G1 X91.214 Y124.874 E73.71613
G1 X90.904 Y124.501 E73.73871
G1 X82.952 Y112.143 E74.42299
G1 X81.959 Y112.131 E74.46923
G1 X81.88 Y112.24 E74.4755
G1 X81.654 Y112.444 E74.48968
G1 X81.197 Y112.706 E74.5142
G1 X80.396 Y112.856 E74.55215
G1 X79.997 Y112.833 E74.57076
G1 X79.6 Y112.713 E74.59007
G1 X79.313 Y112.492 E74.60694
G1 X78.977 Y112.093 E74.63123
G1 X78.56 Y111.008 E74.68535
G1 X78.559 Y109.036 E74.77718
G1 X78.664 Y108.548 E74.80042
G1 X79.164 Y107.758 E74.84396
G1 X79.526 Y107.408 E74.8674
G1 X80.071 Y107.197 E74.89462
G1 X80.584 Y107.217 E74.91852
G1 X81.226 Y107.401 E74.94962
G1 X81.632 Y107.614 E74.97097
G1 X81.871 Y107.864 E74.98707
G1 X82.944 Y107.862 E75.03704
G1 X90.956 Y95.409 E75.72655
G0 F6000 X91.259 Y95.677
G1 F1200 X91.631 Y95.361 E75.74928
G1 X91.982 Y95.196 E75.76734
G1 X92.152 Y95.158 E75.77545
G1 X138.927 Y95.156 E77.95349
G1 X139.406 Y95.314 E77.97697
G1 X139.571 Y95.419 E77.98608
G1 X139.844 Y95.707 E78.00456
G1 X140.022 Y96.032 E78.02181
G1 X140.12 Y96.357 E78.03762
G1 X140.119 Y123.652 E79.30859
G1 X139.961 Y124.131 E79.33207
G1 X139.856 Y124.296 E79.34118
G1 X139.568 Y124.569 E79.35966
G1 X139.243 Y124.747 E79.37691
G1 X138.918 Y124.845 E79.39272
G1 X92.116 Y124.847 E81.57202
G1 X91.66 Y124.692 E81.59444
G1 X91.481 Y124.569 E81.60456
G1 X91.212 Y124.245 E81.62417
G1 X83.171 Y111.744 E82.31629
G1 X82.035 Y111.737 E82.36918
G1 X81.736 Y111.692 E82.38326
G1 X81.599 Y111.955 E82.39707
G1 X81.455 Y112.097 E82.40649
G1 X81.057 Y112.325 E82.42785
G1 X80.369 Y112.454 E82.46044
G1 X80.07 Y112.437 E82.47439
G1 X79.786 Y112.351 E82.4882
G1 X79.619 Y112.234 E82.4977
G1 X79.325 Y111.885 E82.51895
G1 X78.96 Y110.935 E82.56634
G1 X78.959 Y109.078 E82.65281
G1 X79.04 Y108.702 E82.67072
G1 X79.476 Y108.013 E82.70868
G1 X79.747 Y107.751 E82.72623
G1 X80.137 Y107.6 E82.74571
G1 X80.523 Y107.615 E82.7637
G1 X81.076 Y107.774 E82.79049
G1 X81.446 Y107.968 E82.80994
G1 X81.709 Y108.312 E82.83011
G1 X82.037 Y108.264 E82.84554
G1 X83.162 Y108.261 E82.89793
G1 X91.259 Y95.677 E83.59471
G0 F6000 X91.864 Y96.213
G1 F1200 X92.109 Y96.005 E83.60967
G1 X92.238 Y95.958 E83.61607
G1 X138.797 Y95.956 E85.78405
G1 X139.063 Y96.044 E85.79709
G1 X139.166 Y96.135 E85.80349
G1 X139.32 Y96.416 E85.81841
G1 X139.319 Y123.522 E87.08058
G1 X139.231 Y123.788 E87.09363
G1 X139.14 Y123.891 E87.10003
G1 X138.859 Y124.045 E87.11495
G1 X92.183 Y124.047 E89.28838
G1 X92.029 Y123.975 E89.2963
G1 X91.828 Y123.733 E89.31094
G1 X83.666 Y111.036 E90.01379
G1 X83.46 Y110.946 E90.02426
G1 X82.04 Y110.937 E90.09038
G1 X81.663 Y110.867 E90.10823
G1 X81.471 Y110.735 E90.11908
G1 X81.404 Y110.586 E90.12669
G1 X81.401 Y109.423 E90.18085
G1 X81.473 Y109.268 E90.1888
G1 X81.687 Y109.124 E90.20081
G1 X82.039 Y109.064 E90.21744
G1 X83.455 Y109.06 E90.28338
G1 X83.682 Y108.928 E90.2956
G1 X91.864 Y96.213 E90.99966
G0 F6000 X91.562 Y95.945
G1 F1200 X91.85 Y95.7 E91.01726
G1 X92.152 Y95.558 E91.0328
G1 X138.863 Y95.556 E93.20786
G1 X139.281 Y95.694 E93.22836
G1 X139.517 Y95.943 E93.24433
G1 X139.671 Y96.224 E93.25926
G1 X139.72 Y96.416 E93.26848
G1 X139.719 Y123.588 E94.53372
G1 X139.581 Y124.006 E94.55422
G1 X139.332 Y124.242 E94.5702
G1 X139.051 Y124.396 E94.58512
G1 X138.859 Y124.445 E94.59434
G1 X92.183 Y124.447 E96.76777
G1 X91.789 Y124.313 E96.78715
G1 X91.52 Y123.989 E96.80676
G1 X83.39 Y111.345 E97.50672
G1 X82.037 Y111.337 E97.56973
G1 X81.59 Y111.26 E97.59085
G1 X81.406 Y111.176 E97.60027
G1 X81.406 Y111.353 E97.60851
G1 X81.347 Y111.598 E97.62024
G1 X81.256 Y111.75 E97.62849
G1 X80.916 Y111.945 E97.64674
G1 X80.343 Y112.052 E97.67388
G1 X80.092 Y112.038 E97.68559
G1 X79.925 Y111.976 E97.69389
G1 X79.673 Y111.677 E97.71209
G1 X79.36 Y110.862 E97.75275
G1 X79.359 Y109.12 E97.83386
G1 X79.416 Y108.856 E97.84644
G1 X79.788 Y108.268 E97.87884
G1 X79.968 Y108.094 E97.89049
G1 X80.203 Y108.003 E97.90223
G1 X80.461 Y108.013 E97.91425
G1 X80.965 Y108.158 E97.93867
G1 X81.181 Y108.28 E97.95022
G1 X81.337 Y108.484 E97.96218
G1 X81.399 Y108.836 E97.97882
G1 X81.62 Y108.73 E97.99024
G1 X82.038 Y108.664 E98.00994
G1 X83.346 Y108.66 E98.07085
G1 X83.399 Y108.63 E98.07368
G1 X91.562 Y95.945 E98.77608
G1 F1200 E97.77608
G0 F6000 X91.484 Y95.944
G0 X80.958 Y108.612
G1 F1200 E98.77608
G1 X80.999 Y108.733 E98.78203
G1 X81.006 Y111.354 E98.90408
G1 X80.967 Y111.473 E98.90991
G1 X80.843 Y111.552 E98.91675
G1 X80.27 Y111.659 E98.9439
G1 X80.146 Y111.642 E98.94973
G1 X80.046 Y111.534 E98.95658
G1 X79.76 Y110.789 E98.99374
G1 X79.759 Y109.12 E99.07145
G1 X79.79 Y109.013 E99.07664
G1 X80.126 Y108.482 E99.1059
G1 X80.222 Y108.403 E99.11169
G1 X80.35 Y108.397 E99.11766
G1 X80.854 Y108.542 E99.14208
G1 X80.958 Y108.612 E99.14791
G0 F6000 X80.599 Y108.884
G1 F1200 X80.606 Y111.189 E99.25524
