; G-Code originally generated by Simplify3D(R) Version 4.1.2
;M80 ; power supply on
G90
M82
M106 S0
M140 S50 ; custom bed temp
M190 S50 ; custom bed temp
M104 S200 T0 ; custom hot end temp
M109 S200 T0 ; custom hot end temp
G28 ; home all axes
G29 ; probe ABL
;M420 S1 ; restore ABL mesh 
;customstart
; process Color1-2
; layer 1, Z = 0.200
T0
G92 E0.0000
G1 E-12 F600 ; custom retraction - A
; feature skirt
; tool H0.200 W0.576
;zhopupA
G1 X68.872 Y87.041 F6000
G1 Z0.200 F1200
G1 E0 F600 ; custom un-retraction/prime - A
G92 E0.0000
G1 X69.104 Y86.937 E0.0110 F1800
G1 X69.831 Y86.658 E0.0445
G1 X70.07300000000001 Y86.57900000000001 E0.0555
G1 X70.825 Y86.378 E0.0890
G1 X71.074 Y86.325 E0.1000
G1 X71.842 Y86.203 E0.1336
G1 X72.096 Y86.17699999999999 E0.1445
G1 X72.809 Y86.13900000000001 E0.1753
G1 X72.936 Y86.136 E0.1808
G1 X127.064 Y86.136 E2.5140
G1 X127.191 Y86.13900000000001 E2.5195
G1 X127.904 Y86.17699999999999 E2.5503
G1 X128.15800000000002 Y86.203 E2.5613
G1 X128.926 Y86.325 E2.5948
G1 X129.175 Y86.378 E2.6058
G1 X129.92700000000002 Y86.57900000000001 E2.6393
G1 X130.16899999999998 Y86.658 E2.6503
G1 X130.89600000000002 Y86.937 E2.6838
G1 X131.128 Y87.041 E2.6948
G1 X131.822 Y87.394 E2.7284
G1 X132.042 Y87.521 E2.7393
G1 X132.695 Y87.945 E2.7729
G1 X132.901 Y88.095 E2.7838
G1 X133.506 Y88.584 E2.8174
G1 X133.695 Y88.755 E2.8284
G1 X134.245 Y89.305 E2.8619
G1 X134.41500000000002 Y89.494 E2.8729
G1 X134.905 Y90.09899999999999 E2.9064
G1 X135.055 Y90.305 E2.9174
G1 X135.47899999999998 Y90.958 E2.9510
G1 X135.606 Y91.178 E2.9619
G1 X135.959 Y91.872 E2.9955
G1 X136.063 Y92.104 E3.0064
G1 X136.34199999999998 Y92.831 E3.0400
G1 X136.421 Y93.07300000000001 E3.0510
G1 X136.622 Y93.825 E3.0845
G1 X136.675 Y94.074 E3.0955
G1 X136.797 Y94.842 E3.1290
G1 X136.82299999999998 Y95.095 E3.1400
G1 X136.861 Y95.809 E3.1708
G1 X136.864 Y95.936 E3.1763
G1 X136.864 Y104.064 E3.5266
G1 X136.861 Y104.191 E3.5321
G1 X136.82299999999998 Y104.905 E3.5629
G1 X136.797 Y105.158 E3.5739
G1 X136.675 Y105.926 E3.6074
G1 X136.622 Y106.175 E3.6184
G1 X136.421 Y106.92699999999999 E3.6519
G1 X136.34199999999998 Y107.169 E3.6629
G1 X136.063 Y107.896 E3.6965
G1 X135.959 Y108.128 E3.7075
G1 X135.606 Y108.822 E3.7410
G1 X135.47899999999998 Y109.042 E3.7520
G1 X135.055 Y109.695 E3.7855
G1 X134.905 Y109.90100000000001 E3.7965
G1 X134.41500000000002 Y110.506 E3.8300
G1 X134.245 Y110.695 E3.8410
G1 X133.695 Y111.245 E3.8745
G1 X133.506 Y111.416 E3.8855
G1 X132.901 Y111.905 E3.9191
G1 X132.695 Y112.055 E3.9301
G1 X132.042 Y112.479 E3.9636
G1 X131.822 Y112.606 E3.9746
G1 X131.128 Y112.959 E4.0081
G1 X130.89600000000002 Y113.063 E4.0191
G1 X130.16899999999998 Y113.342 E4.0526
G1 X129.92700000000002 Y113.42099999999999 E4.0636
G1 X129.175 Y113.622 E4.0972
G1 X128.926 Y113.675 E4.1081
G1 X128.15800000000002 Y113.797 E4.1417
G1 X127.904 Y113.82300000000001 E4.1527
G1 X127.191 Y113.86099999999999 E4.1835
G1 X127.064 Y113.864 E4.1889
G1 X72.936 Y113.864 E6.5221
G1 X72.809 Y113.86099999999999 E6.5276
G1 X72.096 Y113.82300000000001 E6.5584
G1 X71.842 Y113.797 E6.5694
G1 X71.074 Y113.675 E6.6029
G1 X70.825 Y113.622 E6.6139
G1 X70.07300000000001 Y113.42099999999999 E6.6474
G1 X69.831 Y113.342 E6.6584
G1 X69.104 Y113.063 E6.6920
G1 X68.872 Y112.959 E6.7029
G1 X68.178 Y112.606 E6.7365
G1 X67.958 Y112.479 E6.7475
G1 X67.305 Y112.055 E6.7810
G1 X67.099 Y111.905 E6.7920
G1 X66.494 Y111.416 E6.8255
G1 X66.305 Y111.245 E6.8365
G1 X65.755 Y110.695 E6.8700
G1 X65.584 Y110.506 E6.8810
G1 X65.095 Y109.90100000000001 E6.9146
G1 X64.945 Y109.695 E6.9255
G1 X64.521 Y109.042 E6.9591
G1 X64.394 Y108.822 E6.9701
G1 X64.041 Y108.128 E7.0036
G1 X63.937 Y107.896 E7.0146
G1 X63.658 Y107.169 E7.0481
G1 X63.579 Y106.92699999999999 E7.0591
G1 X63.378 Y106.175 E7.0926
G1 X63.325 Y105.926 E7.1036
G1 X63.203 Y105.158 E7.1372
G1 X63.177 Y104.905 E7.1481
G1 X63.141 Y104.217 E7.1778
G1 X63.137 Y104.09 E7.1833
G1 X63.135999999999996 Y95.937 E7.5347
G1 X63.138999999999996 Y95.809 E7.5402
G1 X63.177 Y95.096 E7.5710
G1 X63.203 Y94.842 E7.5820
G1 X63.325 Y94.074 E7.6156
G1 X63.378 Y93.825 E7.6265
G1 X63.579 Y93.07300000000001 E7.6601
G1 X63.658 Y92.831 E7.6711
G1 X63.937 Y92.104 E7.7046
G1 X64.041 Y91.872 E7.7156
G1 X64.394 Y91.178 E7.7491
G1 X64.521 Y90.958 E7.7601
G1 X64.945 Y90.305 E7.7936
G1 X65.095 Y90.09899999999999 E7.8046
G1 X65.584 Y89.494 E7.8382
G1 X65.755 Y89.305 E7.8491
G1 X66.305 Y88.755 E7.8827
G1 X66.494 Y88.584 E7.8937
G1 X67.099 Y88.095 E7.9272
G1 X67.305 Y87.945 E7.9382
G1 X67.958 Y87.521 E7.9717
G1 X68.178 Y87.394 E7.9827
G1 X68.872 Y87.041 E8.0162
G92 E0.0000
G1 E-12 F600 ; custom retraction - A
;zhopupA
G1 X69.12 Y87.561 F6000
G1 Z0.200 F1200
G1 E0 F600 ; custom un-retraction/prime - A
G92 E0.0000
G1 X69.325 Y87.469 E0.0097 F1800
G1 X70.023 Y87.201 E0.0419
G1 X70.237 Y87.132 E0.0516
G1 X70.959 Y86.938 E0.0838
G1 X71.179 Y86.892 E0.0935
G1 X71.917 Y86.775 E0.1258
G1 X72.14099999999999 Y86.751 E0.1354
G1 X72.832 Y86.715 E0.1653
G1 X72.944 Y86.712 E0.1701
G1 X127.056 Y86.712 E2.5026
G1 X127.168 Y86.715 E2.5075
G1 X127.859 Y86.751 E2.5373
G1 X128.082 Y86.775 E2.5469
G1 X128.821 Y86.892 E2.5792
G1 X129.041 Y86.938 E2.5889
G1 X129.763 Y87.132 E2.6211
G1 X129.977 Y87.201 E2.6308
G1 X130.675 Y87.469 E2.6630
G1 X130.88 Y87.561 E2.6727
G1 X131.547 Y87.9 E2.7050
G1 X131.74099999999999 Y88.013 E2.7146
G1 X132.368 Y88.42 E2.7469
G1 X132.55 Y88.55199999999999 E2.7565
G1 X133.131 Y89.02199999999999 E2.7888
G1 X133.299 Y89.173 E2.7985
G1 X133.827 Y89.702 E2.8307
G1 X133.977 Y89.868 E2.8404
G1 X134.44799999999998 Y90.45 E2.8726
G1 X134.57999999999998 Y90.632 E2.8823
G1 X134.988 Y91.259 E2.9146
G1 X135.1 Y91.453 E2.9242
G1 X135.439 Y92.12 E2.9565
G1 X135.531 Y92.325 E2.9661
G1 X135.799 Y93.023 E2.9984
G1 X135.868 Y93.237 E3.0081
G1 X136.062 Y93.959 E3.0403
G1 X136.108 Y94.179 E3.0500
G1 X136.225 Y94.917 E3.0822
G1 X136.249 Y95.14099999999999 E3.0919
G1 X136.285 Y95.832 E3.1217
G1 X136.288 Y95.944 E3.1266
G1 X136.288 Y104.056 E3.4762
G1 X136.285 Y104.168 E3.4811
G1 X136.249 Y104.85900000000001 E3.5109
G1 X136.225 Y105.083 E3.5206
G1 X136.108 Y105.821 E3.5528
G1 X136.062 Y106.041 E3.5625
G1 X135.868 Y106.763 E3.5947
G1 X135.799 Y106.977 E3.6044
G1 X135.531 Y107.675 E3.6367
G1 X135.439 Y107.88 E3.6463
G1 X135.1 Y108.547 E3.6786
G1 X134.988 Y108.741 E3.6883
G1 X134.57999999999998 Y109.368 E3.7205
G1 X134.44799999999998 Y109.55 E3.7302
G1 X133.977 Y110.132 E3.7624
G1 X133.827 Y110.298 E3.7721
G1 X133.299 Y110.827 E3.8043
G1 X133.131 Y110.97800000000001 E3.8140
G1 X132.55 Y111.44800000000001 E3.8463
G1 X132.369 Y111.58 E3.8559
G1 X131.74099999999999 Y111.987 E3.8882
G1 X131.547 Y112.1 E3.8979
G1 X130.88 Y112.439 E3.9301
G1 X130.675 Y112.531 E3.9398
G1 X129.977 Y112.799 E3.9720
G1 X129.763 Y112.868 E3.9817
G1 X129.041 Y113.062 E4.0139
G1 X128.821 Y113.108 E4.0236
G1 X128.082 Y113.225 E4.0559
G1 X127.859 Y113.249 E4.0655
G1 X127.168 Y113.285 E4.0954
G1 X127.056 Y113.288 E4.1002
G1 X72.944 Y113.288 E6.4327
G1 X72.832 Y113.285 E6.4376
G1 X72.14099999999999 Y113.249 E6.4674
G1 X71.918 Y113.225 E6.4771
G1 X71.179 Y113.108 E6.5093
G1 X70.959 Y113.062 E6.5190
G1 X70.237 Y112.868 E6.5512
G1 X70.023 Y112.799 E6.5609
G1 X69.325 Y112.531 E6.5931
G1 X69.12 Y112.439 E6.6028
G1 X68.453 Y112.1 E6.6351
G1 X68.259 Y111.988 E6.6447
G1 X67.631 Y111.58 E6.6770
G1 X67.45 Y111.44800000000001 E6.6867
G1 X66.869 Y110.977 E6.7189
G1 X66.702 Y110.827 E6.7286
G1 X66.173 Y110.298 E6.7608
G1 X66.023 Y110.131 E6.7705
G1 X65.55199999999999 Y109.55 E6.8027
G1 X65.42 Y109.369 E6.8124
G1 X65.012 Y108.741 E6.8447
G1 X64.9 Y108.547 E6.8543
G1 X64.561 Y107.88 E6.8866
G1 X64.469 Y107.675 E6.8963
G1 X64.201 Y106.977 E6.9285
G1 X64.132 Y106.763 E6.9382
G1 X63.938 Y106.041 E6.9704
G1 X63.891999999999996 Y105.821 E6.9801
G1 X63.775 Y105.083 E7.0123
G1 X63.751 Y104.85900000000001 E7.0220
G1 X63.716 Y104.195 E7.0507
G1 X63.713 Y104.083 E7.0555
G1 X63.712 Y95.944 E7.4063
G1 X63.715 Y95.832 E7.4112
G1 X63.751 Y95.14099999999999 E7.4410
G1 X63.775 Y94.917 E7.4507
G1 X63.891999999999996 Y94.179 E7.4829
G1 X63.938 Y93.959 E7.4926
G1 X64.132 Y93.237 E7.5248
G1 X64.201 Y93.023 E7.5345
G1 X64.469 Y92.325 E7.5668
G1 X64.561 Y92.12 E7.5764
G1 X64.9 Y91.453 E7.6087
G1 X65.012 Y91.259 E7.6184
G1 X65.42 Y90.632 E7.6506
G1 X65.55199999999999 Y90.45 E7.6603
G1 X66.023 Y89.869 E7.6925
G1 X66.173 Y89.702 E7.7022
G1 X66.702 Y89.173 E7.7344
G1 X66.869 Y89.023 E7.7441
G1 X67.45 Y88.55199999999999 E7.7764
G1 X67.632 Y88.42 E7.7860
G1 X68.259 Y88.012 E7.8183
G1 X68.453 Y87.9 E7.8280
G1 X69.12 Y87.561 E7.8602
G92 E0.0000
G1 E-12 F600 ; custom retraction - A
; feature inner perimeter
;zhopupA
G1 X71.084 Y91.696 F6000
G1 X71.063 Y91.706
G1 X71.553 Y92.75
G1 Z0.200 F1200
G1 E0 F600 ; custom un-retraction/prime - A
G92 E0.0000
G1 X71.9 Y92.616 E0.0161 F1350
G1 X72.26 Y92.52000000000001 E0.0321
G1 X72.628 Y92.461 E0.0482
G1 X73.038 Y92.44 E0.0658
G1 X126.962 Y92.44 E2.3903
G1 X127.372 Y92.461 E2.4079
G1 X127.74 Y92.52000000000001 E2.4240
G1 X128.099 Y92.616 E2.4401
G1 X128.447 Y92.75 E2.4561
G1 X128.779 Y92.919 E2.4722
G1 X129.091 Y93.12100000000001 E2.4882
G1 X129.381 Y93.356 E2.5043
G1 X129.644 Y93.619 E2.5203
G1 X129.87900000000002 Y93.90899999999999 E2.5364
G1 X130.08100000000002 Y94.221 E2.5524
G1 X130.25 Y94.553 E2.5685
G1 X130.38400000000001 Y94.90100000000001 E2.5845
G1 X130.48000000000002 Y95.25999999999999 E2.6006
G1 X130.539 Y95.628 E2.6166
G1 X130.56 Y96.038 E2.6343
G1 X130.56 Y103.962 E2.9759
G1 X130.539 Y104.372 E2.9936
G1 X130.48000000000002 Y104.74000000000001 E3.0097
G1 X130.38400000000001 Y105.1 E3.0257
G1 X130.25 Y105.447 E3.0418
G1 X130.08100000000002 Y105.779 E3.0578
G1 X129.87900000000002 Y106.09100000000001 E3.0739
G1 X129.644 Y106.381 E3.0899
G1 X129.381 Y106.644 E3.1060
G1 X129.091 Y106.878 E3.1220
G1 X128.779 Y107.081 E3.1381
G1 X128.447 Y107.25 E3.1541
G1 X128.099 Y107.384 E3.1702
G1 X127.74 Y107.47999999999999 E3.1862
G1 X127.372 Y107.539 E3.2023
G1 X126.962 Y107.56 E3.2200
G1 X73.038 Y107.56 E5.5444
G1 X72.628 Y107.539 E5.5621
G1 X72.26 Y107.47999999999999 E5.5781
G1 X71.901 Y107.384 E5.5942
G1 X71.553 Y107.25 E5.6102
G1 X71.221 Y107.081 E5.6263
G1 X70.90899999999999 Y106.87899999999999 E5.6423
G1 X70.619 Y106.644 E5.6584
G1 X70.356 Y106.381 E5.6744
G1 X70.121 Y106.09100000000001 E5.6905
G1 X69.919 Y105.779 E5.7066
G1 X69.75 Y105.447 E5.7226
G1 X69.616 Y105.09899999999999 E5.7387
G1 X69.52 Y104.74000000000001 E5.7547
G1 X69.461 Y104.372 E5.7708
G1 X69.441 Y103.988 E5.7873
G1 X69.44 Y96.038 E6.1301
G1 X69.461 Y95.628 E6.1477
G1 X69.52 Y95.25999999999999 E6.1638
G1 X69.616 Y94.9 E6.1798
G1 X69.75 Y94.553 E6.1959
G1 X69.919 Y94.221 E6.2119
G1 X70.121 Y93.90899999999999 E6.2280
G1 X70.356 Y93.619 E6.2441
G1 X70.619 Y93.356 E6.2601
G1 X70.90899999999999 Y93.122 E6.2761
G1 X71.221 Y92.919 E6.2922
G1 X71.553 Y92.75 E6.3083
G1 X71.318 Y92.223 F6000
G92 E0.0000
G1 X71.72200000000001 Y92.068 E0.0187 F1350
G1 X72.14 Y91.956 E0.0373
G1 X72.568 Y91.888 E0.0560
G1 X73.023 Y91.864 E0.0756
G1 X126.977 Y91.864 E2.4013
G1 X127.432 Y91.888 E2.4210
G1 X127.86 Y91.956 E2.4396
G1 X128.27800000000002 Y92.068 E2.4583
G1 X128.68200000000002 Y92.223 E2.4769
G1 X129.067 Y92.419 E2.4956
G1 X129.43 Y92.655 E2.5142
G1 X129.767 Y92.92699999999999 E2.5329
G1 X130.07299999999998 Y93.233 E2.5515
G1 X130.345 Y93.57 E2.5702
G1 X130.58100000000002 Y93.93299999999999 E2.5889
G1 X130.777 Y94.318 E2.6075
G1 X130.93200000000002 Y94.72200000000001 E2.6262
G1 X131.04399999999998 Y95.14 E2.6448
G1 X131.112 Y95.568 E2.6635
G1 X131.136 Y96.023 E2.6831
G1 X131.136 Y103.977 E3.0260
G1 X131.112 Y104.432 E3.0456
G1 X131.04399999999998 Y104.86 E3.0643
G1 X130.93200000000002 Y105.27799999999999 E3.0830
G1 X130.777 Y105.682 E3.1016
G1 X130.58100000000002 Y106.06700000000001 E3.1203
G1 X130.345 Y106.43 E3.1389
G1 X130.07299999999998 Y106.767 E3.1576
G1 X129.767 Y107.07300000000001 E3.1762
G1 X129.43 Y107.345 E3.1949
G1 X129.067 Y107.581 E3.2135
G1 X128.68200000000002 Y107.777 E3.2322
G1 X128.27800000000002 Y107.932 E3.2509
G1 X127.86 Y108.044 E3.2695
G1 X127.432 Y108.112 E3.2882
G1 X126.977 Y108.136 E3.3078
G1 X73.023 Y108.136 E5.6335
G1 X72.568 Y108.112 E5.6532
G1 X72.14 Y108.044 E5.6718
G1 X71.72200000000001 Y107.932 E5.6905
G1 X71.318 Y107.777 E5.7091
G1 X70.93299999999999 Y107.581 E5.7278
G1 X70.57 Y107.345 E5.7464
G1 X70.233 Y107.07300000000001 E5.7651
G1 X69.92699999999999 Y106.767 E5.7837
G1 X69.655 Y106.43 E5.8024
G1 X69.419 Y106.06700000000001 E5.8211
G1 X69.223 Y105.682 E5.8397
G1 X69.068 Y105.27799999999999 E5.8584
G1 X68.956 Y104.86 E5.8770
G1 X68.888 Y104.432 E5.8957
G1 X68.865 Y104.003 E5.9142
G1 X68.864 Y96.023 E6.2582
G1 X68.888 Y95.568 E6.2778
G1 X68.956 Y95.14 E6.2965
G1 X69.068 Y94.72200000000001 E6.3151
G1 X69.223 Y94.318 E6.3338
G1 X69.419 Y93.93299999999999 E6.3525
G1 X69.655 Y93.57 E6.3711
G1 X69.92699999999999 Y93.233 E6.3898
G1 X70.233 Y92.92699999999999 E6.4084
G1 X70.57 Y92.655 E6.4271
G1 X70.93299999999999 Y92.419 E6.4457
G1 X71.318 Y92.223 E6.4644
; feature outer perimeter
G1 X71.084 Y91.696 F6000
G92 E0.0000
G1 X71.544 Y91.519 E0.0213 F900
G1 X72.02 Y91.39099999999999 E0.0425
G1 X72.507 Y91.314 E0.0638
G1 X73.008 Y91.288 E0.0854
G1 X126.992 Y91.288 E2.4124
G1 X127.493 Y91.314 E2.4340
G1 X127.98 Y91.39099999999999 E2.4552
G1 X128.45600000000002 Y91.519 E2.4765
G1 X128.916 Y91.696 E2.4977
G1 X129.356 Y91.92 E2.5190
G1 X129.769 Y92.188 E2.5403
G1 X130.15300000000002 Y92.499 E2.5615
G1 X130.501 Y92.84700000000001 E2.5828
G1 X130.812 Y93.231 E2.6040
G1 X131.07999999999998 Y93.644 E2.6253
G1 X131.304 Y94.084 E2.6466
G1 X131.481 Y94.544 E2.6678
G1 X131.60899999999998 Y95.02000000000001 E2.6891
G1 X131.686 Y95.50800000000001 E2.7103
G1 X131.712 Y96.007 E2.7319
G1 X131.712 Y103.993 E3.0761
G1 X131.686 Y104.49199999999999 E3.0977
G1 X131.60899999999998 Y104.97999999999999 E3.1189
G1 X131.481 Y105.456 E3.1402
G1 X131.304 Y105.916 E3.1615
G1 X131.07999999999998 Y106.356 E3.1827
G1 X130.812 Y106.769 E3.2040
G1 X130.501 Y107.15299999999999 E3.2252
G1 X130.15300000000002 Y107.501 E3.2465
G1 X129.769 Y107.812 E3.2678
G1 X129.356 Y108.08 E3.2890
G1 X128.916 Y108.304 E3.3103
G1 X128.45600000000002 Y108.481 E3.3315
G1 X127.98 Y108.60900000000001 E3.3528
G1 X127.492 Y108.686 E3.3740
G1 X126.992 Y108.712 E3.3956
G1 X73.008 Y108.712 E5.7226
G1 X72.507 Y108.686 E5.7442
G1 X72.02 Y108.60900000000001 E5.7655
G1 X71.544 Y108.481 E5.7868
G1 X71.084 Y108.304 E5.8080
G1 X70.644 Y108.08 E5.8293
G1 X70.231 Y107.812 E5.8505
G1 X69.84700000000001 Y107.501 E5.8718
G1 X69.499 Y107.15299999999999 E5.8930
G1 X69.188 Y106.769 E5.9143
G1 X68.92 Y106.356 E5.9356
G1 X68.696 Y105.916 E5.9568
G1 X68.519 Y105.456 E5.9781
G1 X68.39099999999999 Y104.97999999999999 E5.9993
G1 X68.314 Y104.493 E6.0206
G1 X68.289 Y104.018 E6.0411
G1 X68.288 Y96.00800000000001 E6.3864
G1 X68.314 Y95.507 E6.4080
G1 X68.39099999999999 Y95.02000000000001 E6.4292
G1 X68.519 Y94.544 E6.4505
G1 X68.696 Y94.084 E6.4717
G1 X68.92 Y93.644 E6.4930
G1 X69.188 Y93.231 E6.5142
G1 X69.499 Y92.84700000000001 E6.5355
G1 X69.84700000000001 Y92.499 E6.5568
G1 X70.231 Y92.188 E6.5780
G1 X70.644 Y91.92 E6.5993
G1 X71.084 Y91.696 E6.6205
; feature solid layer
G1 X72.035 Y107.062 F6000
G92 E0.0000
G1 X69.938 Y104.965 E0.1278 F1440
G1 X69.858 Y104.668 E0.1411
G1 X69.806 Y104.336 E0.1556
G1 X69.788 Y104.001 E0.1701
G1 X72.999 Y107.212 E0.3658
G1 X73.047 Y107.214 E0.3679
G1 X73.816 Y107.214 E0.4010
G1 X69.787 Y103.185 E0.6467
G1 X69.787 Y102.37 E0.6818
G1 X74.631 Y107.214 E0.9771
G1 X75.446 Y107.214 E1.0122
G1 X69.787 Y101.555 E1.3572
G1 X69.786 Y100.741 E1.3923
G1 X76.26 Y107.214 E1.7869
G1 X77.075 Y107.214 E1.8220
G1 X69.786 Y99.926 E2.2663
G1 X69.786 Y99.11099999999999 E2.3015
G1 X77.889 Y107.214 E2.7954
G1 X78.70400000000001 Y107.214 E2.8305
G1 X69.786 Y98.297 E3.3742
G1 X69.786 Y97.482 E3.4093
G1 X79.518 Y107.214 E4.0026
G1 X80.333 Y107.214 E4.0377
G1 X69.786 Y96.667 E4.6807
G1 X69.786 Y96.047 E4.7074
G1 X69.795 Y95.862 E4.7154
G1 X81.148 Y107.214 E5.4074
G1 X81.962 Y107.214 E5.4425
G1 X69.905 Y95.157 E6.1775
G1 X69.945 Y95.007 E6.1842
G1 X70.066 Y94.694 E6.1987
G1 X70.13 Y94.568 E6.2048
G1 X82.777 Y107.214 E6.9758
G1 X83.59100000000001 Y107.214 E7.0109
G1 X70.441 Y94.064 E7.8125
G1 X70.613 Y93.851 E7.8243
G1 X70.828 Y93.636 E7.8374
G1 X84.406 Y107.214 E8.6652
G1 X85.221 Y107.214 E8.7003
G1 X71.291 Y93.285 E9.5494
G1 X71.394 Y93.218 E9.5547
G1 X71.694 Y93.066 E9.5692
G1 X71.833 Y93.012 E9.5756
G1 X86.035 Y107.214 E10.4414
G1 X86.85 Y107.214 E10.4765
G1 X72.47200000000001 Y92.836 E11.3530
G1 X72.664 Y92.806 E11.3614
G1 X73.047 Y92.786 E11.3779
G1 X73.236 Y92.786 E11.3860
G1 X87.664 Y107.214 E12.2656
G1 X88.479 Y107.214 E12.3007
G1 X74.05 Y92.786 E13.1803
G1 X74.865 Y92.786 E13.2154
G1 X89.293 Y107.214 E14.0950
G1 X90.108 Y107.214 E14.1301
G1 X75.679 Y92.786 E15.0097
G1 X76.494 Y92.786 E15.0448
G1 X90.923 Y107.214 E15.9244
G1 X91.737 Y107.214 E15.9595
G1 X77.30799999999999 Y92.786 E16.8391
G1 X78.123 Y92.786 E16.8742
G1 X92.55199999999999 Y107.214 E17.7538
G1 X93.366 Y107.214 E17.7889
G1 X78.938 Y92.786 E18.6684
G1 X79.752 Y92.786 E18.7036
G1 X94.181 Y107.214 E19.5831
G1 X94.99600000000001 Y107.214 E19.6182
G1 X80.56700000000001 Y92.786 E20.4978
G1 X81.381 Y92.786 E20.5329
G1 X95.81 Y107.214 E21.4125
G1 X96.625 Y107.214 E21.4476
G1 X82.196 Y92.786 E22.3272
G1 X83.011 Y92.786 E22.3623
G1 X97.439 Y107.214 E23.2419
G1 X98.25399999999999 Y107.214 E23.2770
G1 X83.825 Y92.786 E24.1566
G1 X84.64 Y92.786 E24.1917
G1 X99.069 Y107.214 E25.0713
G1 X99.88300000000001 Y107.214 E25.1064
G1 X85.45400000000001 Y92.786 E25.9860
G1 X86.269 Y92.786 E26.0211
G1 X100.69800000000001 Y107.214 E26.9007
G1 X101.512 Y107.214 E26.9358
G1 X87.084 Y92.786 E27.8153
G1 X87.898 Y92.786 E27.8505
G1 X102.327 Y107.214 E28.7300
G1 X103.14099999999999 Y107.214 E28.7651
G1 X88.713 Y92.786 E29.6447
G1 X89.527 Y92.786 E29.6798
G1 X103.956 Y107.214 E30.5594
G1 X104.771 Y107.214 E30.5945
G1 X90.342 Y92.786 E31.4741
G1 X91.156 Y92.786 E31.5092
G1 X105.58500000000001 Y107.214 E32.3888
G1 X106.4 Y107.214 E32.4239
G1 X91.971 Y92.786 E33.3035
G1 X92.786 Y92.786 E33.3386
G1 X107.214 Y107.214 E34.2182
G1 X108.029 Y107.214 E34.2533
G1 X93.6 Y92.786 E35.1329
G1 X94.41499999999999 Y92.786 E35.1680
G1 X108.844 Y107.214 E36.0476
G1 X109.658 Y107.214 E36.0827
G1 X95.229 Y92.786 E36.9622
G1 X96.044 Y92.786 E36.9974
G1 X110.473 Y107.214 E37.8769
G1 X111.287 Y107.214 E37.9120
G1 X96.85900000000001 Y92.786 E38.7916
G1 X97.673 Y92.786 E38.8267
G1 X112.102 Y107.214 E39.7063
G1 X112.917 Y107.214 E39.7414
G1 X98.488 Y92.786 E40.6210
G1 X99.30199999999999 Y92.786 E40.6561
G1 X113.731 Y107.214 E41.5357
G1 X114.546 Y107.214 E41.5708
G1 X100.11699999999999 Y92.786 E42.4504
G1 X100.931 Y92.786 E42.4855
G1 X115.36 Y107.214 E43.3651
G1 X116.175 Y107.214 E43.4002
G1 X101.74600000000001 Y92.786 E44.2798
G1 X102.561 Y92.786 E44.3149
G1 X116.989 Y107.214 E45.1945
G1 X117.804 Y107.214 E45.2296
G1 X103.375 Y92.786 E46.1091
G1 X104.19 Y92.786 E46.1443
G1 X118.619 Y107.214 E47.0238
G1 X119.433 Y107.214 E47.0589
G1 X105.00399999999999 Y92.786 E47.9385
G1 X105.819 Y92.786 E47.9736
G1 X120.248 Y107.214 E48.8532
G1 X121.062 Y107.214 E48.8883
G1 X106.634 Y92.786 E49.7679
G1 X107.44800000000001 Y92.786 E49.8030
G1 X121.877 Y107.214 E50.6826
G1 X122.692 Y107.214 E50.7177
G1 X108.263 Y92.786 E51.5973
G1 X109.077 Y92.786 E51.6324
G1 X123.506 Y107.214 E52.5120
G1 X124.321 Y107.214 E52.5471
G1 X109.892 Y92.786 E53.4267
G1 X110.707 Y92.786 E53.4618
G1 X125.135 Y107.214 E54.3414
G1 X125.95 Y107.214 E54.3765
G1 X111.521 Y92.786 E55.2560
G1 X112.336 Y92.786 E55.2912
G1 X126.764 Y107.214 E56.1707
G1 X126.953 Y107.214 E56.1789
G1 X127.336 Y107.194 E56.1954
G1 X127.529 Y107.164 E56.2038
G1 X113.15 Y92.786 E57.0803
G1 X113.965 Y92.786 E57.1154
G1 X128.167 Y106.988 E57.9812
G1 X128.30599999999998 Y106.934 E57.9876
G1 X128.606 Y106.782 E58.0021
G1 X128.709 Y106.715 E58.0074
G1 X114.779 Y92.786 E58.8565
G1 X115.594 Y92.786 E58.8916
G1 X129.172 Y106.364 E59.7193
G1 X129.387 Y106.149 E59.7324
G1 X129.559 Y105.936 E59.7442
G1 X116.409 Y92.786 E60.5459
G1 X117.223 Y92.786 E60.5810
G1 X129.87 Y105.432 E61.3520
G1 X129.934 Y105.306 E61.3581
G1 X130.055 Y104.99199999999999 E61.3726
G1 X130.095 Y104.843 E61.3792
G1 X118.038 Y92.786 E62.1142
G1 X118.852 Y92.786 E62.1493
G1 X130.20499999999998 Y104.138 E62.8414
G1 X130.214 Y103.953 E62.8493
G1 X130.214 Y103.333 E62.8761
G1 X119.667 Y92.786 E63.5191
G1 X120.482 Y92.786 E63.5542
G1 X130.214 Y102.518 E64.1475
G1 X130.214 Y101.70400000000001 E64.1826
G1 X121.296 Y92.786 E64.7262
G1 X122.111 Y92.786 E64.7614
G1 X130.214 Y100.88900000000001 E65.2554
G1 X130.214 Y100.075 E65.2905
G1 X122.925 Y92.786 E65.7348
G1 X123.74 Y92.786 E65.7699
G1 X130.214 Y99.25999999999999 E66.1646
G1 X130.214 Y98.445 E66.1997
G1 X124.555 Y92.786 E66.5447
G1 X125.369 Y92.786 E66.5799
G1 X130.214 Y97.631 E66.8752
G1 X130.214 Y96.816 E66.9103
G1 X126.184 Y92.786 E67.1561
G1 X126.953 Y92.786 E67.1892
G1 X127.001 Y92.788 E67.1913
G1 X130.212 Y95.999 E67.3870
G1 X130.19400000000002 Y95.664 E67.4015
G1 X130.142 Y95.332 E67.4160
G1 X130.062 Y95.035 E67.4293
G1 X127.965 Y92.938 E67.5571
G92 E0.0000
G1 E-12 F600 ; custom retraction - A
; layer 2, Z = 0.400
M106 S255 ; custom fan 100% from layer 2
; feature inner perimeter
; tool H0.200 W0.480
;zhopupA
G1 X128.174 Y92.388 F6000
G1 Z0.400 F1200
G1 E0 F600 ; custom un-retraction/prime - A
G92 E0.0000
G1 X128.54500000000002 Y92.53 E0.0143 F2700
G1 X128.899 Y92.711 E0.0286
G1 X129.233 Y92.92699999999999 E0.0428
G1 X129.542 Y93.17699999999999 E0.0571
G1 X129.82299999999998 Y93.458 E0.0714
G1 X130.07299999999998 Y93.767 E0.0857
G1 X130.289 Y94.101 E0.1000
G1 X130.47 Y94.455 E0.1143
G1 X130.612 Y94.826 E0.1285
G1 X130.715 Y95.21000000000001 E0.1428
G1 X130.77800000000002 Y95.60300000000001 E0.1571
G1 X130.8 Y96.031 E0.1725
G1 X130.8 Y103.969 E0.4576
G1 X130.77800000000002 Y104.39699999999999 E0.4730
G1 X130.715 Y104.78999999999999 E0.4873
G1 X130.612 Y105.174 E0.5016
G1 X130.47 Y105.545 E0.5159
G1 X130.289 Y105.899 E0.5302
G1 X130.07299999999998 Y106.233 E0.5444
G1 X129.82299999999998 Y106.541 E0.5587
G1 X129.541 Y106.82300000000001 E0.5730
G1 X129.233 Y107.07300000000001 E0.5873
G1 X128.899 Y107.289 E0.6016
G1 X128.54500000000002 Y107.47 E0.6158
G1 X128.174 Y107.612 E0.6301
G1 X127.79 Y107.715 E0.6444
G1 X127.397 Y107.77799999999999 E0.6587
G1 X126.969 Y107.8 E0.6741
G1 X73.031 Y107.8 E2.6116
G1 X72.60300000000001 Y107.77799999999999 E2.6270
G1 X72.21000000000001 Y107.715 E2.6413
G1 X71.826 Y107.612 E2.6555
G1 X71.455 Y107.47 E2.6698
G1 X71.101 Y107.289 E2.6841
G1 X70.767 Y107.07300000000001 E2.6984
G1 X70.459 Y106.82300000000001 E2.7127
G1 X70.17699999999999 Y106.541 E2.7270
G1 X69.92699999999999 Y106.233 E2.7412
G1 X69.711 Y105.899 E2.7555
G1 X69.53 Y105.545 E2.7698
G1 X69.388 Y105.174 E2.7841
G1 X69.285 Y104.78999999999999 E2.7984
G1 X69.22200000000001 Y104.39699999999999 E2.8126
G1 X69.20400000000001 Y104.047 E2.8252
G1 X69.2 Y96.031 E3.1132
G1 X69.22200000000001 Y95.60300000000001 E3.1286
G1 X69.285 Y95.21000000000001 E3.1429
G1 X69.388 Y94.826 E3.1571
G1 X69.53 Y94.455 E3.1714
G1 X69.711 Y94.101 E3.1857
G1 X69.92699999999999 Y93.767 E3.2000
G1 X70.17699999999999 Y93.458 E3.2143
G1 X70.458 Y93.17699999999999 E3.2285
G1 X70.767 Y92.92699999999999 E3.2428
G1 X71.101 Y92.711 E3.2571
G1 X71.455 Y92.53 E3.2714
G1 X71.826 Y92.388 E3.2857
G1 X72.21000000000001 Y92.285 E3.3000
G1 X72.60300000000001 Y92.22200000000001 E3.3142
G1 X73.031 Y92.2 E3.3296
G1 X126.969 Y92.2 E5.2671
G1 X127.397 Y92.22200000000001 E5.2825
G1 X127.79 Y92.285 E5.2968
G1 X128.174 Y92.388 E5.3111
G1 X128.322 Y91.93 F6000
G92 E0.0000
G1 X128.74 Y92.09100000000001 E0.0161 F2700
G1 X129.139 Y92.294 E0.0322
G1 X129.515 Y92.538 E0.0483
G1 X129.863 Y92.82 E0.0644
G1 X130.18 Y93.137 E0.0804
G1 X130.462 Y93.485 E0.0965
G1 X130.70600000000002 Y93.86099999999999 E0.1126
G1 X130.909 Y94.25999999999999 E0.1287
G1 X131.07 Y94.678 E0.1448
G1 X131.185 Y95.11 E0.1609
G1 X131.256 Y95.553 E0.1770
G1 X131.28 Y96.019 E0.1937
G1 X131.28 Y103.981 E0.4798
G1 X131.256 Y104.447 E0.4965
G1 X131.185 Y104.89 E0.5126
G1 X131.07 Y105.322 E0.5287
G1 X130.909 Y105.74000000000001 E0.5448
G1 X130.70600000000002 Y106.14 E0.5609
G1 X130.462 Y106.515 E0.5770
G1 X130.18 Y106.863 E0.5930
G1 X129.863 Y107.18 E0.6091
G1 X129.515 Y107.462 E0.6252
G1 X129.14 Y107.706 E0.6413
G1 X128.74 Y107.90899999999999 E0.6574
G1 X128.322 Y108.07 E0.6735
G1 X127.89 Y108.186 E0.6896
G1 X127.447 Y108.256 E0.7057
G1 X126.981 Y108.28 E0.7224
G1 X73.019 Y108.28 E2.6608
G1 X72.553 Y108.256 E2.6776
G1 X72.11 Y108.185 E2.6937
G1 X71.678 Y108.07 E2.7098
G1 X71.26 Y107.90899999999999 E2.7258
G1 X70.86 Y107.706 E2.7419
G1 X70.485 Y107.462 E2.7580
G1 X70.137 Y107.18 E2.7741
G1 X69.82 Y106.863 E2.7902
G1 X69.538 Y106.515 E2.8063
G1 X69.294 Y106.13900000000001 E2.8224
G1 X69.09100000000001 Y105.74000000000001 E2.8385
G1 X68.93 Y105.322 E2.8546
G1 X68.814 Y104.89 E2.8706
G1 X68.744 Y104.447 E2.8867
G1 X68.724 Y104.059 E2.9007
G1 X68.72 Y96.019 E3.1895
G1 X68.744 Y95.553 E3.2063
G1 X68.814 Y95.11 E3.2224
G1 X68.93 Y94.678 E3.2385
G1 X69.09100000000001 Y94.25999999999999 E3.2545
G1 X69.294 Y93.86099999999999 E3.2706
G1 X69.538 Y93.485 E3.2867
G1 X69.82 Y93.137 E3.3028
G1 X70.137 Y92.82 E3.3189
G1 X70.485 Y92.538 E3.3350
G1 X70.861 Y92.294 E3.3511
G1 X71.26 Y92.09100000000001 E3.3672
G1 X71.678 Y91.93 E3.3833
G1 X72.11 Y91.814 E3.3993
G1 X72.553 Y91.744 E3.4154
G1 X73.019 Y91.72 E3.4322
G1 X126.981 Y91.72 E5.3706
G1 X127.447 Y91.744 E5.3873
G1 X127.89 Y91.815 E5.4034
G1 X128.322 Y91.93 E5.4195
; feature outer perimeter
G1 X128.471 Y91.473 F6000
G92 E0.0000
G1 X128.936 Y91.652 E0.0179 F1800
G1 X129.38 Y91.878 E0.0358
G1 X129.798 Y92.149 E0.0537
G1 X130.185 Y92.463 E0.0716
G1 X130.537 Y92.815 E0.0895
G1 X130.851 Y93.202 E0.1074
G1 X131.122 Y93.62 E0.1253
G1 X131.348 Y94.064 E0.1432
G1 X131.527 Y94.529 E0.1611
G1 X131.656 Y95.00999999999999 E0.1790
G1 X131.73399999999998 Y95.50200000000001 E0.1969
G1 X131.76 Y96.006 E0.2150
G1 X131.76 Y103.994 E0.5019
G1 X131.73399999999998 Y104.49799999999999 E0.5200
G1 X131.656 Y104.99000000000001 E0.5379
G1 X131.527 Y105.471 E0.5558
G1 X131.348 Y105.936 E0.5737
G1 X131.122 Y106.38 E0.5916
G1 X130.851 Y106.798 E0.6095
G1 X130.537 Y107.185 E0.6274
G1 X130.185 Y107.537 E0.6453
G1 X129.798 Y107.851 E0.6632
G1 X129.38 Y108.122 E0.6811
G1 X128.936 Y108.348 E0.6990
G1 X128.471 Y108.527 E0.7169
G1 X127.99 Y108.656 E0.7348
G1 X127.497 Y108.73400000000001 E0.7527
G1 X126.994 Y108.75999999999999 E0.7708
G1 X73.006 Y108.75999999999999 E2.7101
G1 X72.503 Y108.73400000000001 E2.7282
G1 X72.01 Y108.656 E2.7461
G1 X71.529 Y108.527 E2.7640
G1 X71.064 Y108.348 E2.7819
G1 X70.62 Y108.122 E2.7998
G1 X70.202 Y107.851 E2.8177
G1 X69.815 Y107.537 E2.8356
G1 X69.463 Y107.185 E2.8535
G1 X69.149 Y106.798 E2.8714
G1 X68.878 Y106.38 E2.8892
G1 X68.652 Y105.936 E2.9071
G1 X68.473 Y105.471 E2.9250
G1 X68.344 Y104.99000000000001 E2.9429
G1 X68.26599999999999 Y104.49799999999999 E2.9608
G1 X68.244 Y104.072 E2.9761
G1 X68.24 Y96.006 E3.2659
G1 X68.26599999999999 Y95.50200000000001 E3.2840
G1 X68.344 Y95.00999999999999 E3.3019
G1 X68.473 Y94.529 E3.3198
G1 X68.652 Y94.064 E3.3377
G1 X68.878 Y93.62 E3.3556
G1 X69.149 Y93.202 E3.3735
G1 X69.463 Y92.815 E3.3914
G1 X69.815 Y92.463 E3.4093
G1 X70.202 Y92.149 E3.4272
G1 X70.62 Y91.878 E3.4451
G1 X71.064 Y91.652 E3.4629
G1 X71.529 Y91.473 E3.4808
G1 X72.01 Y91.344 E3.4987
G1 X72.502 Y91.26599999999999 E3.5166
G1 X73.006 Y91.24000000000001 E3.5348
G1 X126.994 Y91.24000000000001 E5.4740
G1 X127.497 Y91.26599999999999 E5.4922
G1 X127.99 Y91.344 E5.5101
G1 X128.471 Y91.473 E5.5280
; feature solid layer
G1 X130.38400000000001 Y104.91499999999999 F6000
G92 E0.0000
G1 X127.915 Y107.384 E0.1254 F2880
G1 X127.73 Y107.43299999999999 E0.1323
G1 X127.367 Y107.491 E0.1455
G1 X127.116 Y107.50399999999999 E0.1545
G1 X130.50400000000002 Y104.116 E0.3266
G1 X130.512 Y103.961 E0.3322
G1 X130.512 Y103.429 E0.3513
G1 X126.429 Y107.512 E0.5587
G1 X125.75 Y107.512 E0.5831
G1 X130.512 Y102.75 E0.8250
G1 X130.512 Y102.072 E0.8494
G1 X125.072 Y107.512 E1.1257
G1 X124.393 Y107.512 E1.1501
G1 X130.512 Y101.393 E1.4610
G1 X130.512 Y100.714 E1.4854
G1 X123.714 Y107.512 E1.8307
G1 X123.035 Y107.512 E1.8551
G1 X130.512 Y100.035 E2.2349
G1 X130.512 Y99.356 E2.2593
G1 X122.356 Y107.512 E2.6736
G1 X121.677 Y107.512 E2.6980
G1 X130.512 Y98.67699999999999 E3.1468
G1 X130.512 Y97.999 E3.1712
G1 X120.999 Y107.512 E3.6545
G1 X120.32 Y107.512 E3.6788
G1 X130.512 Y97.32 E4.1966
G1 X130.512 Y96.64099999999999 E4.2210
G1 X119.641 Y107.512 E4.7732
G1 X118.962 Y107.512 E4.7976
G1 X130.50799999999998 Y95.96600000000001 E5.3842
G1 X130.49099999999999 Y95.63300000000001 E5.3961
G1 X130.446 Y95.35 E5.4064
G1 X118.283 Y107.512 E6.0243
G1 X117.604 Y107.512 E6.0487
G1 X130.3 Y94.816 E6.6936
G1 X130.207 Y94.572 E6.7030
G1 X130.091 Y94.346 E6.7121
G1 X116.926 Y107.512 E7.3809
G1 X116.247 Y107.512 E7.4053
G1 X129.832 Y93.92699999999999 E8.0954
G1 X129.608 Y93.65100000000001 E8.1082
G1 X129.519 Y93.561 E8.1127
G1 X115.568 Y107.512 E8.8214
G1 X114.889 Y107.512 E8.8458
G1 X129.161 Y93.24000000000001 E9.5708
G1 X129.063 Y93.16 E9.5754
G1 X128.75900000000001 Y92.963 E9.5884
G1 X114.21 Y107.512 E10.3275
G1 X113.532 Y107.512 E10.3518
G1 X128.299 Y92.744 E11.1020
G1 X128.08499999999998 Y92.662 E11.1103
G1 X127.784 Y92.581 E11.1215
G1 X112.85300000000001 Y107.512 E11.8800
G1 X112.174 Y107.512 E11.9044
G1 X127.186 Y92.5 E12.6670
G1 X126.961 Y92.488 E12.6751
G1 X126.519 Y92.488 E12.6910
G1 X111.495 Y107.512 E13.4542
G1 X110.816 Y107.512 E13.4786
G1 X125.84 Y92.488 E14.2418
G1 X125.161 Y92.488 E14.2662
G1 X110.137 Y107.512 E15.0294
G1 X109.459 Y107.512 E15.0538
G1 X124.483 Y92.488 E15.8170
G1 X123.804 Y92.488 E15.8414
G1 X108.78 Y107.512 E16.6046
G1 X108.101 Y107.512 E16.6290
G1 X123.125 Y92.488 E17.3922
G1 X122.446 Y92.488 E17.4166
G1 X107.422 Y107.512 E18.1798
G1 X106.743 Y107.512 E18.2042
G1 X121.767 Y92.488 E18.9674
G1 X121.088 Y92.488 E18.9918
G1 X106.064 Y107.512 E19.7550
G1 X105.386 Y107.512 E19.7794
G1 X120.41 Y92.488 E20.5426
G1 X119.731 Y92.488 E20.5670
G1 X104.707 Y107.512 E21.3302
G1 X104.02799999999999 Y107.512 E21.3546
G1 X119.052 Y92.488 E22.1178
G1 X118.373 Y92.488 E22.1422
G1 X103.34899999999999 Y107.512 E22.9054
G1 X102.67 Y107.512 E22.9298
G1 X117.694 Y92.488 E23.6930
G1 X117.016 Y92.488 E23.7174
G1 X101.99199999999999 Y107.512 E24.4806
G1 X101.313 Y107.512 E24.5050
G1 X116.337 Y92.488 E25.2682
G1 X115.658 Y92.488 E25.2926
G1 X100.634 Y107.512 E26.0558
G1 X99.955 Y107.512 E26.0802
G1 X114.979 Y92.488 E26.8434
G1 X114.3 Y92.488 E26.8678
G1 X99.27600000000001 Y107.512 E27.6310
G1 X98.59700000000001 Y107.512 E27.6554
G1 X113.62100000000001 Y92.488 E28.4186
G1 X112.943 Y92.488 E28.4430
G1 X97.919 Y107.512 E29.2062
G1 X97.24000000000001 Y107.512 E29.2306
G1 X112.26400000000001 Y92.488 E29.9938
G1 X111.58500000000001 Y92.488 E30.0182
G1 X96.561 Y107.512 E30.7814
G1 X95.882 Y107.512 E30.8058
G1 X110.906 Y92.488 E31.5690
G1 X110.227 Y92.488 E31.5934
G1 X95.203 Y107.512 E32.3566
G1 X94.525 Y107.512 E32.3810
G1 X109.549 Y92.488 E33.1442
G1 X108.87 Y92.488 E33.1686
G1 X93.846 Y107.512 E33.9318
G1 X93.167 Y107.512 E33.9562
G1 X108.191 Y92.488 E34.7194
G1 X107.512 Y92.488 E34.7438
G1 X92.488 Y107.512 E35.5070
G1 X91.809 Y107.512 E35.5314
G1 X106.833 Y92.488 E36.2946
G1 X106.154 Y92.488 E36.3190
G1 X91.13 Y107.512 E37.0822
G1 X90.452 Y107.512 E37.1066
G1 X105.476 Y92.488 E37.8698
G1 X104.797 Y92.488 E37.8942
G1 X89.773 Y107.512 E38.6574
G1 X89.094 Y107.512 E38.6818
G1 X104.118 Y92.488 E39.4450
G1 X103.439 Y92.488 E39.4694
G1 X88.41499999999999 Y107.512 E40.2326
G1 X87.73599999999999 Y107.512 E40.2570
G1 X102.75999999999999 Y92.488 E41.0202
G1 X102.081 Y92.488 E41.0446
G1 X87.057 Y107.512 E41.8078
G1 X86.37899999999999 Y107.512 E41.8322
G1 X101.40299999999999 Y92.488 E42.5954
G1 X100.72399999999999 Y92.488 E42.6198
G1 X85.7 Y107.512 E43.3830
G1 X85.021 Y107.512 E43.4074
G1 X100.045 Y92.488 E44.1706
G1 X99.366 Y92.488 E44.1950
G1 X84.342 Y107.512 E44.9582
G1 X83.663 Y107.512 E44.9826
G1 X98.687 Y92.488 E45.7458
G1 X98.009 Y92.488 E45.7702
G1 X82.985 Y107.512 E46.5334
G1 X82.306 Y107.512 E46.5578
G1 X97.33 Y92.488 E47.3210
G1 X96.65100000000001 Y92.488 E47.3454
G1 X81.627 Y107.512 E48.1086
G1 X80.94800000000001 Y107.512 E48.1330
G1 X95.97200000000001 Y92.488 E48.8962
G1 X95.293 Y92.488 E48.9206
G1 X80.269 Y107.512 E49.6838
G1 X79.59 Y107.512 E49.7082
G1 X94.614 Y92.488 E50.4714
G1 X93.936 Y92.488 E50.4958
G1 X78.912 Y107.512 E51.2590
G1 X78.233 Y107.512 E51.2834
G1 X93.257 Y92.488 E52.0466
G1 X92.578 Y92.488 E52.0710
G1 X77.554 Y107.512 E52.8342
G1 X76.875 Y107.512 E52.8586
G1 X91.899 Y92.488 E53.6218
G1 X91.22 Y92.488 E53.6462
G1 X76.196 Y107.512 E54.4094
G1 X75.517 Y107.512 E54.4338
G1 X90.541 Y92.488 E55.1970
G1 X89.863 Y92.488 E55.2214
G1 X74.839 Y107.512 E55.9846
G1 X74.16 Y107.512 E56.0090
G1 X89.184 Y92.488 E56.7722
G1 X88.505 Y92.488 E56.7966
G1 X73.481 Y107.512 E57.5598
G1 X73.039 Y107.512 E57.5757
G1 X72.814 Y107.5 E57.5838
G1 X87.826 Y92.488 E58.3464
G1 X87.14699999999999 Y92.488 E58.3708
G1 X72.21600000000001 Y107.419 E59.1293
G1 X71.91499999999999 Y107.338 E59.1405
G1 X71.701 Y107.256 E59.1487
G1 X86.469 Y92.488 E59.8989
G1 X85.78999999999999 Y92.488 E59.9233
G1 X71.241 Y107.037 E60.6624
G1 X70.937 Y106.84 E60.6754
G1 X70.839 Y106.75999999999999 E60.6800
G1 X85.11099999999999 Y92.488 E61.4050
G1 X84.432 Y92.488 E61.4294
G1 X70.482 Y106.439 E62.1381
G1 X70.392 Y106.34899999999999 E62.1426
G1 X70.168 Y106.07300000000001 E62.1554
G1 X83.753 Y92.488 E62.8455
G1 X83.074 Y92.488 E62.8699
G1 X69.90899999999999 Y105.654 E63.5387
G1 X69.793 Y105.428 E63.5478
G1 X69.7 Y105.184 E63.5572
G1 X82.396 Y92.488 E64.2021
G1 X81.717 Y92.488 E64.2265
G1 X69.554 Y104.65100000000001 E64.8444
G1 X69.509 Y104.36699999999999 E64.8547
G1 X69.492 Y104.039 E64.8665
G1 X69.492 Y104.03399999999999 E64.8667
G1 X81.038 Y92.488 E65.4532
G1 X80.35900000000001 Y92.488 E65.4776
G1 X69.492 Y103.35499999999999 E66.0296
G1 X69.491 Y102.67699999999999 E66.0540
G1 X79.68 Y92.488 E66.5716
G1 X79.001 Y92.488 E66.5960
G1 X69.491 Y101.99799999999999 E67.0791
G1 X69.491 Y101.32 E67.1035
G1 X78.32300000000001 Y92.488 E67.5522
G1 X77.644 Y92.488 E67.5765
G1 X69.49 Y100.64099999999999 E67.9907
G1 X69.49 Y99.963 E68.0151
G1 X76.965 Y92.488 E68.3948
G1 X76.286 Y92.488 E68.4192
G1 X69.49 Y99.285 E68.7645
G1 X69.489 Y98.606 E68.7889
G1 X75.607 Y92.488 E69.0997
G1 X74.929 Y92.488 E69.1240
G1 X69.489 Y97.928 E69.4004
G1 X69.489 Y97.249 E69.4247
G1 X74.25 Y92.488 E69.6666
G1 X73.571 Y92.488 E69.6910
G1 X69.488 Y96.571 E69.8984
G1 X69.488 Y96.039 E69.9175
G1 X69.496 Y95.884 E69.9231
G1 X72.884 Y92.49600000000001 E70.0952
G1 X72.633 Y92.509 E70.1042
G1 X72.27 Y92.56700000000001 E70.1174
G1 X72.08500000000001 Y92.616 E70.1243
G1 X69.616 Y95.08500000000001 E70.2497
G92 E0.0000
G1 E-12 F600 ; custom retraction - A
; layer 3, Z = 0.600
;fan3
; feature inner perimeter
;zhopupA
G1 X69.388 Y94.826 F6000
G1 Z0.600 F1200
G1 E0 F600 ; custom un-retraction/prime - A
G92 E0.0000
G1 X69.53 Y94.455 E0.0143 F2700
G1 X69.711 Y94.101 E0.0286
G1 X69.92699999999999 Y93.767 E0.0428
G1 X70.17699999999999 Y93.458 E0.0571
G1 X70.458 Y93.17699999999999 E0.0714
G1 X70.767 Y92.92699999999999 E0.0857
G1 X71.101 Y92.711 E0.1000
G1 X71.455 Y92.53 E0.1143
G1 X71.826 Y92.388 E0.1285
G1 X72.21000000000001 Y92.285 E0.1428
G1 X72.60300000000001 Y92.22200000000001 E0.1571
G1 X73.031 Y92.2 E0.1725
G1 X126.969 Y92.2 E2.1100
G1 X127.397 Y92.22200000000001 E2.1254
G1 X127.79 Y92.285 E2.1397
G1 X128.174 Y92.388 E2.1540
G1 X128.54500000000002 Y92.53 E2.1682
G1 X128.899 Y92.711 E2.1825
G1 X129.233 Y92.92699999999999 E2.1968
G1 X129.542 Y93.17699999999999 E2.2111
G1 X129.82299999999998 Y93.458 E2.2254
G1 X130.07299999999998 Y93.767 E2.2396
G1 X130.289 Y94.101 E2.2539
G1 X130.47 Y94.455 E2.2682
G1 X130.612 Y94.826 E2.2825
G1 X130.715 Y95.21000000000001 E2.2968
G1 X130.77800000000002 Y95.60300000000001 E2.3111
G1 X130.8 Y96.031 E2.3265
G1 X130.8 Y103.969 E2.6116
G1 X130.77800000000002 Y104.39699999999999 E2.6270
G1 X130.715 Y104.78999999999999 E2.6413
G1 X130.612 Y105.174 E2.6555
G1 X130.47 Y105.545 E2.6698
G1 X130.289 Y105.899 E2.6841
G1 X130.07299999999998 Y106.233 E2.6984
G1 X129.82299999999998 Y106.541 E2.7127
G1 X129.541 Y106.82300000000001 E2.7270
G1 X129.233 Y107.07300000000001 E2.7412
G1 X128.899 Y107.289 E2.7555
G1 X128.54500000000002 Y107.47 E2.7698
G1 X128.174 Y107.612 E2.7841
G1 X127.79 Y107.715 E2.7984
G1 X127.397 Y107.77799999999999 E2.8126
G1 X126.969 Y107.8 E2.8281
G1 X73.031 Y107.8 E4.7655
G1 X72.60300000000001 Y107.77799999999999 E4.7809
G1 X72.21000000000001 Y107.715 E4.7952
G1 X71.826 Y107.612 E4.8095
G1 X71.455 Y107.47 E4.8238
G1 X71.101 Y107.289 E4.8381
G1 X70.767 Y107.07300000000001 E4.8524
G1 X70.459 Y106.82300000000001 E4.8666
G1 X70.17699999999999 Y106.541 E4.8809
G1 X69.92699999999999 Y106.233 E4.8952
G1 X69.711 Y105.899 E4.9095
G1 X69.53 Y105.545 E4.9238
G1 X69.388 Y105.174 E4.9380
G1 X69.285 Y104.78999999999999 E4.9523
G1 X69.22200000000001 Y104.39699999999999 E4.9666
G1 X69.207 Y104.09899999999999 E4.9773
G1 X69.2 Y96.031 E5.2671
G1 X69.22200000000001 Y95.60300000000001 E5.2825
G1 X69.285 Y95.21000000000001 E5.2968
G1 X69.388 Y94.826 E5.3111
G1 X68.93 Y94.678 F6000
G92 E0.0000
G1 X69.09100000000001 Y94.25999999999999 E0.0161 F2700
G1 X69.294 Y93.86099999999999 E0.0322
G1 X69.538 Y93.485 E0.0483
G1 X69.82 Y93.137 E0.0644
G1 X70.137 Y92.82 E0.0804
G1 X70.485 Y92.538 E0.0965
G1 X70.861 Y92.294 E0.1126
G1 X71.26 Y92.09100000000001 E0.1287
G1 X71.678 Y91.93 E0.1448
G1 X72.11 Y91.814 E0.1609
G1 X72.553 Y91.744 E0.1770
G1 X73.019 Y91.72 E0.1937
G1 X126.981 Y91.72 E2.1321
G1 X127.447 Y91.744 E2.1489
G1 X127.89 Y91.815 E2.1650
G1 X128.322 Y91.93 E2.1811
G1 X128.74 Y92.09100000000001 E2.1972
G1 X129.139 Y92.294 E2.2132
G1 X129.515 Y92.538 E2.2293
G1 X129.863 Y92.82 E2.2454
G1 X130.18 Y93.137 E2.2615
G1 X130.462 Y93.485 E2.2776
G1 X130.70600000000002 Y93.86099999999999 E2.2937
G1 X130.909 Y94.25999999999999 E2.3098
G1 X131.07 Y94.678 E2.3259
G1 X131.185 Y95.11 E2.3420
G1 X131.256 Y95.553 E2.3580
G1 X131.28 Y96.019 E2.3748
G1 X131.28 Y103.981 E2.6608
G1 X131.256 Y104.447 E2.6776
G1 X131.185 Y104.89 E2.6937
G1 X131.07 Y105.322 E2.7098
G1 X130.909 Y105.74000000000001 E2.7259
G1 X130.70600000000002 Y106.14 E2.7419
G1 X130.462 Y106.515 E2.7580
G1 X130.18 Y106.863 E2.7741
G1 X129.863 Y107.18 E2.7902
G1 X129.515 Y107.462 E2.8063
G1 X129.14 Y107.706 E2.8224
G1 X128.74 Y107.90899999999999 E2.8385
G1 X128.322 Y108.07 E2.8546
G1 X127.89 Y108.186 E2.8707
G1 X127.447 Y108.256 E2.8867
G1 X126.981 Y108.28 E2.9035
G1 X73.019 Y108.28 E4.8419
G1 X72.553 Y108.256 E4.8587
G1 X72.11 Y108.185 E4.8747
G1 X71.678 Y108.07 E4.8908
G1 X71.26 Y107.90899999999999 E4.9069
G1 X70.86 Y107.706 E4.9230
G1 X70.485 Y107.462 E4.9391
G1 X70.137 Y107.18 E4.9552
G1 X69.82 Y106.863 E4.9713
G1 X69.538 Y106.515 E4.9874
G1 X69.294 Y106.13900000000001 E5.0035
G1 X69.09100000000001 Y105.74000000000001 E5.0195
G1 X68.93 Y105.322 E5.0356
G1 X68.814 Y104.89 E5.0517
G1 X68.744 Y104.447 E5.0678
G1 X68.727 Y104.11099999999999 E5.0799
G1 X68.72 Y96.019 E5.3706
G1 X68.744 Y95.553 E5.3873
G1 X68.814 Y95.11 E5.4034
G1 X68.93 Y94.678 E5.4195
; feature outer perimeter
G1 X68.473 Y94.529 F6000
G92 E0.0000
G1 X68.652 Y94.064 E0.0179 F1800
G1 X68.878 Y93.62 E0.0358
G1 X69.149 Y93.202 E0.0537
G1 X69.463 Y92.815 E0.0716
G1 X69.815 Y92.463 E0.0895
G1 X70.202 Y92.149 E0.1074
G1 X70.62 Y91.878 E0.1253
G1 X71.064 Y91.652 E0.1432
G1 X71.529 Y91.473 E0.1611
G1 X72.01 Y91.344 E0.1790
G1 X72.502 Y91.26599999999999 E0.1969
G1 X73.006 Y91.24000000000001 E0.2150
G1 X126.994 Y91.24000000000001 E2.1543
G1 X127.497 Y91.26599999999999 E2.1724
G1 X127.99 Y91.344 E2.1903
G1 X128.471 Y91.473 E2.2082
G1 X128.936 Y91.652 E2.2261
G1 X129.38 Y91.878 E2.2440
G1 X129.798 Y92.149 E2.2619
G1 X130.185 Y92.463 E2.2798
G1 X130.537 Y92.815 E2.2977
G1 X130.851 Y93.202 E2.3155
G1 X131.122 Y93.62 E2.3334
G1 X131.348 Y94.064 E2.3513
G1 X131.527 Y94.529 E2.3692
G1 X131.656 Y95.00999999999999 E2.3871
G1 X131.73399999999998 Y95.50200000000001 E2.4050
G1 X131.76 Y96.006 E2.4231
G1 X131.76 Y103.994 E2.7101
G1 X131.73399999999998 Y104.49799999999999 E2.7282
G1 X131.656 Y104.99000000000001 E2.7461
G1 X131.527 Y105.471 E2.7640
G1 X131.348 Y105.936 E2.7819
G1 X131.122 Y106.38 E2.7998
G1 X130.851 Y106.798 E2.8177
G1 X130.537 Y107.185 E2.8356
G1 X130.185 Y107.537 E2.8535
G1 X129.798 Y107.851 E2.8714
G1 X129.38 Y108.122 E2.8893
G1 X128.936 Y108.348 E2.9071
G1 X128.471 Y108.527 E2.9250
G1 X127.99 Y108.656 E2.9429
G1 X127.497 Y108.73400000000001 E2.9608
G1 X126.994 Y108.75999999999999 E2.9790
G1 X73.006 Y108.75999999999999 E4.9182
G1 X72.503 Y108.73400000000001 E4.9364
G1 X72.01 Y108.656 E4.9543
G1 X71.529 Y108.527 E4.9721
G1 X71.064 Y108.348 E4.9900
G1 X70.62 Y108.122 E5.0079
G1 X70.202 Y107.851 E5.0258
G1 X69.815 Y107.537 E5.0437
G1 X69.463 Y107.185 E5.0616
G1 X69.149 Y106.798 E5.0795
G1 X68.878 Y106.38 E5.0974
G1 X68.652 Y105.936 E5.1153
G1 X68.473 Y105.471 E5.1332
G1 X68.344 Y104.99000000000001 E5.1511
G1 X68.26599999999999 Y104.49799999999999 E5.1690
G1 X68.247 Y104.124 E5.1824
G1 X68.24 Y96.006 E5.4740
G1 X68.26599999999999 Y95.50200000000001 E5.4922
G1 X68.344 Y95.00999999999999 E5.5101
G1 X68.473 Y94.529 E5.5280
; feature solid layer
G1 X72.08500000000001 Y107.384 F6000
G92 E0.0000
G1 X69.616 Y104.91499999999999 E0.1254 F2880
G1 X69.56700000000001 Y104.72999999999999 E0.1323
G1 X69.509 Y104.36699999999999 E0.1455
G1 X69.496 Y104.116 E0.1545
G1 X72.884 Y107.50399999999999 E0.3266
G1 X73.039 Y107.512 E0.3322
G1 X73.571 Y107.512 E0.3513
G1 X69.494 Y103.435 E0.5584
G1 X69.494 Y102.756 E0.5828
G1 X74.25 Y107.512 E0.8244
G1 X74.929 Y107.512 E0.8488
G1 X69.493 Y102.077 E1.1249
G1 X69.493 Y101.39699999999999 E1.1493
G1 X75.607 Y107.512 E1.4599
G1 X76.286 Y107.512 E1.4843
G1 X69.492 Y100.718 E1.8295
G1 X69.491 Y100.038 E1.8539
G1 X76.965 Y107.512 E2.2335
G1 X77.644 Y107.512 E2.2579
G1 X69.491 Y99.35900000000001 E2.6721
G1 X69.49 Y98.68 E2.6965
G1 X78.32300000000001 Y107.512 E3.1452
G1 X79.001 Y107.512 E3.1696
G1 X69.49 Y98 E3.6527
G1 X69.489 Y97.321 E3.6772
G1 X79.68 Y107.512 E4.1949
G1 X80.35900000000001 Y107.512 E4.2192
G1 X69.489 Y96.64099999999999 E4.7715
G1 X69.488 Y96.038 E4.7931
G1 X69.492 Y95.96600000000001 E4.7957
G1 X81.038 Y107.512 E5.3823
G1 X81.717 Y107.512 E5.4067
G1 X69.554 Y95.34899999999999 E6.0245
G1 X69.56700000000001 Y95.27000000000001 E6.0274
G1 X69.662 Y94.91499999999999 E6.0406
G1 X69.7 Y94.816 E6.0444
G1 X82.396 Y107.512 E6.6894
G1 X83.074 Y107.512 E6.7137
G1 X69.90899999999999 Y94.346 E7.3826
G1 X69.96000000000001 Y94.245 E7.3866
G1 X70.16 Y93.937 E7.3998
G1 X70.168 Y93.92699999999999 E7.4003
G1 X83.753 Y107.512 E8.0904
G1 X84.432 Y107.512 E8.1148
G1 X70.482 Y93.561 E8.8235
G1 X70.651 Y93.392 E8.8321
G1 X70.839 Y93.24000000000001 E8.8408
G1 X85.11099999999999 Y107.512 E9.5658
G1 X85.78999999999999 Y107.512 E9.5902
G1 X71.241 Y92.963 E10.3292
G1 X71.572 Y92.793 E10.3426
G1 X71.701 Y92.744 E10.3476
G1 X86.469 Y107.512 E11.0978
G1 X87.14699999999999 Y107.512 E11.1221
G1 X72.21600000000001 Y92.581 E11.8806
G1 X72.27 Y92.56700000000001 E11.8826
G1 X72.633 Y92.509 E11.8958
G1 X72.814 Y92.5 E11.9023
G1 X87.826 Y107.512 E12.6650
G1 X88.505 Y107.512 E12.6893
G1 X73.481 Y92.488 E13.4526
G1 X74.16 Y92.488 E13.4769
G1 X89.184 Y107.512 E14.2402
G1 X89.863 Y107.512 E14.2645
G1 X74.839 Y92.488 E15.0278
G1 X75.517 Y92.488 E15.0521
G1 X90.541 Y107.512 E15.8154
G1 X91.22 Y107.512 E15.8397
G1 X76.196 Y92.488 E16.6030
G1 X76.875 Y92.488 E16.6273
G1 X91.899 Y107.512 E17.3906
G1 X92.578 Y107.512 E17.4149
G1 X77.554 Y92.488 E18.1782
G1 X78.233 Y92.488 E18.2025
G1 X93.257 Y107.512 E18.9658
G1 X93.936 Y107.512 E18.9901
G1 X78.912 Y92.488 E19.7534
G1 X79.59 Y92.488 E19.7777
G1 X94.614 Y107.512 E20.5410
G1 X95.293 Y107.512 E20.5653
G1 X80.269 Y92.488 E21.3286
G1 X80.94800000000001 Y92.488 E21.3529
G1 X95.97200000000001 Y107.512 E22.1162
G1 X96.65100000000001 Y107.512 E22.1405
G1 X81.627 Y92.488 E22.9038
G1 X82.306 Y92.488 E22.9281
G1 X97.33 Y107.512 E23.6914
G1 X98.00800000000001 Y107.512 E23.7158
G1 X82.98400000000001 Y92.488 E24.4790
G1 X83.663 Y92.488 E24.5034
G1 X98.687 Y107.512 E25.2666
G1 X99.366 Y107.512 E25.2910
G1 X84.342 Y92.488 E26.0542
G1 X85.021 Y92.488 E26.0786
G1 X100.045 Y107.512 E26.8418
G1 X100.72399999999999 Y107.512 E26.8662
G1 X85.7 Y92.488 E27.6294
G1 X86.37899999999999 Y92.488 E27.6538
G1 X101.40299999999999 Y107.512 E28.4170
G1 X102.081 Y107.512 E28.4414
G1 X87.057 Y92.488 E29.2046
G1 X87.73599999999999 Y92.488 E29.2290
G1 X102.75999999999999 Y107.512 E29.9922
G1 X103.439 Y107.512 E30.0166
G1 X88.41499999999999 Y92.488 E30.7798
G1 X89.094 Y92.488 E30.8042
G1 X104.118 Y107.512 E31.5674
G1 X104.797 Y107.512 E31.5918
G1 X89.773 Y92.488 E32.3550
G1 X90.452 Y92.488 E32.3794
G1 X105.476 Y107.512 E33.1426
G1 X106.154 Y107.512 E33.1670
G1 X91.13 Y92.488 E33.9302
G1 X91.809 Y92.488 E33.9546
G1 X106.833 Y107.512 E34.7178
G1 X107.512 Y107.512 E34.7422
G1 X92.488 Y92.488 E35.5054
G1 X93.167 Y92.488 E35.5298
G1 X108.191 Y107.512 E36.2930
G1 X108.87 Y107.512 E36.3174
G1 X93.846 Y92.488 E37.0806
G1 X94.524 Y92.488 E37.1050
G1 X109.548 Y107.512 E37.8682
G1 X110.227 Y107.512 E37.8926
G1 X95.203 Y92.488 E38.6558
G1 X95.882 Y92.488 E38.6802
G1 X110.906 Y107.512 E39.4434
G1 X111.58500000000001 Y107.512 E39.4678
G1 X96.561 Y92.488 E40.2310
G1 X97.24000000000001 Y92.488 E40.2554
G1 X112.26400000000001 Y107.512 E41.0186
G1 X112.943 Y107.512 E41.0430
G1 X97.919 Y92.488 E41.8062
G1 X98.59700000000001 Y92.488 E41.8306
G1 X113.62100000000001 Y107.512 E42.5938
G1 X114.3 Y107.512 E42.6182
G1 X99.27600000000001 Y92.488 E43.3814
G1 X99.955 Y92.488 E43.4058
G1 X114.979 Y107.512 E44.1690
G1 X115.658 Y107.512 E44.1934
G1 X100.634 Y92.488 E44.9566
G1 X101.313 Y92.488 E44.9810
G1 X116.337 Y107.512 E45.7442
G1 X117.016 Y107.512 E45.7686
G1 X101.99199999999999 Y92.488 E46.5318
G1 X102.67 Y92.488 E46.5562
G1 X117.694 Y107.512 E47.3194
G1 X118.373 Y107.512 E47.3438
G1 X103.34899999999999 Y92.488 E48.1070
G1 X104.02799999999999 Y92.488 E48.1314
G1 X119.052 Y107.512 E48.8946
G1 X119.731 Y107.512 E48.9190
G1 X104.707 Y92.488 E49.6822
G1 X105.386 Y92.488 E49.7066
G1 X120.41 Y107.512 E50.4698
G1 X121.088 Y107.512 E50.4942
G1 X106.064 Y92.488 E51.2574
G1 X106.743 Y92.488 E51.2818
G1 X121.767 Y107.512 E52.0450
G1 X122.446 Y107.512 E52.0694
G1 X107.422 Y92.488 E52.8326
G1 X108.101 Y92.488 E52.8570
G1 X123.125 Y107.512 E53.6202
G1 X123.804 Y107.512 E53.6446
G1 X108.78 Y92.488 E54.4078
G1 X109.459 Y92.488 E54.4322
G1 X124.483 Y107.512 E55.1954
G1 X125.161 Y107.512 E55.2198
G1 X110.137 Y92.488 E55.9830
G1 X110.816 Y92.488 E56.0074
G1 X125.84 Y107.512 E56.7706
G1 X126.519 Y107.512 E56.7950
G1 X111.495 Y92.488 E57.5582
G1 X112.174 Y92.488 E57.5826
G1 X127.186 Y107.5 E58.3452
G1 X127.367 Y107.491 E58.3517
G1 X127.73 Y107.43299999999999 E58.3649
G1 X127.784 Y107.419 E58.3669
G1 X112.85300000000001 Y92.488 E59.1254
G1 X113.532 Y92.488 E59.1498
G1 X128.299 Y107.256 E59.9000
G1 X128.428 Y107.207 E59.9049
G1 X128.755 Y107.03999999999999 E59.9181
G1 X128.75900000000001 Y107.037 E59.9183
G1 X114.21 Y92.488 E60.6574
G1 X114.889 Y92.488 E60.6818
G1 X129.161 Y106.75999999999999 E61.4068
G1 X129.349 Y106.608 E61.4155
G1 X129.518 Y106.439 E61.4241
G1 X115.568 Y92.488 E62.1328
G1 X116.247 Y92.488 E62.1572
G1 X129.832 Y106.07300000000001 E62.8473
G1 X129.84 Y106.063 E62.8477
G1 X130.04000000000002 Y105.755 E62.8609
G1 X130.091 Y105.654 E62.8650
G1 X116.926 Y92.488 E63.5338
G1 X117.604 Y92.488 E63.5582
G1 X130.3 Y105.184 E64.2031
G1 X130.338 Y105.08500000000001 E64.2069
G1 X130.433 Y104.72999999999999 E64.2201
G1 X130.446 Y104.65100000000001 E64.2230
G1 X118.283 Y92.488 E64.8409
G1 X118.962 Y92.488 E64.8653
G1 X130.50799999999998 Y104.03399999999999 E65.4518
G1 X130.512 Y103.961 E65.4544
G1 X130.512 Y103.35900000000001 E65.4761
G1 X119.641 Y92.488 E66.0283
G1 X120.32 Y92.488 E66.0527
G1 X130.512 Y102.68 E66.5705
G1 X130.512 Y102.001 E66.5948
G1 X120.999 Y92.488 E67.0781
G1 X121.677 Y92.488 E67.1025
G1 X130.512 Y101.32300000000001 E67.5513
G1 X130.512 Y100.644 E67.5757
G1 X122.356 Y92.488 E67.9900
G1 X123.035 Y92.488 E68.0144
G1 X130.512 Y99.965 E68.3942
G1 X130.512 Y99.286 E68.4186
G1 X123.714 Y92.488 E68.7639
G1 X124.393 Y92.488 E68.7883
G1 X130.512 Y98.607 E69.0992
G1 X130.512 Y97.929 E69.1236
G1 X125.071 Y92.488 E69.3999
G1 X125.75 Y92.488 E69.4243
G1 X130.512 Y97.25 E69.6662
G1 X130.512 Y96.571 E69.6906
G1 X126.429 Y92.488 E69.8980
G1 X126.961 Y92.488 E69.9171
G1 X127.116 Y92.49600000000001 E69.9227
G1 X130.50400000000002 Y95.884 E70.0948
G1 X130.49099999999999 Y95.63300000000001 E70.1038
G1 X130.433 Y95.27000000000001 E70.1170
G1 X130.38400000000001 Y95.08500000000001 E70.1239
G1 X127.915 Y92.616 E70.2493
G92 E0.0000
G1 E-12 F600 ; custom retraction - A
; layer 4, Z = 0.800
; feature inner perimeter
;zhopupA
G1 X128.174 Y92.388 F6000
G1 Z0.800 F1200
G1 E0 F600 ; custom un-retraction/prime - A
G92 E0.0000
G1 X128.54500000000002 Y92.53 E0.0143 F2700
G1 X128.899 Y92.711 E0.0286
G1 X129.233 Y92.92699999999999 E0.0428
G1 X129.542 Y93.17699999999999 E0.0571
G1 X129.82299999999998 Y93.458 E0.0714
G1 X130.07299999999998 Y93.767 E0.0857
G1 X130.289 Y94.101 E0.1000
G1 X130.47 Y94.455 E0.1143
G1 X130.612 Y94.826 E0.1285
G1 X130.715 Y95.21000000000001 E0.1428
G1 X130.77800000000002 Y95.60300000000001 E0.1571
G1 X130.8 Y96.031 E0.1725
G1 X130.8 Y103.969 E0.4576
G1 X130.77800000000002 Y104.39699999999999 E0.4730
G1 X130.715 Y104.78999999999999 E0.4873
G1 X130.612 Y105.174 E0.5016
G1 X130.47 Y105.545 E0.5159
G1 X130.289 Y105.899 E0.5302
G1 X130.07299999999998 Y106.233 E0.5444
G1 X129.82299999999998 Y106.541 E0.5587
G1 X129.541 Y106.82300000000001 E0.5730
G1 X129.233 Y107.07300000000001 E0.5873
G1 X128.899 Y107.289 E0.6016
G1 X128.54500000000002 Y107.47 E0.6158
G1 X128.174 Y107.612 E0.6301
G1 X127.79 Y107.715 E0.6444
G1 X127.397 Y107.77799999999999 E0.6587
G1 X126.969 Y107.8 E0.6741
G1 X73.031 Y107.8 E2.6116
G1 X72.60300000000001 Y107.77799999999999 E2.6270
G1 X72.21000000000001 Y107.715 E2.6413
G1 X71.826 Y107.612 E2.6555
G1 X71.455 Y107.47 E2.6698
G1 X71.101 Y107.289 E2.6841
G1 X70.767 Y107.07300000000001 E2.6984
G1 X70.459 Y106.82300000000001 E2.7127
G1 X70.17699999999999 Y106.541 E2.7270
G1 X69.92699999999999 Y106.233 E2.7412
G1 X69.711 Y105.899 E2.7555
G1 X69.53 Y105.545 E2.7698
G1 X69.388 Y105.174 E2.7841
G1 X69.285 Y104.78999999999999 E2.7984
G1 X69.22200000000001 Y104.39699999999999 E2.8126
G1 X69.21000000000001 Y104.15100000000001 E2.8215
G1 X69.2 Y96.031 E3.1132
G1 X69.22200000000001 Y95.60300000000001 E3.1286
G1 X69.285 Y95.21000000000001 E3.1429
G1 X69.388 Y94.826 E3.1571
G1 X69.53 Y94.455 E3.1714
G1 X69.711 Y94.101 E3.1857
G1 X69.92699999999999 Y93.767 E3.2000
G1 X70.17699999999999 Y93.458 E3.2143
G1 X70.458 Y93.17699999999999 E3.2285
G1 X70.767 Y92.92699999999999 E3.2428
G1 X71.101 Y92.711 E3.2571
G1 X71.455 Y92.53 E3.2714
G1 X71.826 Y92.388 E3.2857
G1 X72.21000000000001 Y92.285 E3.2999
G1 X72.60300000000001 Y92.22200000000001 E3.3142
G1 X73.031 Y92.2 E3.3296
G1 X126.969 Y92.2 E5.2671
G1 X127.397 Y92.22200000000001 E5.2825
G1 X127.79 Y92.285 E5.2968
G1 X128.174 Y92.388 E5.3111
G1 X128.322 Y91.93 F6000
G92 E0.0000
G1 X128.74 Y92.09100000000001 E0.0161 F2700
G1 X129.139 Y92.294 E0.0322
G1 X129.515 Y92.538 E0.0483
G1 X129.863 Y92.82 E0.0644
G1 X130.18 Y93.137 E0.0804
G1 X130.462 Y93.485 E0.0965
G1 X130.70600000000002 Y93.86099999999999 E0.1126
G1 X130.909 Y94.25999999999999 E0.1287
G1 X131.07 Y94.678 E0.1448
G1 X131.185 Y95.11 E0.1609
G1 X131.256 Y95.553 E0.1770
G1 X131.28 Y96.019 E0.1937
G1 X131.28 Y103.981 E0.4798
G1 X131.256 Y104.447 E0.4965
G1 X131.185 Y104.89 E0.5126
G1 X131.07 Y105.322 E0.5287
G1 X130.909 Y105.74000000000001 E0.5448
G1 X130.70600000000002 Y106.14 E0.5609
G1 X130.462 Y106.515 E0.5770
G1 X130.18 Y106.863 E0.5930
G1 X129.863 Y107.18 E0.6091
G1 X129.515 Y107.462 E0.6252
G1 X129.14 Y107.706 E0.6413
G1 X128.74 Y107.90899999999999 E0.6574
G1 X128.322 Y108.07 E0.6735
G1 X127.89 Y108.186 E0.6896
G1 X127.447 Y108.256 E0.7057
G1 X126.981 Y108.28 E0.7224
G1 X73.019 Y108.28 E2.6608
G1 X72.553 Y108.256 E2.6776
G1 X72.11 Y108.185 E2.6937
G1 X71.678 Y108.07 E2.7098
G1 X71.26 Y107.90899999999999 E2.7258
G1 X70.86 Y107.706 E2.7419
G1 X70.485 Y107.462 E2.7580
G1 X70.137 Y107.18 E2.7741
G1 X69.82 Y106.863 E2.7902
G1 X69.538 Y106.515 E2.8063
G1 X69.294 Y106.13900000000001 E2.8224
G1 X69.09100000000001 Y105.74000000000001 E2.8385
G1 X68.93 Y105.322 E2.8546
G1 X68.814 Y104.89 E2.8706
G1 X68.744 Y104.447 E2.8867
G1 X68.73 Y104.164 E2.8969
G1 X68.72 Y96.018 E3.1895
G1 X68.744 Y95.553 E3.2063
G1 X68.814 Y95.11 E3.2224
G1 X68.93 Y94.678 E3.2385
G1 X69.09100000000001 Y94.25999999999999 E3.2545
G1 X69.294 Y93.86099999999999 E3.2706
G1 X69.538 Y93.485 E3.2867
G1 X69.82 Y93.137 E3.3028
G1 X70.137 Y92.82 E3.3189
G1 X70.485 Y92.538 E3.3350
G1 X70.861 Y92.294 E3.3511
G1 X71.26 Y92.09100000000001 E3.3672
G1 X71.678 Y91.93 E3.3833
G1 X72.11 Y91.814 E3.3993
G1 X72.553 Y91.744 E3.4154
G1 X73.019 Y91.72 E3.4322
G1 X126.981 Y91.72 E5.3706
G1 X127.447 Y91.744 E5.3873
G1 X127.89 Y91.815 E5.4034
G1 X128.322 Y91.93 E5.4195
; feature outer perimeter
G1 X128.471 Y91.473 F6000
G92 E0.0000
G1 X128.936 Y91.652 E0.0179 F1800
G1 X129.38 Y91.878 E0.0358
G1 X129.798 Y92.149 E0.0537
G1 X130.185 Y92.463 E0.0716
G1 X130.537 Y92.815 E0.0895
G1 X130.851 Y93.202 E0.1074
G1 X131.122 Y93.62 E0.1253
G1 X131.348 Y94.064 E0.1432
G1 X131.527 Y94.529 E0.1611
G1 X131.656 Y95.00999999999999 E0.1790
G1 X131.73399999999998 Y95.50200000000001 E0.1969
G1 X131.76 Y96.006 E0.2150
G1 X131.76 Y103.994 E0.5019
G1 X131.73399999999998 Y104.49799999999999 E0.5200
G1 X131.656 Y104.99000000000001 E0.5379
G1 X131.527 Y105.471 E0.5558
G1 X131.348 Y105.936 E0.5737
G1 X131.122 Y106.38 E0.5916
G1 X130.851 Y106.798 E0.6095
G1 X130.537 Y107.185 E0.6274
G1 X130.185 Y107.537 E0.6453
G1 X129.798 Y107.851 E0.6632
G1 X129.38 Y108.122 E0.6811
G1 X128.936 Y108.348 E0.6990
G1 X128.471 Y108.527 E0.7169
G1 X127.99 Y108.656 E0.7348
G1 X127.497 Y108.73400000000001 E0.7527
G1 X126.994 Y108.75999999999999 E0.7708
G1 X73.006 Y108.75999999999999 E2.7101
G1 X72.503 Y108.73400000000001 E2.7282
G1 X72.01 Y108.656 E2.7461
G1 X71.529 Y108.527 E2.7640
G1 X71.064 Y108.348 E2.7819
G1 X70.62 Y108.122 E2.7998
G1 X70.202 Y107.851 E2.8177
G1 X69.815 Y107.537 E2.8356
G1 X69.463 Y107.185 E2.8535
G1 X69.149 Y106.798 E2.8714
G1 X68.878 Y106.38 E2.8892
G1 X68.652 Y105.936 E2.9071
G1 X68.473 Y105.471 E2.9250
G1 X68.344 Y104.99000000000001 E2.9429
G1 X68.26599999999999 Y104.49799999999999 E2.9608
G1 X68.25 Y104.17699999999999 E2.9724
G1 X68.24 Y96.006 E3.2659
G1 X68.26599999999999 Y95.50200000000001 E3.2840
G1 X68.344 Y95.00999999999999 E3.3019
G1 X68.473 Y94.529 E3.3198
G1 X68.652 Y94.064 E3.3377
G1 X68.878 Y93.62 E3.3556
G1 X69.149 Y93.202 E3.3735
G1 X69.463 Y92.815 E3.3914
G1 X69.815 Y92.463 E3.4093
G1 X70.202 Y92.149 E3.4272
G1 X70.62 Y91.878 E3.4450
G1 X71.064 Y91.652 E3.4629
G1 X71.529 Y91.473 E3.4808
G1 X72.01 Y91.344 E3.4987
G1 X72.502 Y91.26599999999999 E3.5166
G1 X73.006 Y91.24000000000001 E3.5348
G1 X126.994 Y91.24000000000001 E5.4740
G1 X127.497 Y91.26599999999999 E5.4922
G1 X127.99 Y91.344 E5.5101
G1 X128.471 Y91.473 E5.5279
; feature infill
; tool H0.200 W0.600
G1 X130.452 Y103.489 F6000
G92 E0.0000
G1 X126.489 Y107.452 E0.2516 F3600
G1 X118.004 Y107.452 E0.6326
G1 X130.332 Y95.124 E1.4155
G1 X130.281 Y94.934 E1.4243
G1 X130.152 Y94.59700000000001 E1.4405
G1 X129.988 Y94.275 E1.4567
G1 X129.791 Y93.97200000000001 E1.4729
G1 X129.564 Y93.69200000000001 E1.4892
G1 X129.308 Y93.436 E1.5054
G1 X129.02800000000002 Y93.209 E1.5216
G1 X128.725 Y93.012 E1.5378
G1 X128.40300000000002 Y92.848 E1.5540
G1 X128.066 Y92.719 E1.5702
G1 X127.717 Y92.626 E1.5864
G1 X127.361 Y92.569 E1.6027
G1 X126.959 Y92.548 E1.6207
G1 X124.423 Y92.548 E1.7346
G1 X109.519 Y107.452 E2.6810
G1 X101.033 Y107.452 E3.0620
G1 X115.937 Y92.548 E4.0084
G1 X107.452 Y92.548 E4.3894
G1 X92.548 Y107.452 E5.3358
G1 X84.063 Y107.452 E5.7168
G1 X98.967 Y92.548 E6.6632
G1 X90.481 Y92.548 E7.0442
G1 X75.577 Y107.452 E7.9906
G1 X73.041 Y107.452 E8.1045
G1 X72.639 Y107.431 E8.1225
G1 X72.283 Y107.374 E8.1388
G1 X71.934 Y107.281 E8.1550
G1 X71.59700000000001 Y107.152 E8.1712
G1 X71.275 Y106.988 E8.1874
G1 X70.97200000000001 Y106.791 E8.2036
G1 X70.69200000000001 Y106.564 E8.2198
G1 X70.436 Y106.30799999999999 E8.2361
G1 X70.209 Y106.02799999999999 E8.2523
G1 X70.012 Y105.725 E8.2685
G1 X69.848 Y105.40299999999999 E8.2847
G1 X69.719 Y105.066 E8.3009
G1 X69.668 Y104.876 E8.3097
G1 X81.996 Y92.548 E9.0926
G1 X73.511 Y92.548 E9.4736
G1 X69.549 Y96.50999999999999 E9.7252
G92 E0.0000
G1 E-12 F600 ; custom retraction - A
; layer 5, Z = 1.000
;fan5
; feature inner perimeter
; tool H0.200 W0.480
;zhopupA
G1 X69.2 Y96.031 F6000
G1 Z1.000 F1200
G1 E0 F600 ; custom un-retraction/prime - A
G92 E0.0000
G1 X69.22200000000001 Y95.60300000000001 E0.0154 F2700
G1 X69.285 Y95.21000000000001 E0.0297
G1 X69.388 Y94.826 E0.0440
G1 X69.53 Y94.455 E0.0583
G1 X69.711 Y94.101 E0.0725
G1 X69.92699999999999 Y93.767 E0.0868
G1 X70.17699999999999 Y93.458 E0.1011
G1 X70.458 Y93.17699999999999 E0.1154
G1 X70.767 Y92.92699999999999 E0.1297
G1 X71.101 Y92.711 E0.1439
G1 X71.455 Y92.53 E0.1582
G1 X71.826 Y92.388 E0.1725
G1 X72.21000000000001 Y92.285 E0.1868
G1 X72.60300000000001 Y92.22200000000001 E0.2011
G1 X73.031 Y92.2 E0.2165
G1 X126.969 Y92.2 E2.1540
G1 X127.397 Y92.22200000000001 E2.1694
G1 X127.79 Y92.285 E2.1837
G1 X128.174 Y92.388 E2.1979
G1 X128.54500000000002 Y92.53 E2.2122
G1 X128.899 Y92.711 E2.2265
G1 X129.233 Y92.92699999999999 E2.2408
G1 X129.542 Y93.17699999999999 E2.2551
G1 X129.82299999999998 Y93.458 E2.2693
G1 X130.07299999999998 Y93.767 E2.2836
G1 X130.289 Y94.101 E2.2979
G1 X130.47 Y94.455 E2.3122
G1 X130.612 Y94.826 E2.3265
G1 X130.715 Y95.21000000000001 E2.3407
G1 X130.77800000000002 Y95.60300000000001 E2.3550
G1 X130.8 Y96.031 E2.3704
G1 X130.8 Y103.969 E2.6556
G1 X130.77800000000002 Y104.39699999999999 E2.6710
G1 X130.715 Y104.78999999999999 E2.6852
G1 X130.612 Y105.174 E2.6995
G1 X130.47 Y105.545 E2.7138
G1 X130.289 Y105.899 E2.7281
G1 X130.07299999999998 Y106.233 E2.7424
G1 X129.82299999999998 Y106.541 E2.7566
G1 X129.541 Y106.82300000000001 E2.7709
G1 X129.233 Y107.07300000000001 E2.7852
G1 X128.899 Y107.289 E2.7995
G1 X128.54500000000002 Y107.47 E2.8138
G1 X128.174 Y107.612 E2.8281
G1 X127.79 Y107.715 E2.8423
G1 X127.397 Y107.77799999999999 E2.8566
G1 X126.969 Y107.8 E2.8720
G1 X73.031 Y107.8 E4.8095
G1 X72.60300000000001 Y107.77799999999999 E4.8249
G1 X72.21000000000001 Y107.715 E4.8392
G1 X71.826 Y107.612 E4.8535
G1 X71.455 Y107.47 E4.8678
G1 X71.101 Y107.289 E4.8820
G1 X70.767 Y107.07300000000001 E4.8963
G1 X70.459 Y106.82300000000001 E4.9106
G1 X70.17699999999999 Y106.541 E4.9249
G1 X69.92699999999999 Y106.233 E4.9392
G1 X69.711 Y105.899 E4.9535
G1 X69.53 Y105.545 E4.9677
G1 X69.388 Y105.174 E4.9820
G1 X69.285 Y104.78999999999999 E4.9963
G1 X69.22200000000001 Y104.39699999999999 E5.0106
G1 X69.2 Y103.969 E5.0260
G1 X69.2 Y96.031 E5.3111
G1 X68.72 Y96.019 F6000
G92 E0.0000
G1 X68.744 Y95.553 E0.0168 F2700
G1 X68.814 Y95.11 E0.0329
G1 X68.93 Y94.678 E0.0489
G1 X69.09100000000001 Y94.25999999999999 E0.0650
G1 X69.294 Y93.86099999999999 E0.0811
G1 X69.538 Y93.485 E0.0972
G1 X69.82 Y93.137 E0.1133
G1 X70.137 Y92.82 E0.1294
G1 X70.485 Y92.538 E0.1455
G1 X70.861 Y92.294 E0.1616
G1 X71.26 Y92.09100000000001 E0.1777
G1 X71.678 Y91.93 E0.1937
G1 X72.11 Y91.814 E0.2098
G1 X72.553 Y91.744 E0.2259
G1 X73.019 Y91.72 E0.2427
G1 X126.981 Y91.72 E2.1811
G1 X127.447 Y91.744 E2.1978
G1 X127.89 Y91.815 E2.2139
G1 X128.322 Y91.93 E2.2300
G1 X128.74 Y92.09100000000001 E2.2461
G1 X129.139 Y92.294 E2.2622
G1 X129.515 Y92.538 E2.2783
G1 X129.863 Y92.82 E2.2944
G1 X130.18 Y93.137 E2.3105
G1 X130.462 Y93.485 E2.3265
G1 X130.70600000000002 Y93.86099999999999 E2.3426
G1 X130.909 Y94.25999999999999 E2.3587
G1 X131.07 Y94.678 E2.3748
G1 X131.185 Y95.11 E2.3909
G1 X131.256 Y95.553 E2.4070
G1 X131.28 Y96.019 E2.4237
G1 X131.28 Y103.981 E2.7098
G1 X131.256 Y104.447 E2.7265
G1 X131.185 Y104.89 E2.7426
G1 X131.07 Y105.322 E2.7587
G1 X130.909 Y105.74000000000001 E2.7748
G1 X130.70600000000002 Y106.14 E2.7909
G1 X130.462 Y106.515 E2.8070
G1 X130.18 Y106.863 E2.8231
G1 X129.863 Y107.18 E2.8392
G1 X129.515 Y107.462 E2.8552
G1 X129.14 Y107.706 E2.8713
G1 X128.74 Y107.90899999999999 E2.8874
G1 X128.322 Y108.07 E2.9035
G1 X127.89 Y108.186 E2.9196
G1 X127.447 Y108.256 E2.9357
G1 X126.981 Y108.28 E2.9525
G1 X73.019 Y108.28 E4.8908
G1 X72.553 Y108.256 E4.9076
G1 X72.11 Y108.185 E4.9237
G1 X71.678 Y108.07 E4.9398
G1 X71.26 Y107.90899999999999 E4.9559
G1 X70.86 Y107.706 E4.9720
G1 X70.485 Y107.462 E4.9880
G1 X70.137 Y107.18 E5.0041
G1 X69.82 Y106.863 E5.0202
G1 X69.538 Y106.515 E5.0363
G1 X69.294 Y106.13900000000001 E5.0524
G1 X69.09100000000001 Y105.74000000000001 E5.0685
G1 X68.93 Y105.322 E5.0846
G1 X68.814 Y104.89 E5.1007
G1 X68.744 Y104.447 E5.1167
G1 X68.72 Y103.981 E5.1335
G1 X68.72 Y96.019 E5.4195
; feature outer perimeter
G1 X68.24 Y96.006 F6000
G92 E0.0000
G1 X68.26599999999999 Y95.50200000000001 E0.0181 F1800
G1 X68.344 Y95.00999999999999 E0.0360
G1 X68.473 Y94.529 E0.0539
G1 X68.652 Y94.064 E0.0718
G1 X68.878 Y93.62 E0.0897
G1 X69.149 Y93.202 E0.1076
G1 X69.463 Y92.815 E0.1255
G1 X69.815 Y92.463 E0.1434
G1 X70.202 Y92.149 E0.1613
G1 X70.62 Y91.878 E0.1792
G1 X71.064 Y91.652 E0.1971
G1 X71.529 Y91.473 E0.2150
G1 X72.01 Y91.344 E0.2329
G1 X72.502 Y91.26599999999999 E0.2508
G1 X73.006 Y91.24000000000001 E0.2689
G1 X126.994 Y91.24000000000001 E2.2082
G1 X127.497 Y91.26599999999999 E2.2263
G1 X127.99 Y91.344 E2.2442
G1 X128.471 Y91.473 E2.2621
G1 X128.936 Y91.652 E2.2800
G1 X129.38 Y91.878 E2.2979
G1 X129.798 Y92.149 E2.3158
G1 X130.185 Y92.463 E2.3337
G1 X130.537 Y92.815 E2.3516
G1 X130.851 Y93.202 E2.3695
G1 X131.122 Y93.62 E2.3874
G1 X131.348 Y94.064 E2.4053
G1 X131.527 Y94.529 E2.4231
G1 X131.656 Y95.00999999999999 E2.4410
G1 X131.73399999999998 Y95.50200000000001 E2.4589
G1 X131.76 Y96.006 E2.4771
G1 X131.76 Y103.994 E2.7640
G1 X131.73399999999998 Y104.49799999999999 E2.7821
G1 X131.656 Y104.99000000000001 E2.8000
G1 X131.527 Y105.471 E2.8179
G1 X131.348 Y105.936 E2.8358
G1 X131.122 Y106.38 E2.8537
G1 X130.851 Y106.798 E2.8716
G1 X130.537 Y107.185 E2.8895
G1 X130.185 Y107.537 E2.9074
G1 X129.798 Y107.851 E2.9253
G1 X129.38 Y108.122 E2.9432
G1 X128.936 Y108.348 E2.9611
G1 X128.471 Y108.527 E2.9790
G1 X127.99 Y108.656 E2.9968
G1 X127.497 Y108.73400000000001 E3.0148
G1 X126.994 Y108.75999999999999 E3.0329
G1 X73.006 Y108.75999999999999 E4.9721
G1 X72.503 Y108.73400000000001 E4.9903
G1 X72.01 Y108.656 E5.0082
G1 X71.529 Y108.527 E5.0261
G1 X71.064 Y108.348 E5.0440
G1 X70.62 Y108.122 E5.0619
G1 X70.202 Y107.851 E5.0798
G1 X69.815 Y107.537 E5.0976
G1 X69.463 Y107.185 E5.1155
G1 X69.149 Y106.798 E5.1334
G1 X68.878 Y106.38 E5.1513
G1 X68.652 Y105.936 E5.1692
G1 X68.473 Y105.471 E5.1871
G1 X68.344 Y104.99000000000001 E5.2050
G1 X68.26599999999999 Y104.49799999999999 E5.2229
G1 X68.24 Y103.994 E5.2410
G1 X68.24 Y96.006 E5.5280
; feature infill
; tool H0.200 W0.600
G1 X73.511 Y107.452 F6000
G92 E0.0000
G1 X69.548 Y103.489 E0.2516 F3600
G1 X69.548 Y96.041 E0.5861
G1 X69.569 Y95.63900000000001 E0.6041
G1 X69.626 Y95.283 E0.6203
G1 X69.668 Y95.124 E0.6277
G1 X81.996 Y107.452 E1.4106
G1 X90.481 Y107.452 E1.7916
G1 X75.577 Y92.548 E2.7380
G1 X84.063 Y92.548 E3.1190
G1 X98.967 Y107.452 E4.0654
G1 X107.452 Y107.452 E4.4464
G1 X92.548 Y92.548 E5.3928
G1 X101.033 Y92.548 E5.7738
G1 X115.937 Y107.452 E6.7202
G1 X124.423 Y107.452 E7.1012
G1 X109.519 Y92.548 E8.0476
G1 X118.004 Y92.548 E8.4286
G1 X130.332 Y104.876 E9.2114
G1 X130.374 Y104.717 E9.2188
G1 X130.43099999999998 Y104.36099999999999 E9.2350
G1 X130.452 Y103.959 E9.2530
G1 X130.452 Y96.511 E9.5875
G1 X126.489 Y92.548 E9.8391
G92 E0.0000
G1 E-12 F600 ; custom retraction - A
; layer 6, Z = 1.200
; feature inner perimeter
; tool H0.200 W0.480
;zhopupA
G1 X126.969 Y92.2 F6000
G1 Z1.200 F1200
G1 E0 F600 ; custom un-retraction/prime - A
G92 E0.0000
G1 X127.397 Y92.22200000000001 E0.0154 F2700
G1 X127.79 Y92.285 E0.0297
G1 X128.174 Y92.388 E0.0440
G1 X128.54500000000002 Y92.53 E0.0583
G1 X128.899 Y92.711 E0.0725
G1 X129.233 Y92.92699999999999 E0.0868
G1 X129.542 Y93.17699999999999 E0.1011
G1 X129.82299999999998 Y93.458 E0.1154
G1 X130.07299999999998 Y93.767 E0.1297
G1 X130.289 Y94.101 E0.1439
G1 X130.47 Y94.455 E0.1582
G1 X130.612 Y94.826 E0.1725
G1 X130.715 Y95.21000000000001 E0.1868
G1 X130.77800000000002 Y95.60300000000001 E0.2011
G1 X130.8 Y96.031 E0.2165
G1 X130.8 Y103.969 E0.5016
G1 X130.77800000000002 Y104.39699999999999 E0.5170
G1 X130.715 Y104.78999999999999 E0.5313
G1 X130.612 Y105.174 E0.5456
G1 X130.47 Y105.545 E0.5598
G1 X130.289 Y105.899 E0.5741
G1 X130.07299999999998 Y106.233 E0.5884
G1 X129.82299999999998 Y106.541 E0.6027
G1 X129.541 Y106.82300000000001 E0.6170
G1 X129.233 Y107.07300000000001 E0.6313
G1 X128.899 Y107.289 E0.6455
G1 X128.54500000000002 Y107.47 E0.6598
G1 X128.174 Y107.612 E0.6741
G1 X127.79 Y107.715 E0.6884
G1 X127.397 Y107.77799999999999 E0.7027
G1 X126.969 Y107.8 E0.7181
G1 X73.031 Y107.8 E2.6555
G1 X72.60300000000001 Y107.77799999999999 E2.6710
G1 X72.21000000000001 Y107.715 E2.6852
G1 X71.826 Y107.612 E2.6995
G1 X71.455 Y107.47 E2.7138
G1 X71.101 Y107.289 E2.7281
G1 X70.767 Y107.07300000000001 E2.7424
G1 X70.459 Y106.82300000000001 E2.7566
G1 X70.17699999999999 Y106.541 E2.7709
G1 X69.92699999999999 Y106.233 E2.7852
G1 X69.711 Y105.899 E2.7995
G1 X69.53 Y105.545 E2.8138
G1 X69.388 Y105.174 E2.8281
G1 X69.285 Y104.78999999999999 E2.8423
G1 X69.22200000000001 Y104.39699999999999 E2.8566
G1 X69.2 Y103.969 E2.8720
G1 X69.2 Y96.031 E3.1571
G1 X69.22200000000001 Y95.60300000000001 E3.1726
G1 X69.285 Y95.21000000000001 E3.1868
G1 X69.388 Y94.826 E3.2011
G1 X69.53 Y94.455 E3.2154
G1 X69.711 Y94.101 E3.2297
G1 X69.92699999999999 Y93.767 E3.2440
G1 X70.17699999999999 Y93.458 E3.2582
G1 X70.458 Y93.17699999999999 E3.2725
G1 X70.767 Y92.92699999999999 E3.2868
G1 X71.101 Y92.711 E3.3011
G1 X71.455 Y92.53 E3.3154
G1 X71.826 Y92.388 E3.3296
G1 X72.21000000000001 Y92.285 E3.3439
G1 X72.60300000000001 Y92.22200000000001 E3.3582
G1 X73.031 Y92.2 E3.3736
G1 X126.969 Y92.2 E5.3111
G1 X126.981 Y91.72 F6000
G92 E0.0000
G1 X127.447 Y91.744 E0.0168 F2700
G1 X127.89 Y91.815 E0.0329
G1 X128.322 Y91.93 E0.0489
G1 X128.74 Y92.09100000000001 E0.0650
G1 X129.139 Y92.294 E0.0811
G1 X129.515 Y92.538 E0.0972
G1 X129.863 Y92.82 E0.1133
G1 X130.18 Y93.137 E0.1294
G1 X130.462 Y93.485 E0.1455
G1 X130.70600000000002 Y93.86099999999999 E0.1616
G1 X130.909 Y94.25999999999999 E0.1777
G1 X131.07 Y94.678 E0.1937
G1 X131.185 Y95.11 E0.2098
G1 X131.256 Y95.553 E0.2259
G1 X131.28 Y96.019 E0.2427
G1 X131.28 Y103.981 E0.5287
G1 X131.256 Y104.447 E0.5455
G1 X131.185 Y104.89 E0.5616
G1 X131.07 Y105.322 E0.5776
G1 X130.909 Y105.74000000000001 E0.5937
G1 X130.70600000000002 Y106.14 E0.6098
G1 X130.462 Y106.515 E0.6259
G1 X130.18 Y106.863 E0.6420
G1 X129.863 Y107.18 E0.6581
G1 X129.515 Y107.462 E0.6742
G1 X129.14 Y107.706 E0.6903
G1 X128.74 Y107.90899999999999 E0.7064
G1 X128.322 Y108.07 E0.7224
G1 X127.89 Y108.186 E0.7385
G1 X127.447 Y108.256 E0.7546
G1 X126.981 Y108.28 E0.7714
G1 X73.019 Y108.28 E2.7098
G1 X72.553 Y108.256 E2.7265
G1 X72.11 Y108.185 E2.7426
G1 X71.678 Y108.07 E2.7587
G1 X71.26 Y107.90899999999999 E2.7748
G1 X70.86 Y107.706 E2.7909
G1 X70.485 Y107.462 E2.8070
G1 X70.137 Y107.18 E2.8231
G1 X69.82 Y106.863 E2.8392
G1 X69.538 Y106.515 E2.8552
G1 X69.294 Y106.13900000000001 E2.8713
G1 X69.09100000000001 Y105.74000000000001 E2.8874
G1 X68.93 Y105.322 E2.9035
G1 X68.814 Y104.89 E2.9196
G1 X68.744 Y104.447 E2.9357
G1 X68.72 Y103.981 E2.9525
G1 X68.72 Y96.019 E3.2385
G1 X68.744 Y95.553 E3.2552
G1 X68.814 Y95.11 E3.2713
G1 X68.93 Y94.678 E3.2874
G1 X69.09100000000001 Y94.25999999999999 E3.3035
G1 X69.294 Y93.86099999999999 E3.3196
G1 X69.538 Y93.485 E3.3357
G1 X69.82 Y93.137 E3.3518
G1 X70.137 Y92.82 E3.3679
G1 X70.485 Y92.538 E3.3839
G1 X70.861 Y92.294 E3.4000
G1 X71.26 Y92.09100000000001 E3.4161
G1 X71.678 Y91.93 E3.4322
G1 X72.11 Y91.814 E3.4483
G1 X72.553 Y91.744 E3.4644
G1 X73.019 Y91.72 E3.4812
G1 X126.981 Y91.72 E5.4195
; feature outer perimeter
G1 X126.994 Y91.24000000000001 F6000
G92 E0.0000
G1 X127.497 Y91.26599999999999 E0.0181 F1800
G1 X127.99 Y91.344 E0.0360
G1 X128.471 Y91.473 E0.0539
G1 X128.936 Y91.652 E0.0718
G1 X129.38 Y91.878 E0.0897
G1 X129.798 Y92.149 E0.1076
G1 X130.185 Y92.463 E0.1255
G1 X130.537 Y92.815 E0.1434
G1 X130.851 Y93.202 E0.1613
G1 X131.122 Y93.62 E0.1792
G1 X131.348 Y94.064 E0.1971
G1 X131.527 Y94.529 E0.2150
G1 X131.656 Y95.00999999999999 E0.2329
G1 X131.73399999999998 Y95.50200000000001 E0.2508
G1 X131.76 Y96.006 E0.2689
G1 X131.76 Y103.994 E0.5558
G1 X131.73399999999998 Y104.49799999999999 E0.5739
G1 X131.656 Y104.99000000000001 E0.5918
G1 X131.527 Y105.471 E0.6097
G1 X131.348 Y105.936 E0.6276
G1 X131.122 Y106.38 E0.6455
G1 X130.851 Y106.798 E0.6634
G1 X130.537 Y107.185 E0.6813
G1 X130.185 Y107.537 E0.6992
G1 X129.798 Y107.851 E0.7171
G1 X129.38 Y108.122 E0.7350
G1 X128.936 Y108.348 E0.7529
G1 X128.471 Y108.527 E0.7708
G1 X127.99 Y108.656 E0.7887
G1 X127.497 Y108.73400000000001 E0.8066
G1 X126.994 Y108.75999999999999 E0.8247
G1 X73.006 Y108.75999999999999 E2.7640
G1 X72.503 Y108.73400000000001 E2.7821
G1 X72.01 Y108.656 E2.8000
G1 X71.529 Y108.527 E2.8179
G1 X71.064 Y108.348 E2.8358
G1 X70.62 Y108.122 E2.8537
G1 X70.202 Y107.851 E2.8716
G1 X69.815 Y107.537 E2.8895
G1 X69.463 Y107.185 E2.9074
G1 X69.149 Y106.798 E2.9253
G1 X68.878 Y106.38 E2.9432
G1 X68.652 Y105.936 E2.9611
G1 X68.473 Y105.471 E2.9790
G1 X68.344 Y104.99000000000001 E2.9969
G1 X68.26599999999999 Y104.49799999999999 E3.0147
G1 X68.24 Y103.994 E3.0329
G1 X68.24 Y96.006 E3.3198
G1 X68.26599999999999 Y95.50200000000001 E3.3379
G1 X68.344 Y95.00999999999999 E3.3558
G1 X68.473 Y94.529 E3.3737
G1 X68.652 Y94.064 E3.3916
G1 X68.878 Y93.62 E3.4095
G1 X69.149 Y93.202 E3.4274
G1 X69.463 Y92.815 E3.4453
G1 X69.815 Y92.463 E3.4632
G1 X70.202 Y92.149 E3.4811
G1 X70.62 Y91.878 E3.4990
G1 X71.064 Y91.652 E3.5169
G1 X71.529 Y91.473 E3.5348
G1 X72.01 Y91.344 E3.5527
G1 X72.502 Y91.26599999999999 E3.5706
G1 X73.006 Y91.24000000000001 E3.5887
G1 X126.994 Y91.24000000000001 E5.5280
; feature infill
; tool H0.200 W0.600
G1 X130.452 Y103.489 F6000
G92 E0.0000
G1 X126.489 Y107.452 E0.2516 F3600
G1 X118.004 Y107.452 E0.6326
G1 X130.332 Y95.124 E1.4155
G1 X130.281 Y94.934 E1.4243
G1 X130.152 Y94.59700000000001 E1.4405
G1 X129.988 Y94.275 E1.4567
G1 X129.791 Y93.97200000000001 E1.4729
G1 X129.564 Y93.69200000000001 E1.4892
G1 X129.308 Y93.436 E1.5054
G1 X129.02800000000002 Y93.209 E1.5216
G1 X128.725 Y93.012 E1.5378
G1 X128.40300000000002 Y92.848 E1.5540
G1 X128.066 Y92.719 E1.5702
G1 X127.717 Y92.626 E1.5864
G1 X127.361 Y92.569 E1.6027
G1 X126.959 Y92.548 E1.6207
G1 X124.423 Y92.548 E1.7346
G1 X109.519 Y107.452 E2.6810
G1 X101.033 Y107.452 E3.0620
G1 X115.937 Y92.548 E4.0084
G1 X107.452 Y92.548 E4.3894
G1 X92.548 Y107.452 E5.3358
G1 X84.063 Y107.452 E5.7168
G1 X98.967 Y92.548 E6.6632
G1 X90.481 Y92.548 E7.0442
G1 X75.577 Y107.452 E7.9906
G1 X73.041 Y107.452 E8.1045
G1 X72.639 Y107.431 E8.1225
G1 X72.283 Y107.374 E8.1388
G1 X71.934 Y107.281 E8.1550
G1 X71.59700000000001 Y107.152 E8.1712
G1 X71.275 Y106.988 E8.1874
G1 X70.97200000000001 Y106.791 E8.2036
G1 X70.69200000000001 Y106.564 E8.2198
G1 X70.436 Y106.30799999999999 E8.2361
G1 X70.209 Y106.02799999999999 E8.2523
G1 X70.012 Y105.725 E8.2685
G1 X69.848 Y105.40299999999999 E8.2847
G1 X69.719 Y105.066 E8.3009
G1 X69.668 Y104.876 E8.3097
G1 X81.996 Y92.548 E9.0926
G1 X73.511 Y92.548 E9.4736
G1 X69.548 Y96.511 E9.7252
G92 E0.0000
G1 E-12 F600 ; custom retraction - A
; layer 7, Z = 1.400
; feature inner perimeter
; tool H0.200 W0.480
;zhopupA
G1 X69.2 Y96.031 F6000
G1 Z1.400 F1200
G1 E0 F600 ; custom un-retraction/prime - A
G92 E0.0000
G1 X69.22200000000001 Y95.60300000000001 E0.0154 F2700
G1 X69.285 Y95.21000000000001 E0.0297
G1 X69.388 Y94.826 E0.0440
G1 X69.53 Y94.455 E0.0583
G1 X69.711 Y94.101 E0.0725
G1 X69.92699999999999 Y93.767 E0.0868
G1 X70.17699999999999 Y93.458 E0.1011
G1 X70.458 Y93.17699999999999 E0.1154
G1 X70.767 Y92.92699999999999 E0.1297
G1 X71.101 Y92.711 E0.1439
G1 X71.455 Y92.53 E0.1582
G1 X71.826 Y92.388 E0.1725
G1 X72.21000000000001 Y92.285 E0.1868
G1 X72.60300000000001 Y92.22200000000001 E0.2011
G1 X73.031 Y92.2 E0.2165
G1 X126.969 Y92.2 E2.1540
G1 X127.397 Y92.22200000000001 E2.1694
G1 X127.79 Y92.285 E2.1837
G1 X128.174 Y92.388 E2.1979
G1 X128.54500000000002 Y92.53 E2.2122
G1 X128.899 Y92.711 E2.2265
G1 X129.233 Y92.92699999999999 E2.2408
G1 X129.542 Y93.17699999999999 E2.2551
G1 X129.82299999999998 Y93.458 E2.2693
G1 X130.07299999999998 Y93.767 E2.2836
G1 X130.289 Y94.101 E2.2979
G1 X130.47 Y94.455 E2.3122
G1 X130.612 Y94.826 E2.3265
G1 X130.715 Y95.21000000000001 E2.3407
G1 X130.77800000000002 Y95.60300000000001 E2.3550
G1 X130.8 Y96.031 E2.3704
G1 X130.8 Y103.969 E2.6556
G1 X130.77800000000002 Y104.39699999999999 E2.6710
G1 X130.715 Y104.78999999999999 E2.6852
G1 X130.612 Y105.174 E2.6995
G1 X130.47 Y105.545 E2.7138
G1 X130.289 Y105.899 E2.7281
G1 X130.07299999999998 Y106.233 E2.7424
G1 X129.82299999999998 Y106.541 E2.7566
G1 X129.541 Y106.82300000000001 E2.7709
G1 X129.233 Y107.07300000000001 E2.7852
G1 X128.899 Y107.289 E2.7995
G1 X128.54500000000002 Y107.47 E2.8138
G1 X128.174 Y107.612 E2.8281
G1 X127.79 Y107.715 E2.8423
G1 X127.397 Y107.77799999999999 E2.8566
G1 X126.969 Y107.8 E2.8720
G1 X73.031 Y107.8 E4.8095
G1 X72.60300000000001 Y107.77799999999999 E4.8249
G1 X72.21000000000001 Y107.715 E4.8392
G1 X71.826 Y107.612 E4.8535
G1 X71.455 Y107.47 E4.8678
G1 X71.101 Y107.289 E4.8820
G1 X70.767 Y107.07300000000001 E4.8963
G1 X70.459 Y106.82300000000001 E4.9106
G1 X70.17699999999999 Y106.541 E4.9249
G1 X69.92699999999999 Y106.233 E4.9392
G1 X69.711 Y105.899 E4.9535
G1 X69.53 Y105.545 E4.9677
G1 X69.388 Y105.174 E4.9820
G1 X69.285 Y104.78999999999999 E4.9963
G1 X69.22200000000001 Y104.39699999999999 E5.0106
G1 X69.2 Y103.969 E5.0260
G1 X69.2 Y96.031 E5.3111
G1 X68.72 Y96.019 F6000
G92 E0.0000
G1 X68.744 Y95.553 E0.0168 F2700
G1 X68.814 Y95.11 E0.0329
G1 X68.93 Y94.678 E0.0489
G1 X69.09100000000001 Y94.25999999999999 E0.0650
G1 X69.294 Y93.86099999999999 E0.0811
G1 X69.538 Y93.485 E0.0972
G1 X69.82 Y93.137 E0.1133
G1 X70.137 Y92.82 E0.1294
G1 X70.485 Y92.538 E0.1455
G1 X70.861 Y92.294 E0.1616
G1 X71.26 Y92.09100000000001 E0.1777
G1 X71.678 Y91.93 E0.1937
G1 X72.11 Y91.814 E0.2098
G1 X72.553 Y91.744 E0.2259
G1 X73.019 Y91.72 E0.2427
G1 X126.981 Y91.72 E2.1811
G1 X127.447 Y91.744 E2.1978
G1 X127.89 Y91.815 E2.2139
G1 X128.322 Y91.93 E2.2300
G1 X128.74 Y92.09100000000001 E2.2461
G1 X129.139 Y92.294 E2.2622
G1 X129.515 Y92.538 E2.2783
G1 X129.863 Y92.82 E2.2944
G1 X130.18 Y93.137 E2.3105
G1 X130.462 Y93.485 E2.3265
G1 X130.70600000000002 Y93.86099999999999 E2.3426
G1 X130.909 Y94.25999999999999 E2.3587
G1 X131.07 Y94.678 E2.3748
G1 X131.185 Y95.11 E2.3909
G1 X131.256 Y95.553 E2.4070
G1 X131.28 Y96.019 E2.4237
G1 X131.28 Y103.981 E2.7098
G1 X131.256 Y104.447 E2.7265
G1 X131.185 Y104.89 E2.7426
G1 X131.07 Y105.322 E2.7587
G1 X130.909 Y105.74000000000001 E2.7748
G1 X130.70600000000002 Y106.14 E2.7909
G1 X130.462 Y106.515 E2.8070
G1 X130.18 Y106.863 E2.8231
G1 X129.863 Y107.18 E2.8392
G1 X129.515 Y107.462 E2.8552
G1 X129.14 Y107.706 E2.8713
G1 X128.74 Y107.90899999999999 E2.8874
G1 X128.322 Y108.07 E2.9035
G1 X127.89 Y108.186 E2.9196
G1 X127.447 Y108.256 E2.9357
G1 X126.981 Y108.28 E2.9525
G1 X73.019 Y108.28 E4.8908
G1 X72.553 Y108.256 E4.9076
G1 X72.11 Y108.185 E4.9237
G1 X71.678 Y108.07 E4.9398
G1 X71.26 Y107.90899999999999 E4.9559
G1 X70.86 Y107.706 E4.9720
G1 X70.485 Y107.462 E4.9880
G1 X70.137 Y107.18 E5.0041
G1 X69.82 Y106.863 E5.0202
G1 X69.538 Y106.515 E5.0363
G1 X69.294 Y106.13900000000001 E5.0524
G1 X69.09100000000001 Y105.74000000000001 E5.0685
G1 X68.93 Y105.322 E5.0846
G1 X68.814 Y104.89 E5.1007
G1 X68.744 Y104.447 E5.1167
G1 X68.72 Y103.981 E5.1335
G1 X68.72 Y96.019 E5.4195
; feature outer perimeter
G1 X68.24 Y96.006 F6000
G92 E0.0000
G1 X68.26599999999999 Y95.50200000000001 E0.0181 F1800
G1 X68.344 Y95.00999999999999 E0.0360
G1 X68.473 Y94.529 E0.0539
G1 X68.652 Y94.064 E0.0718
G1 X68.878 Y93.62 E0.0897
G1 X69.149 Y93.202 E0.1076
G1 X69.463 Y92.815 E0.1255
G1 X69.815 Y92.463 E0.1434
G1 X70.202 Y92.149 E0.1613
G1 X70.62 Y91.878 E0.1792
G1 X71.064 Y91.652 E0.1971
G1 X71.529 Y91.473 E0.2150
G1 X72.01 Y91.344 E0.2329
G1 X72.502 Y91.26599999999999 E0.2508
G1 X73.006 Y91.24000000000001 E0.2689
G1 X126.994 Y91.24000000000001 E2.2082
G1 X127.497 Y91.26599999999999 E2.2263
G1 X127.99 Y91.344 E2.2442
G1 X128.471 Y91.473 E2.2621
G1 X128.936 Y91.652 E2.2800
G1 X129.38 Y91.878 E2.2979
G1 X129.798 Y92.149 E2.3158
G1 X130.185 Y92.463 E2.3337
G1 X130.537 Y92.815 E2.3516
G1 X130.851 Y93.202 E2.3695
G1 X131.122 Y93.62 E2.3874
G1 X131.348 Y94.064 E2.4053
G1 X131.527 Y94.529 E2.4231
G1 X131.656 Y95.00999999999999 E2.4410
G1 X131.73399999999998 Y95.50200000000001 E2.4589
G1 X131.76 Y96.006 E2.4771
G1 X131.76 Y103.994 E2.7640
G1 X131.73399999999998 Y104.49799999999999 E2.7821
G1 X131.656 Y104.99000000000001 E2.8000
G1 X131.527 Y105.471 E2.8179
G1 X131.348 Y105.936 E2.8358
G1 X131.122 Y106.38 E2.8537
G1 X130.851 Y106.798 E2.8716
G1 X130.537 Y107.185 E2.8895
G1 X130.185 Y107.537 E2.9074
G1 X129.798 Y107.851 E2.9253
G1 X129.38 Y108.122 E2.9432
G1 X128.936 Y108.348 E2.9611
G1 X128.471 Y108.527 E2.9790
G1 X127.99 Y108.656 E2.9968
G1 X127.497 Y108.73400000000001 E3.0148
G1 X126.994 Y108.75999999999999 E3.0329
G1 X73.006 Y108.75999999999999 E4.9721
G1 X72.503 Y108.73400000000001 E4.9903
G1 X72.01 Y108.656 E5.0082
G1 X71.529 Y108.527 E5.0261
G1 X71.064 Y108.348 E5.0440
G1 X70.62 Y108.122 E5.0619
G1 X70.202 Y107.851 E5.0798
G1 X69.815 Y107.537 E5.0976
G1 X69.463 Y107.185 E5.1155
G1 X69.149 Y106.798 E5.1334
G1 X68.878 Y106.38 E5.1513
G1 X68.652 Y105.936 E5.1692
G1 X68.473 Y105.471 E5.1871
G1 X68.344 Y104.99000000000001 E5.2050
G1 X68.26599999999999 Y104.49799999999999 E5.2229
G1 X68.24 Y103.994 E5.2410
G1 X68.24 Y96.006 E5.5280
; feature solid layer
G1 X73.965 Y101.79599999999999 F6000
G92 E0.0000
G1 X79.68 Y107.512 E0.2903 F2880
G1 X80.35900000000001 Y107.512 E0.3147
G1 X74.826 Y101.979 E0.5958
G1 X74.838 Y101.97999999999999 E0.5962
G1 X75.162 Y101.97999999999999 E0.6079
G1 X75.47200000000001 Y101.947 E0.6191
G1 X81.038 Y107.512 E0.9018
G1 X81.717 Y107.512 E0.9262
G1 X76.01 Y101.805 E1.2161
G1 X76.107 Y101.77199999999999 E1.2198
G1 X76.401 Y101.636 E1.2314
G1 X76.475 Y101.592 E1.2345
G1 X82.396 Y107.512 E1.5353
G1 X83.074 Y107.512 E1.5597
G1 X76.879 Y101.31700000000001 E1.8744
G1 X76.936 Y101.273 E1.8770
G1 X77.17099999999999 Y101.051 E1.8886
G1 X77.227 Y100.985 E1.8917
G1 X83.753 Y107.512 E2.2232
G1 X84.432 Y107.512 E2.2476
G1 X77.519 Y100.59899999999999 E2.5988
G1 X77.562 Y100.536 E2.6015
G1 X77.714 Y100.25 E2.6132
G1 X77.752 Y100.154 E2.6169
G1 X85.11099999999999 Y107.512 E2.9907
G1 X85.78999999999999 Y107.512 E3.0151
G1 X77.919 Y99.642 E3.4149
G1 X77.973 Y99.318 E3.4267
G1 X77.988 Y99.032 E3.4370
G1 X86.469 Y107.512 E3.8677
G1 X87.14699999999999 Y107.512 E3.8921
G1 X77.895 Y98.25999999999999 E4.3621
G1 X72.08500000000001 Y107.384 F6000
G92 E0.0000
G1 X69.616 Y104.91499999999999 E0.1254 F2880
G1 X69.56700000000001 Y104.72999999999999 E0.1323
G1 X69.509 Y104.36699999999999 E0.1455
G1 X69.496 Y104.116 E0.1545
G1 X72.884 Y107.50399999999999 E0.3266
G1 X73.039 Y107.512 E0.3322
G1 X73.571 Y107.512 E0.3513
G1 X69.488 Y103.429 E0.5587
G1 X69.488 Y102.75 E0.5831
G1 X74.25 Y107.512 E0.8250
G1 X74.929 Y107.512 E0.8494
G1 X69.488 Y102.071 E1.1257
G1 X69.488 Y101.393 E1.1501
G1 X75.607 Y107.512 E1.4610
G1 X76.286 Y107.512 E1.4854
G1 X69.488 Y100.714 E1.8307
G1 X69.488 Y100.035 E1.8551
G1 X76.965 Y107.512 E2.2349
G1 X77.644 Y107.512 E2.2593
G1 X69.488 Y99.356 E2.6736
G1 X69.488 Y98.67699999999999 E2.6980
G1 X78.32300000000001 Y107.512 E3.1468
G1 X79.001 Y107.512 E3.1712
G1 X69.488 Y97.999 E3.6545
G1 X69.488 Y97.32 E3.6789
G1 X72.19800000000001 Y100.03 E3.8165
G1 X72.166 Y99.949 E3.8197
G1 X72.07900000000001 Y99.637 E3.8313
G1 X72.027 Y99.318 E3.8429
G1 X72.019 Y99.172 E3.8482
G1 X69.488 Y96.64099999999999 E3.9768
G1 X69.488 Y96.039 E3.9984
G1 X69.492 Y95.96600000000001 E4.0010
G1 X72.051 Y98.525 E4.1310
G1 X72.07900000000001 Y98.351 E4.1373
G1 X72.166 Y98.039 E4.1490
G1 X72.188 Y97.98400000000001 E4.1511
G1 X69.554 Y95.34899999999999 E4.2849
G1 X69.56700000000001 Y95.27000000000001 E4.2878
G1 X69.662 Y94.91499999999999 E4.3010
G1 X69.7 Y94.816 E4.3048
G1 X72.402 Y97.519 E4.4421
G1 X72.438 Y97.452 E4.4448
G1 X72.619 Y97.184 E4.4564
G1 X72.678 Y97.11500000000001 E4.4597
G1 X69.90899999999999 Y94.346 E4.6004
G1 X69.96000000000001 Y94.245 E4.6044
G1 X70.16 Y93.937 E4.6176
G1 X70.168 Y93.92699999999999 E4.6181
G1 X73.009 Y96.767 E4.7624
G1 X73.064 Y96.715 E4.7651
G1 X73.322 Y96.519 E4.7767
G1 X73.395 Y96.475 E4.7798
G1 X70.482 Y93.561 E4.9278
G1 X70.652 Y93.39099999999999 E4.9365
G1 X70.839 Y93.24000000000001 E4.9451
G1 X73.84 Y96.241 E5.0976
G1 X73.893 Y96.21600000000001 E5.0997
G1 X74.2 Y96.113 E5.1113
G1 X74.356 Y96.078 E5.1170
G1 X71.241 Y92.963 E5.2753
G1 X71.572 Y92.794 E5.2887
G1 X71.701 Y92.744 E5.2936
G1 X74.965 Y96.00800000000001 E5.4594
G1 X75.162 Y96.00800000000001 E5.4665
G1 X75.48400000000001 Y96.043 E5.4781
G1 X75.733 Y96.098 E5.4873
G1 X72.21600000000001 Y92.581 E5.6660
G1 X72.27 Y92.56700000000001 E5.6680
G1 X72.633 Y92.509 E5.6812
G1 X72.814 Y92.5 E5.6877
G1 X87.826 Y107.512 E6.4503
G1 X88.505 Y107.512 E6.4747
G1 X73.481 Y92.488 E7.2379
G1 X74.16 Y92.488 E7.2623
G1 X89.184 Y107.512 E8.0255
G1 X89.863 Y107.512 E8.0499
G1 X74.839 Y92.488 E8.8131
G1 X75.517 Y92.488 E8.8375
G1 X90.541 Y107.512 E9.6007
G1 X91.22 Y107.512 E9.6251
G1 X76.196 Y92.488 E10.3883
G1 X76.875 Y92.488 E10.4127
G1 X91.899 Y107.512 E11.1759
G1 X92.578 Y107.512 E11.2003
G1 X77.554 Y92.488 E11.9635
G1 X78.233 Y92.488 E11.9879
G1 X93.257 Y107.512 E12.7511
G1 X93.936 Y107.512 E12.7755
G1 X78.912 Y92.488 E13.5387
G1 X79.59 Y92.488 E13.5631
G1 X94.614 Y107.512 E14.3263
G1 X95.293 Y107.512 E14.3507
G1 X80.269 Y92.488 E15.1139
G1 X80.94800000000001 Y92.488 E15.1383
G1 X95.97200000000001 Y107.512 E15.9015
G1 X96.65100000000001 Y107.512 E15.9259
G1 X81.627 Y92.488 E16.6891
G1 X82.306 Y92.488 E16.7135
G1 X97.33 Y107.512 E17.4767
G1 X98.00800000000001 Y107.512 E17.5011
G1 X82.98400000000001 Y92.488 E18.2643
G1 X83.663 Y92.488 E18.2887
G1 X98.687 Y107.512 E19.0519
G1 X99.366 Y107.512 E19.0763
G1 X84.342 Y92.488 E19.8395
G1 X85.021 Y92.488 E19.8639
G1 X100.045 Y107.512 E20.6271
G1 X100.72399999999999 Y107.512 E20.6515
G1 X85.7 Y92.488 E21.4147
G1 X86.37899999999999 Y92.488 E21.4391
G1 X101.40299999999999 Y107.512 E22.2023
G1 X102.081 Y107.512 E22.2267
G1 X87.057 Y92.488 E22.9899
G1 X87.73599999999999 Y92.488 E23.0143
G1 X102.75999999999999 Y107.512 E23.7775
G1 X103.439 Y107.512 E23.8019
G1 X88.41499999999999 Y92.488 E24.5651
G1 X89.094 Y92.488 E24.5895
G1 X104.118 Y107.512 E25.3527
G1 X104.797 Y107.512 E25.3771
G1 X89.773 Y92.488 E26.1403
G1 X90.452 Y92.488 E26.1647
G1 X105.476 Y107.512 E26.9279
G1 X106.154 Y107.512 E26.9523
G1 X91.13 Y92.488 E27.7155
G1 X91.809 Y92.488 E27.7399
G1 X106.833 Y107.512 E28.5031
G1 X107.512 Y107.512 E28.5275
G1 X92.488 Y92.488 E29.2907
G1 X93.167 Y92.488 E29.3151
G1 X108.191 Y107.512 E30.0783
G1 X108.87 Y107.512 E30.1027
G1 X93.846 Y92.488 E30.8659
G1 X94.524 Y92.488 E30.8903
G1 X109.548 Y107.512 E31.6535
G1 X110.227 Y107.512 E31.6779
G1 X95.203 Y92.488 E32.4411
G1 X95.882 Y92.488 E32.4655
G1 X110.906 Y107.512 E33.2287
G1 X111.58500000000001 Y107.512 E33.2531
G1 X96.561 Y92.488 E34.0163
G1 X97.24000000000001 Y92.488 E34.0407
G1 X112.26400000000001 Y107.512 E34.8039
G1 X112.943 Y107.512 E34.8283
G1 X97.919 Y92.488 E35.5915
G1 X98.59700000000001 Y92.488 E35.6159
G1 X113.62100000000001 Y107.512 E36.3791
G1 X114.3 Y107.512 E36.4035
G1 X99.27600000000001 Y92.488 E37.1667
G1 X99.955 Y92.488 E37.1911
G1 X114.979 Y107.512 E37.9543
G1 X115.658 Y107.512 E37.9787
G1 X100.634 Y92.488 E38.7419
G1 X101.313 Y92.488 E38.7663
G1 X116.337 Y107.512 E39.5295
G1 X117.016 Y107.512 E39.5539
G1 X101.99199999999999 Y92.488 E40.3171
G1 X102.67 Y92.488 E40.3415
G1 X117.694 Y107.512 E41.1047
G1 X118.373 Y107.512 E41.1291
G1 X103.34899999999999 Y92.488 E41.8923
G1 X104.02799999999999 Y92.488 E41.9167
G1 X119.052 Y107.512 E42.6799
G1 X119.731 Y107.512 E42.7043
G1 X104.707 Y92.488 E43.4675
G1 X105.386 Y92.488 E43.4919
G1 X120.41 Y107.512 E44.2551
G1 X121.088 Y107.512 E44.2795
G1 X106.064 Y92.488 E45.0427
G1 X106.743 Y92.488 E45.0671
G1 X121.767 Y107.512 E45.8303
G1 X122.446 Y107.512 E45.8547
G1 X107.422 Y92.488 E46.6179
G1 X108.101 Y92.488 E46.6423
G1 X123.125 Y107.512 E47.4055
G1 X123.804 Y107.512 E47.4299
G1 X108.78 Y92.488 E48.1931
G1 X109.459 Y92.488 E48.2175
G1 X124.483 Y107.512 E48.9807
G1 X125.161 Y107.512 E49.0051
G1 X110.137 Y92.488 E49.7683
G1 X110.816 Y92.488 E49.7927
G1 X125.84 Y107.512 E50.5559
G1 X126.519 Y107.512 E50.5803
G1 X111.495 Y92.488 E51.3435
G1 X112.174 Y92.488 E51.3679
G1 X127.186 Y107.5 E52.1305
G1 X127.367 Y107.491 E52.1370
G1 X127.73 Y107.43299999999999 E52.1503
G1 X127.784 Y107.419 E52.1522
G1 X112.85300000000001 Y92.488 E52.9107
G1 X113.532 Y92.488 E52.9351
G1 X128.299 Y107.256 E53.6853
G1 X128.428 Y107.207 E53.6903
G1 X128.755 Y107.03999999999999 E53.7035
G1 X128.75900000000001 Y107.037 E53.7036
G1 X114.21 Y92.488 E54.4427
G1 X114.889 Y92.488 E54.4671
G1 X122.095 Y99.694 E54.8332
G1 X122.079 Y99.637 E54.8353
G1 X122.027 Y99.318 E54.8469
G1 X122.009 Y98.994 E54.8586
G1 X122.013 Y98.93299999999999 E54.8608
G1 X115.568 Y92.488 E55.1882
G1 X116.247 Y92.488 E55.2125
G1 X122.086 Y98.327 E55.5092
G1 X122.166 Y98.039 E55.5199
G1 X122.255 Y97.81700000000001 E55.5285
G1 X116.926 Y92.488 E55.7992
G1 X117.604 Y92.488 E55.8236
G1 X122.491 Y97.374 E56.0718
G1 X122.619 Y97.184 E56.0801
G1 X122.785 Y96.99000000000001 E56.0892
G1 X118.283 Y92.488 E56.3179
G1 X118.962 Y92.488 E56.3423
G1 X123.135 Y96.661 E56.5543
G1 X123.322 Y96.519 E56.5627
G1 X123.54 Y96.387 E56.5719
G1 X119.641 Y92.488 E56.7700
G1 X120.32 Y92.488 E56.7944
G1 X124.009 Y96.17699999999999 E56.9818
G1 X124.2 Y96.113 E56.9890
G1 X124.516 Y96.043 E57.0006
G1 X124.55 Y96.039 E57.0019
G1 X120.999 Y92.488 E57.1823
G1 X121.677 Y92.488 E57.2066
G1 X125.202 Y96.012 E57.3857
G1 X125.484 Y96.043 E57.3959
G1 X125.794 Y96.11099999999999 E57.4073
G1 X126.073 Y96.205 E57.4179
G1 X122.356 Y92.488 E57.6067
G1 X123.035 Y92.488 E57.6311
G1 X130.512 Y99.965 E58.0109
G1 X130.512 Y99.286 E58.0353
G1 X123.714 Y92.488 E58.3806
G1 X124.393 Y92.488 E58.4050
G1 X130.512 Y98.607 E58.7159
G1 X130.512 Y97.929 E58.7402
G1 X125.071 Y92.488 E59.0166
G1 X125.75 Y92.488 E59.0410
G1 X130.512 Y97.25 E59.2829
G1 X130.512 Y96.571 E59.3073
G1 X126.429 Y92.488 E59.5147
G1 X126.961 Y92.488 E59.5338
G1 X127.076 Y92.494 E59.5379
G1 X127.116 Y92.49600000000001 E59.5394
G1 X130.50400000000002 Y95.884 E59.7115
G1 X130.49099999999999 Y95.63300000000001 E59.7205
G1 X130.433 Y95.27000000000001 E59.7337
G1 X130.38400000000001 Y95.08500000000001 E59.7406
G1 X127.915 Y92.616 E59.8660
G1 X127.785 Y97.917 F6000
G92 E0.0000
G1 X130.512 Y100.644 E0.1385 F2880
G1 X130.512 Y101.32300000000001 E0.1629
G1 X127.979 Y98.78999999999999 E0.2916
G1 X127.991 Y98.994 E0.2989
G1 X127.973 Y99.318 E0.3105
G1 X127.953 Y99.44200000000001 E0.3151
G1 X130.512 Y102.001 E0.4451
G1 X130.512 Y102.68 E0.4695
G1 X127.819 Y99.987 E0.6063
G1 X127.714 Y100.25 E0.6164
G1 X127.606 Y100.453 E0.6247
G1 X130.512 Y103.35900000000001 E0.7723
G1 X130.512 Y103.961 E0.7939
G1 X130.50799999999998 Y104.03399999999999 E0.7966
G1 X127.334 Y100.86 E0.9578
G1 X127.171 Y101.051 E0.9668
G1 X127.004 Y101.209 E0.9751
G1 X130.446 Y104.65100000000001 E1.1499
G1 X130.433 Y104.72999999999999 E1.1528
G1 X130.338 Y105.08500000000001 E1.1660
G1 X130.3 Y105.184 E1.1698
G1 X126.621 Y101.50399999999999 E1.3568
G1 X126.401 Y101.636 E1.3660
G1 X126.177 Y101.74000000000001 E1.3748
G1 X130.091 Y105.654 E1.5736
G1 X130.04000000000002 Y105.755 E1.5777
G1 X129.84 Y106.063 E1.5909
G1 X129.832 Y106.07300000000001 E1.5914
G1 X125.664 Y101.906 E1.8031
G1 X125.484 Y101.945 E1.8097
G1 X125.162 Y101.97999999999999 E1.8213
G1 X125.06 Y101.97999999999999 E1.8250
G1 X129.518 Y106.439 E2.0515
G1 X129.349 Y106.608 E2.0601
G1 X129.161 Y106.75999999999999 E2.0688
G1 X124.299 Y101.89699999999999 E2.3158
G92 E0.0000
G1 E-12 F600 ; custom retraction - A
; layer 8, Z = 1.600
; feature inner perimeter
;zhopupA
G1 X126.969 Y107.8 F6000
G1 Z1.600 F1200
G1 E0 F600 ; custom un-retraction/prime - A
G92 E0.0000
G1 X73.031 Y107.8 E1.9375 F2700
G1 X72.60300000000001 Y107.77799999999999 E1.9529
G1 X72.21000000000001 Y107.715 E1.9672
G1 X71.826 Y107.612 E1.9814
G1 X71.455 Y107.47 E1.9957
G1 X71.101 Y107.289 E2.0100
G1 X70.767 Y107.07300000000001 E2.0243
G1 X70.459 Y106.82300000000001 E2.0386
G1 X70.17699999999999 Y106.541 E2.0529
G1 X69.92699999999999 Y106.233 E2.0671
G1 X69.711 Y105.899 E2.0814
G1 X69.53 Y105.545 E2.0957
G1 X69.388 Y105.174 E2.1100
G1 X69.285 Y104.78999999999999 E2.1243
G1 X69.22200000000001 Y104.39699999999999 E2.1385
G1 X69.2 Y103.969 E2.1540
G1 X69.2 Y96.031 E2.4391
G1 X69.22200000000001 Y95.60300000000001 E2.4545
G1 X69.285 Y95.21000000000001 E2.4688
G1 X69.388 Y94.826 E2.4830
G1 X69.53 Y94.455 E2.4973
G1 X69.711 Y94.101 E2.5116
G1 X69.92699999999999 Y93.767 E2.5259
G1 X70.17699999999999 Y93.458 E2.5402
G1 X70.458 Y93.17699999999999 E2.5545
G1 X70.767 Y92.92699999999999 E2.5687
G1 X71.101 Y92.711 E2.5830
G1 X71.455 Y92.53 E2.5973
G1 X71.826 Y92.388 E2.6116
G1 X72.21000000000001 Y92.285 E2.6259
G1 X72.60300000000001 Y92.22200000000001 E2.6401
G1 X73.031 Y92.2 E2.6555
G1 X126.969 Y92.2 E4.5930
G1 X127.397 Y92.22200000000001 E4.6084
G1 X127.79 Y92.285 E4.6227
G1 X128.174 Y92.388 E4.6370
G1 X128.54500000000002 Y92.53 E4.6513
G1 X128.899 Y92.711 E4.6656
G1 X129.233 Y92.92699999999999 E4.6798
G1 X129.542 Y93.17699999999999 E4.6941
G1 X129.82299999999998 Y93.458 E4.7084
G1 X130.07299999999998 Y93.767 E4.7227
G1 X130.289 Y94.101 E4.7370
G1 X130.47 Y94.455 E4.7513
G1 X130.612 Y94.826 E4.7655
G1 X130.715 Y95.21000000000001 E4.7798
G1 X130.77800000000002 Y95.60300000000001 E4.7941
G1 X130.8 Y96.031 E4.8095
G1 X130.8 Y103.969 E5.0946
G1 X130.77800000000002 Y104.39699999999999 E5.1100
G1 X130.715 Y104.78999999999999 E5.1243
G1 X130.612 Y105.174 E5.1386
G1 X130.47 Y105.545 E5.1529
G1 X130.289 Y105.899 E5.1672
G1 X130.07299999999998 Y106.233 E5.1814
G1 X129.82299999999998 Y106.541 E5.1957
G1 X129.541 Y106.82300000000001 E5.2100
G1 X129.233 Y107.07300000000001 E5.2243
G1 X128.899 Y107.289 E5.2386
G1 X128.54500000000002 Y107.47 E5.2528
G1 X128.174 Y107.612 E5.2671
G1 X127.79 Y107.715 E5.2814
G1 X127.397 Y107.77799999999999 E5.2957
G1 X126.969 Y107.8 E5.3111
G1 X126.981 Y108.28 F6000
G92 E0.0000
G1 X73.019 Y108.28 E1.9384 F2700
G1 X72.553 Y108.256 E1.9551
G1 X72.11 Y108.185 E1.9712
G1 X71.678 Y108.07 E1.9873
G1 X71.26 Y107.90899999999999 E2.0034
G1 X70.86 Y107.706 E2.0195
G1 X70.485 Y107.462 E2.0356
G1 X70.137 Y107.18 E2.0517
G1 X69.82 Y106.863 E2.0678
G1 X69.538 Y106.515 E2.0839
G1 X69.294 Y106.13900000000001 E2.0999
G1 X69.09100000000001 Y105.74000000000001 E2.1160
G1 X68.93 Y105.322 E2.1321
G1 X68.814 Y104.89 E2.1482
G1 X68.744 Y104.447 E2.1643
G1 X68.72 Y103.981 E2.1811
G1 X68.72 Y96.019 E2.4671
G1 X68.744 Y95.553 E2.4838
G1 X68.814 Y95.11 E2.4999
G1 X68.93 Y94.678 E2.5160
G1 X69.09100000000001 Y94.25999999999999 E2.5321
G1 X69.294 Y93.86099999999999 E2.5482
G1 X69.538 Y93.485 E2.5643
G1 X69.82 Y93.137 E2.5804
G1 X70.137 Y92.82 E2.5965
G1 X70.485 Y92.538 E2.6125
G1 X70.861 Y92.294 E2.6286
G1 X71.26 Y92.09100000000001 E2.6447
G1 X71.678 Y91.93 E2.6608
G1 X72.11 Y91.814 E2.6769
G1 X72.553 Y91.744 E2.6930
G1 X73.019 Y91.72 E2.7098
G1 X126.981 Y91.72 E4.6481
G1 X127.447 Y91.744 E4.6649
G1 X127.89 Y91.815 E4.6810
G1 X128.322 Y91.93 E4.6971
G1 X128.74 Y92.09100000000001 E4.7132
G1 X129.139 Y92.294 E4.7293
G1 X129.515 Y92.538 E4.7453
G1 X129.863 Y92.82 E4.7614
G1 X130.18 Y93.137 E4.7775
G1 X130.462 Y93.485 E4.7936
G1 X130.70600000000002 Y93.86099999999999 E4.8097
G1 X130.909 Y94.25999999999999 E4.8258
G1 X131.07 Y94.678 E4.8419
G1 X131.185 Y95.11 E4.8580
G1 X131.256 Y95.553 E4.8741
G1 X131.28 Y96.019 E4.8908
G1 X131.28 Y103.981 E5.1768
G1 X131.256 Y104.447 E5.1936
G1 X131.185 Y104.89 E5.2097
G1 X131.07 Y105.322 E5.2258
G1 X130.909 Y105.74000000000001 E5.2419
G1 X130.70600000000002 Y106.14 E5.2580
G1 X130.462 Y106.515 E5.2741
G1 X130.18 Y106.863 E5.2901
G1 X129.863 Y107.18 E5.3062
G1 X129.515 Y107.462 E5.3223
G1 X129.14 Y107.706 E5.3384
G1 X128.74 Y107.90899999999999 E5.3545
G1 X128.322 Y108.07 E5.3706
G1 X127.89 Y108.186 E5.3867
G1 X127.447 Y108.256 E5.4028
G1 X126.981 Y108.28 E5.4195
; feature outer perimeter
G1 X126.994 Y108.75999999999999 F6000
G92 E0.0000
G1 X73.006 Y108.75999999999999 E1.9393 F1800
G1 X72.503 Y108.73400000000001 E1.9574
G1 X72.01 Y108.656 E1.9753
G1 X71.529 Y108.527 E1.9932
G1 X71.064 Y108.348 E2.0111
G1 X70.62 Y108.122 E2.0290
G1 X70.202 Y107.851 E2.0469
G1 X69.815 Y107.537 E2.0648
G1 X69.463 Y107.185 E2.0827
G1 X69.149 Y106.798 E2.1006
G1 X68.878 Y106.38 E2.1185
G1 X68.652 Y105.936 E2.1364
G1 X68.473 Y105.471 E2.1543
G1 X68.344 Y104.99000000000001 E2.1722
G1 X68.26599999999999 Y104.49799999999999 E2.1900
G1 X68.24 Y103.994 E2.2082
G1 X68.24 Y96.006 E2.4951
G1 X68.26599999999999 Y95.50200000000001 E2.5132
G1 X68.344 Y95.00999999999999 E2.5311
G1 X68.473 Y94.529 E2.5490
G1 X68.652 Y94.064 E2.5669
G1 X68.878 Y93.62 E2.5848
G1 X69.149 Y93.202 E2.6027
G1 X69.463 Y92.815 E2.6206
G1 X69.815 Y92.463 E2.6385
G1 X70.202 Y92.149 E2.6564
G1 X70.62 Y91.878 E2.6743
G1 X71.064 Y91.652 E2.6922
G1 X71.529 Y91.473 E2.7101
G1 X72.01 Y91.344 E2.7280
G1 X72.502 Y91.26599999999999 E2.7459
G1 X73.006 Y91.24000000000001 E2.7640
G1 X126.994 Y91.24000000000001 E4.7033
G1 X127.497 Y91.26599999999999 E4.7214
G1 X127.99 Y91.344 E4.7393
G1 X128.471 Y91.473 E4.7572
G1 X128.936 Y91.652 E4.7751
G1 X129.38 Y91.878 E4.7930
G1 X129.798 Y92.149 E4.8109
G1 X130.185 Y92.463 E4.8288
G1 X130.537 Y92.815 E4.8467
G1 X130.851 Y93.202 E4.8645
G1 X131.122 Y93.62 E4.8824
G1 X131.348 Y94.064 E4.9003
G1 X131.527 Y94.529 E4.9182
G1 X131.656 Y95.00999999999999 E4.9361
G1 X131.73399999999998 Y95.50200000000001 E4.9540
G1 X131.76 Y96.006 E4.9722
G1 X131.76 Y103.994 E5.2591
G1 X131.73399999999998 Y104.49799999999999 E5.2772
G1 X131.656 Y104.99000000000001 E5.2951
G1 X131.527 Y105.471 E5.3130
G1 X131.348 Y105.936 E5.3309
G1 X131.122 Y106.38 E5.3488
G1 X130.851 Y106.798 E5.3667
G1 X130.537 Y107.185 E5.3846
G1 X130.185 Y107.537 E5.4025
G1 X129.798 Y107.851 E5.4204
G1 X129.38 Y108.122 E5.4383
G1 X128.936 Y108.348 E5.4561
G1 X128.471 Y108.527 E5.4740
G1 X127.99 Y108.656 E5.4919
G1 X127.497 Y108.73400000000001 E5.5098
G1 X126.994 Y108.75999999999999 E5.5280
; feature solid layer
G1 X130.38400000000001 Y104.91499999999999 F6000
G92 E0.0000
G1 X127.915 Y107.384 E0.1254 F2880
G1 X127.73 Y107.43299999999999 E0.1323
G1 X127.367 Y107.491 E0.1455
G1 X127.116 Y107.50399999999999 E0.1545
G1 X130.50400000000002 Y104.116 E0.3266
G1 X130.512 Y103.961 E0.3322
G1 X130.512 Y103.429 E0.3513
G1 X126.429 Y107.512 E0.5587
G1 X125.75 Y107.512 E0.5831
G1 X130.512 Y102.75 E0.8250
G1 X130.512 Y102.072 E0.8494
G1 X125.072 Y107.512 E1.1257
G1 X124.393 Y107.512 E1.1501
G1 X130.512 Y101.393 E1.4610
G1 X130.512 Y100.714 E1.4854
G1 X123.714 Y107.512 E1.8307
G1 X123.035 Y107.512 E1.8551
G1 X130.512 Y100.035 E2.2349
G1 X130.512 Y99.356 E2.2593
G1 X122.356 Y107.512 E2.6736
G1 X121.677 Y107.512 E2.6980
G1 X130.512 Y98.67699999999999 E3.1468
G1 X130.512 Y97.999 E3.1712
G1 X120.999 Y107.512 E3.6545
G1 X120.32 Y107.512 E3.6788
G1 X126.035 Y101.79599999999999 E3.9692
G1 X125.8 Y101.876 E3.9781
G1 X125.484 Y101.945 E3.9897
G1 X125.174 Y101.979 E4.0009
G1 X119.641 Y107.512 E4.2820
G1 X118.962 Y107.512 E4.3064
G1 X124.528 Y101.947 E4.5891
G1 X124.516 Y101.945 E4.5895
G1 X124.2 Y101.876 E4.6012
G1 X123.99 Y101.805 E4.6091
G1 X118.283 Y107.512 E4.8990
G1 X117.604 Y107.512 E4.9234
G1 X123.525 Y101.592 E5.2242
G1 X123.322 Y101.469 E5.2327
G1 X123.121 Y101.31700000000001 E5.2417
G1 X116.926 Y107.512 E5.5564
G1 X116.247 Y107.512 E5.5808
G1 X122.773 Y100.985 E5.9124
G1 X122.619 Y100.804 E5.9209
G1 X122.481 Y100.59899999999999 E5.9298
G1 X115.568 Y107.512 E6.2810
G1 X114.889 Y107.512 E6.3054
G1 X122.248 Y100.154 E6.6792
G1 X122.166 Y99.949 E6.6871
G1 X122.081 Y99.642 E6.6985
G1 X114.21 Y107.512 E7.0983
G1 X113.532 Y107.512 E7.1227
G1 X122.012 Y99.032 E7.5535
G1 X122.009 Y98.994 E7.5549
G1 X122.027 Y98.67099999999999 E7.5665
G1 X122.079 Y98.351 E7.5781
G1 X122.105 Y98.25999999999999 E7.5815
G1 X112.85300000000001 Y107.512 E8.0515
G1 X112.174 Y107.512 E8.0759
G1 X127.186 Y92.5 E8.8385
G1 X127.076 Y92.494 E8.8425
G1 X126.961 Y92.488 E8.8466
G1 X126.519 Y92.488 E8.8625
G1 X111.495 Y107.512 E9.6257
G1 X110.816 Y107.512 E9.6501
G1 X125.84 Y92.488 E10.4133
G1 X125.161 Y92.488 E10.4377
G1 X110.137 Y107.512 E11.2009
G1 X109.459 Y107.512 E11.2253
G1 X124.483 Y92.488 E11.9885
G1 X123.804 Y92.488 E12.0129
G1 X108.78 Y107.512 E12.7761
G1 X108.101 Y107.512 E12.8005
G1 X123.125 Y92.488 E13.5637
G1 X122.446 Y92.488 E13.5881
G1 X107.422 Y107.512 E14.3513
G1 X106.743 Y107.512 E14.3757
G1 X121.767 Y92.488 E15.1389
G1 X121.088 Y92.488 E15.1633
G1 X106.064 Y107.512 E15.9265
G1 X105.386 Y107.512 E15.9509
G1 X120.41 Y92.488 E16.7141
G1 X119.731 Y92.488 E16.7385
G1 X104.707 Y107.512 E17.5017
G1 X104.02799999999999 Y107.512 E17.5261
G1 X119.052 Y92.488 E18.2893
G1 X118.373 Y92.488 E18.3137
G1 X103.34899999999999 Y107.512 E19.0769
G1 X102.67 Y107.512 E19.1013
G1 X117.694 Y92.488 E19.8645
G1 X117.016 Y92.488 E19.8889
G1 X101.99199999999999 Y107.512 E20.6521
G1 X101.313 Y107.512 E20.6765
G1 X116.337 Y92.488 E21.4397
G1 X115.658 Y92.488 E21.4641
G1 X100.634 Y107.512 E22.2273
G1 X99.955 Y107.512 E22.2517
G1 X114.979 Y92.488 E23.0149
G1 X114.3 Y92.488 E23.0393
G1 X99.27600000000001 Y107.512 E23.8025
G1 X98.59700000000001 Y107.512 E23.8269
G1 X113.62100000000001 Y92.488 E24.5901
G1 X112.943 Y92.488 E24.6145
G1 X97.919 Y107.512 E25.3777
G1 X97.24000000000001 Y107.512 E25.4021
G1 X112.26400000000001 Y92.488 E26.1653
G1 X111.58500000000001 Y92.488 E26.1897
G1 X96.561 Y107.512 E26.9529
G1 X95.882 Y107.512 E26.9773
G1 X110.906 Y92.488 E27.7405
G1 X110.227 Y92.488 E27.7649
G1 X95.203 Y107.512 E28.5281
G1 X94.525 Y107.512 E28.5525
G1 X109.549 Y92.488 E29.3157
G1 X108.87 Y92.488 E29.3401
G1 X93.846 Y107.512 E30.1033
G1 X93.167 Y107.512 E30.1277
G1 X108.191 Y92.488 E30.8909
G1 X107.512 Y92.488 E30.9153
G1 X92.488 Y107.512 E31.6785
G1 X91.809 Y107.512 E31.7029
G1 X106.833 Y92.488 E32.4662
G1 X106.154 Y92.488 E32.4905
G1 X91.13 Y107.512 E33.2538
G1 X90.452 Y107.512 E33.2781
G1 X105.476 Y92.488 E34.0414
G1 X104.797 Y92.488 E34.0657
G1 X89.773 Y107.512 E34.8290
G1 X89.094 Y107.512 E34.8533
G1 X104.118 Y92.488 E35.6166
G1 X103.439 Y92.488 E35.6409
G1 X88.41499999999999 Y107.512 E36.4042
G1 X87.73599999999999 Y107.512 E36.4285
G1 X102.75999999999999 Y92.488 E37.1918
G1 X102.081 Y92.488 E37.2161
G1 X87.057 Y107.512 E37.9794
G1 X86.37899999999999 Y107.512 E38.0037
G1 X101.40299999999999 Y92.488 E38.7670
G1 X100.72399999999999 Y92.488 E38.7913
G1 X85.7 Y107.512 E39.5546
G1 X85.021 Y107.512 E39.5789
G1 X100.045 Y92.488 E40.3422
G1 X99.366 Y92.488 E40.3665
G1 X84.342 Y107.512 E41.1298
G1 X83.663 Y107.512 E41.1541
G1 X98.687 Y92.488 E41.9174
G1 X98.009 Y92.488 E41.9417
G1 X82.985 Y107.512 E42.7050
G1 X82.306 Y107.512 E42.7293
G1 X97.33 Y92.488 E43.4926
G1 X96.65100000000001 Y92.488 E43.5169
G1 X81.627 Y107.512 E44.2802
G1 X80.94800000000001 Y107.512 E44.3045
G1 X95.97200000000001 Y92.488 E45.0678
G1 X95.293 Y92.488 E45.0921
G1 X80.269 Y107.512 E45.8554
G1 X79.59 Y107.512 E45.8798
G1 X94.614 Y92.488 E46.6430
G1 X93.936 Y92.488 E46.6674
G1 X78.912 Y107.512 E47.4306
G1 X78.233 Y107.512 E47.4550
G1 X93.257 Y92.488 E48.2182
G1 X92.578 Y92.488 E48.2426
G1 X77.554 Y107.512 E49.0058
G1 X76.875 Y107.512 E49.0302
G1 X91.899 Y92.488 E49.7934
G1 X91.22 Y92.488 E49.8178
